a6000 slog2_1.C0006.cube
TITLE "Generate by Resolve"
LUT_3D_SIZE 33
0.0882582 0.0882582 0.0882582
0.104707 0.0880446 0.0883192
0.119646 0.0878462 0.0883803
0.133425 0.0876478 0.0884565
0.148333 0.0874037 0.0885328
0.164385 0.0871138 0.0886244
0.181231 0.0867781 0.0887312
0.198535 0.0863966 0.0888685
0.216052 0.0859693 0.0890059
0.23357 0.0854963 0.0891585
0.250965 0.0849622 0.0893263
0.268101 0.0843824 0.0895247
0.284916 0.0837568 0.0897231
0.30135 0.0830701 0.0899519
0.317372 0.0823224 0.0901961
0.332967 0.081529 0.0904555
0.348135 0.0806744 0.0907301
0.36286 0.0797742 0.0910201
0.377172 0.0788128 0.0913405
0.391043 0.0777905 0.0916609
0.404517 0.0767071 0.0920119
0.417594 0.0755779 0.0923781
0.430289 0.0743725 0.0927596
0.442618 0.0731212 0.0931716
0.454612 0.071809 0.0935836
0.466255 0.0704356 0.0940261
0.477577 0.0690013 0.0944839
0.488594 0.0675059 0.0949569
0.499321 0.0659495 0.0954452
0.509758 0.0643168 0.095964
0.519936 0.0626383 0.0964981
0.529854 0.0608835 0.0970474
0.539528 0.0590829 0.097612
0.0878767 0.102495 0.088014
0.104372 0.102312 0.0880751
0.119341 0.102129 0.0881514
0.13315 0.101946 0.0882124
0.148074 0.101717 0.0882887
0.164157 0.101457 0.0883955
0.181018 0.101152 0.0885023
0.198352 0.100801 0.0886244
0.215885 0.100404 0.0887617
0.233417 0.0999619 0.0889296
0.250828 0.0994583 0.0890974
0.267979 0.0989242 0.0892958
0.284794 0.0983291 0.0894942
0.301244 0.097673 0.0897231
0.317281 0.0969863 0.0899672
0.332891 0.0962234 0.0902266
0.348058 0.0954147 0.0905013
0.362799 0.0945449 0.0907912
0.377096 0.0936141 0.0911116
0.390982 0.0926223 0.0914321
0.404471 0.0915694 0.091783
0.417548 0.0904555 0.0921492
0.430243 0.0892805 0.0925307
0.442588 0.0880293 0.0929427
0.454566 0.086717 0.0933547
0.466224 0.0853285 0.0937972
0.477546 0.0838941 0.094255
0.488563 0.0823987 0.094728
0.49929 0.0808423 0.0952316
0.509743 0.0792248 0.0957351
0.519905 0.0775311 0.0962692
0.529839 0.0757916 0.0968185
0.539498 0.0739757 0.0973831
0.0874952 0.115602 0.0877852
0.104021 0.115419 0.0878462
0.11902 0.115251 0.0879072
0.13286 0.115084 0.0879835
0.147814 0.11487 0.0880598
0.163912 0.114641 0.0881514
0.180804 0.114351 0.0882582
0.198154 0.114031 0.0883955
0.215702 0.113664 0.0885328
0.233265 0.113252 0.0886854
0.25069 0.112795 0.0888685
0.267857 0.112291 0.0890516
0.284688 0.111757 0.0892653
0.301152 0.111162 0.0894789
0.317189 0.110521 0.0897231
0.332815 0.109819 0.0899825
0.347982 0.109071 0.0902724
0.362722 0.108278 0.0905623
0.377035 0.107424 0.0908675
0.390936 0.106523 0.0912032
0.40441 0.105547 0.0915541
0.417502 0.104524 0.0919203
0.430198 0.103441 0.0923018
0.442542 0.102296 0.0927138
0.454536 0.101091 0.0931258
0.466178 0.0998093 0.0935683
0.477516 0.0984665 0.0940261
0.488533 0.0970626 0.0944991
0.49926 0.0955825 0.0950027
0.509712 0.0940261 0.0955062
0.51989 0.0923934 0.0960403
0.529809 0.0906691 0.0965896
0.539483 0.0888838 0.0971542
0.0871138 0.12781 0.087541
0.103685 0.127642 0.087602
0.118715 0.127489 0.0876783
0.13257 0.127321 0.0877394
0.147555 0.127138 0.0878157
0.163684 0.126909 0.0879225
0.180591 0.12665 0.0880293
0.197955 0.126345 0.0881514
0.215534 0.126009 0.0882887
0.233112 0.125628 0.0884565
0.250553 0.125216 0.0886244
0.267735 0.124758 0.0888228
0.284581 0.124239 0.0890211
0.301045 0.12369 0.08925
0.317098 0.123095 0.0894942
0.332723 0.122454 0.0897536
0.347906 0.121767 0.0900282
0.362661 0.121035 0.0903182
0.376974 0.120241 0.0906386
0.390875 0.119402 0.0909743
0.404364 0.118517 0.0913252
0.417441 0.117571 0.0916915
0.430152 0.116579 0.0920729
0.442496 0.115511 0.0924697
0.45449 0.114397 0.0928969
0.466148 0.113237 0.0933394
0.47747 0.112001 0.0937972
0.488502 0.110704 0.0942702
0.499229 0.109331 0.0947738
0.509682 0.107912 0.0952773
0.51986 0.106416 0.0958114
0.529778 0.104845 0.0963607
0.539452 0.103197 0.0969253
0.086656 0.141146 0.0872511
0.103273 0.140993 0.0873274
0.118334 0.140841 0.0873884
0.132219 0.140703 0.0874647
0.147234 0.14052 0.087541
0.163394 0.140322 0.0876326
0.180331 0.140078 0.0877394
0.197726 0.139803 0.0878614
0.215335 0.139483 0.088014
0.232929 0.139147 0.0881666
0.250385 0.13875 0.0883497
0.267582 0.138323 0.0885328
0.284443 0.137865 0.0887465
0.300923 0.137362 0.0889754
0.316991 0.136812 0.0892195
0.332631 0.136217 0.0894789
0.347814 0.135592 0.0897536
0.36257 0.13492 0.0900435
0.376898 0.134188 0.0903639
0.390799 0.133425 0.0906996
0.404288 0.132616 0.0910353
0.417395 0.131746 0.0914168
0.430106 0.130831 0.0917983
0.442451 0.12987 0.092195
0.454444 0.128847 0.0926223
0.466102 0.127779 0.0930648
0.47744 0.12665 0.0935225
0.488472 0.12546 0.0940108
0.499199 0.124224 0.0944991
0.509651 0.122911 0.0950179
0.519829 0.121553 0.095552
0.529747 0.120119 0.0961013
0.539437 0.118639 0.0966659
0.0861219 0.155642 0.0869306
0.10277 0.155505 0.0869917
0.117891 0.155383 0.0870527
0.131807 0.155245 0.087129
0.146868 0.155077 0.0872053
0.163058 0.154894 0.0872969
0.180026 0.154681 0.0874037
0.197452 0.154421 0.087541
0.215091 0.154131 0.0876783
0.232715 0.153826 0.0878309
0.250187 0.15346 0.088014
0.267399 0.153079 0.0881971
0.284291 0.152651 0.0884108
0.300786 0.152193 0.0886397
0.316854 0.15169 0.0888838
0.332509 0.151156 0.0891432
0.347707 0.150576 0.0894179
0.362478 0.149966 0.0897231
0.376806 0.14931 0.0900282
0.390723 0.148608 0.0903639
0.404227 0.14786 0.0907149
0.417319 0.147082 0.0910811
0.430045 0.146242 0.0914626
0.44239 0.145373 0.0918746
0.454383 0.144442 0.0923018
0.466056 0.143481 0.0927443
0.477394 0.142458 0.0932021
0.488426 0.141375 0.0936751
0.499153 0.140261 0.0941787
0.509606 0.139071 0.0946975
0.519799 0.13785 0.0952316
0.529717 0.136553 0.0957809
0.539406 0.13521 0.0963455
0.0854963 0.170993 0.0865339
0.102205 0.170871 0.0865949
0.117372 0.170764 0.0866712
0.131334 0.170642 0.0867323
0.146426 0.170489 0.0868086
0.162661 0.170321 0.0869154
0.179675 0.170123 0.0870222
0.197147 0.169894 0.0871443
0.214801 0.169635 0.0872816
0.232456 0.169345 0.0874495
0.249958 0.169024 0.0876173
0.267201 0.168673 0.0878157
0.284092 0.168292 0.088014
0.300618 0.167865 0.0882429
0.316716 0.167407 0.0884871
0.332372 0.166934 0.0887465
0.347585 0.1664 0.0890364
0.362371 0.16585 0.0893263
0.376715 0.165255 0.0896468
0.390631 0.164614 0.0899825
0.404135 0.163943 0.0903334
0.417243 0.163241 0.0906996
0.429969 0.162478 0.0910811
0.442313 0.161685 0.0914931
0.454322 0.160861 0.0919203
0.465995 0.159976 0.0923629
0.477333 0.15906 0.0928206
0.488365 0.158083 0.0933089
0.499107 0.157076 0.0937972
0.50956 0.156008 0.094316
0.519753 0.15491 0.0948501
0.529671 0.15375 0.0953994
0.539361 0.152529 0.0959793
0.0847791 0.186923 0.0860914
0.101549 0.186816 0.0861524
0.116777 0.186694 0.0862287
0.130785 0.186587 0.0862898
0.145937 0.186465 0.0863661
0.162219 0.186297 0.0864729
0.179278 0.18613 0.0865797
0.19678 0.185916 0.0867018
0.214481 0.185687 0.0868391
0.232166 0.185412 0.0870069
0.249699 0.185122 0.0871748
0.266957 0.184817 0.0873732
0.283894 0.184466 0.0875715
0.30042 0.184085 0.0878004
0.316533 0.183673 0.0880446
0.332219 0.18323 0.088304
0.347448 0.182773 0.0885939
0.362234 0.182254 0.0888838
0.376593 0.18172 0.0892042
0.390524 0.181155 0.0895399
0.404028 0.180545 0.0898909
0.417151 0.179904 0.0902571
0.429877 0.179232 0.0906539
0.442237 0.178515 0.0910658
0.454246 0.177752 0.0914778
0.465919 0.176974 0.0919356
0.477272 0.176135 0.0923934
0.488304 0.175265 0.0928664
0.499046 0.174365 0.09337
0.509514 0.173404 0.0938888
0.519707 0.172412 0.0944228
0.529625 0.171374 0.0949874
0.539315 0.170291 0.095552
0.0839857 0.203174 0.0855879
0.100801 0.203067 0.0856489
0.116091 0.202976 0.0857252
0.130175 0.202869 0.0857862
0.145373 0.202747 0.0858778
0.161715 0.202609 0.0859693
0.17882 0.202441 0.0860761
0.196368 0.202258 0.0861982
0.214115 0.202045 0.0863355
0.23183 0.201816 0.0865034
0.249409 0.201556 0.0866712
0.266697 0.201266 0.0868696
0.28365 0.200946 0.0870832
0.300206 0.20061 0.0872969
0.31635 0.200244 0.087541
0.332036 0.199847 0.0878157
0.34728 0.19942 0.0880903
0.362081 0.198962 0.0883955
0.376455 0.198474 0.0887007
0.390387 0.197955 0.0890364
0.403922 0.197421 0.0893873
0.417044 0.196841 0.0897688
0.429786 0.196231 0.0901503
0.442145 0.19559 0.0905623
0.45417 0.194903 0.0909895
0.465843 0.194202 0.0914321
0.477195 0.193454 0.0919051
0.488243 0.192676 0.0923781
0.498985 0.191852 0.0928817
0.509453 0.190997 0.0934005
0.519646 0.190112 0.0939498
0.52958 0.189181 0.0944991
0.539269 0.188205 0.095079
0.0830854 0.219547 0.0850233
0.0999771 0.219455 0.0850996
0.115343 0.219364 0.0851606
0.129473 0.219272 0.0852369
0.144732 0.219165 0.0853132
0.161135 0.219043 0.0854047
0.178302 0.218891 0.0855116
0.195911 0.218723 0.0856489
0.213703 0.21854 0.0857862
0.231464 0.218326 0.0859388
0.249073 0.218082 0.0861219
0.266407 0.217823 0.086305
0.283391 0.217548 0.0865187
0.299962 0.217243 0.0867475
0.316121 0.216907 0.0869917
0.331838 0.216541 0.0872511
0.347112 0.216159 0.0875257
0.361929 0.215747 0.0878309
0.376303 0.21532 0.0881514
0.390249 0.214847 0.0884871
0.4038 0.214359 0.088838
0.416922 0.21384 0.0892195
0.429679 0.213291 0.089601
0.442054 0.212711 0.090013
0.454078 0.212116 0.0904402
0.465766 0.211475 0.0908827
0.477119 0.210803 0.0913558
0.488167 0.210101 0.0918441
0.498924 0.209369 0.0923476
0.509392 0.208606 0.0928664
0.519585 0.207797 0.0934005
0.529519 0.206973 0.0939651
0.539208 0.206104 0.0945449
0.0820935 0.235904 0.0844129
0.0990463 0.235828 0.0844739
0.114504 0.235752 0.0845502
0.12871 0.23566 0.0846113
0.144045 0.235569 0.0846876
0.16051 0.235447 0.0847944
0.177737 0.235325 0.0849012
0.195407 0.235172 0.0850233
0.213245 0.234989 0.0851606
0.231067 0.234806 0.0853285
0.248707 0.234592 0.0854963
0.266072 0.234363 0.0856947
0.283085 0.234104 0.085893
0.299702 0.233829 0.0861219
0.315877 0.233524 0.0863661
0.331624 0.233204 0.0866255
0.346914 0.232853 0.0869154
0.361746 0.232486 0.0872053
0.376135 0.23209 0.0875257
0.390112 0.231678 0.0878614
0.403647 0.231235 0.0882277
0.4168 0.230762 0.0885939
0.429557 0.230274 0.0889906
0.441947 0.229755 0.0894026
0.453971 0.229206 0.0898299
0.46566 0.228626 0.0902876
0.477028 0.228031 0.0907454
0.48809 0.227405 0.0912337
0.498848 0.226734 0.0917372
0.509316 0.226047 0.092256
0.519524 0.22533 0.0928054
0.529458 0.224582 0.09337
0.539147 0.223804 0.0939345
0.0809949 0.25214 0.0837415
0.098024 0.252064 0.0838026
0.113573 0.251987 0.0838636
0.127855 0.251911 0.0839399
0.143267 0.25182 0.0840162
0.159808 0.251728 0.0841077
0.177111 0.251606 0.0842145
0.194842 0.251469 0.0843519
0.212741 0.251301 0.0844892
0.23061 0.251133 0.0846418
0.24831 0.250935 0.0848249
0.265705 0.250736 0.085008
0.282765 0.250492 0.0852216
0.299413 0.250248 0.0854505
0.315618 0.249973 0.0856947
0.33138 0.249683 0.0859541
0.346685 0.249378 0.0862287
0.361547 0.249042 0.0865339
0.375952 0.248692 0.0868544
0.389944 0.24831 0.0871901
0.403494 0.247913 0.087541
0.416663 0.247486 0.0879225
0.429419 0.247044 0.0883192
0.441825 0.246571 0.0887312
0.453864 0.246082 0.0891585
0.465568 0.245563 0.0896162
0.476936 0.245029 0.090074
0.487999 0.244465 0.0905623
0.498756 0.24387 0.0910811
0.509239 0.243244 0.0915999
0.519448 0.242603 0.0921492
0.529397 0.241932 0.0926986
0.539086 0.24123 0.0932937
0.0798199 0.268132 0.0829938
0.09691 0.26807 0.0830549
0.112551 0.267994 0.0831311
0.126925 0.267933 0.0831922
0.142428 0.267857 0.0832837
0.159045 0.267765 0.0833753
0.176425 0.267659 0.0834821
0.194232 0.267521 0.0836042
0.212192 0.267384 0.0837415
0.230121 0.267231 0.0839094
0.247868 0.267048 0.0840772
0.265324 0.266865 0.0842756
0.282414 0.266651 0.0844892
0.299092 0.266423 0.0847028
0.315328 0.266178 0.084947
0.331121 0.265919 0.0852216
0.346456 0.265644 0.0854963
0.361334 0.265339 0.0858015
0.375753 0.265019 0.0861067
0.389761 0.264683 0.0864424
0.403326 0.264317 0.0868086
0.416495 0.263935 0.0871748
0.429282 0.263539 0.0875715
0.441688 0.263111 0.0879835
0.453742 0.262669 0.088426
0.465446 0.262196 0.0888685
0.476829 0.261707 0.0893416
0.487892 0.261204 0.0898299
0.498665 0.26067 0.0903487
0.509148 0.260105 0.0908675
0.519356 0.259525 0.0914168
0.52932 0.25893 0.0919814
0.53901 0.258305 0.0925612
0.0785229 0.283848 0.0822003
0.0956893 0.283787 0.0822614
0.111452 0.283726 0.0823224
0.125917 0.283665 0.0823987
0.141497 0.283604 0.082475
0.158221 0.283513 0.0825666
0.175677 0.283421 0.0826734
0.193561 0.283299 0.0828107
0.211597 0.283177 0.082948
0.229587 0.283024 0.0831006
0.247395 0.282872 0.0832837
0.264897 0.282704 0.0834669
0.282017 0.282506 0.0836805
0.298741 0.282307 0.0839094
0.315022 0.282078 0.0841535
0.330831 0.281849 0.0844129
0.346197 0.28159 0.0846876
0.361089 0.281315 0.0849928
0.37554 0.281025 0.0853132
0.389563 0.28072 0.0856489
0.403143 0.280385 0.0859998
0.416342 0.280049 0.0863813
0.429129 0.279683 0.0867781
0.44155 0.279301 0.0871901
0.453605 0.278904 0.0876173
0.465324 0.278477 0.0880751
0.476707 0.278035 0.0885481
0.487785 0.277577 0.0890364
0.498558 0.277089 0.0895552
0.509056 0.276585 0.0900893
0.51928 0.276066 0.0906386
0.529229 0.275517 0.0912032
0.538933 0.274952 0.091783
0.0771496 0.299245 0.0813306
0.0943618 0.299184 0.0813916
0.110246 0.299138 0.0814679
0.124819 0.299077 0.081529
0.140505 0.299016 0.0816052
0.157321 0.298939 0.0817121
0.174868 0.298848 0.0818189
0.192844 0.298741 0.0819409
0.210956 0.298619 0.0820783
0.229007 0.298497 0.0822461
0.246876 0.298344 0.082414
0.264424 0.298192 0.0826123
0.281605 0.298024 0.0828107
0.29836 0.297841 0.0830396
0.314672 0.297627 0.0832837
0.330526 0.297414 0.0835431
0.345907 0.297185 0.0838331
0.36083 0.296941 0.084123
0.375311 0.296681 0.0844434
0.389349 0.296391 0.0847791
0.40296 0.296101 0.0851453
0.416159 0.295781 0.0855116
0.428962 0.29546 0.0859083
0.441398 0.295109 0.0863203
0.453468 0.294743 0.0867628
0.465187 0.294362 0.0872053
0.476585 0.293965 0.0876783
0.487678 0.293553 0.0881819
0.498451 0.293111 0.0887007
0.508949 0.292653 0.0892195
0.519173 0.29218 0.0897841
0.529137 0.291691 0.0903487
0.538857 0.291173 0.0909438
0.0756542 0.314275 0.0803998
0.0929122 0.314229 0.0804761
0.108934 0.314183 0.0805371
0.123629 0.314122 0.0805982
0.139422 0.314061 0.0806897
0.156344 0.314 0.0807813
0.173999 0.313909 0.0808881
0.192065 0.313817 0.0810101
0.210254 0.31371 0.0811475
0.228382 0.313603 0.0813153
0.246311 0.313466 0.0814832
0.26392 0.313329 0.0816815
0.281163 0.313161 0.0818952
0.297963 0.312993 0.0821088
0.314305 0.31281 0.0823529
0.33019 0.312612 0.0826276
0.345617 0.312398 0.0829023
0.360571 0.312184 0.0832074
0.375067 0.31194 0.0835126
0.38912 0.311681 0.0838483
0.402747 0.311421 0.0842145
0.415961 0.311131 0.0845808
0.428779 0.310826 0.0849775
0.44123 0.310521 0.0853895
0.453315 0.310185 0.085832
0.465049 0.309834 0.0862898
0.476448 0.309483 0.0867628
0.487541 0.309102 0.0872511
0.498344 0.308705 0.0877699
0.508843 0.308293 0.088304
0.519081 0.307866 0.0888533
0.529046 0.307408 0.0894331
0.538766 0.30695 0.0900282
0.0740673 0.328939 0.079408
0.0913558 0.328893 0.079469
0.10753 0.328847 0.0795453
0.122347 0.328801 0.0796063
0.138262 0.328756 0.0796979
0.155306 0.328679 0.0797894
0.173068 0.328603 0.0798962
0.191226 0.328527 0.0800183
0.209506 0.328435 0.0801556
0.227726 0.328313 0.0803235
0.245716 0.328206 0.0804913
0.263386 0.328069 0.0806897
0.280674 0.327932 0.0809033
0.297536 0.327779 0.081117
0.313924 0.327611 0.0813611
0.329839 0.327428 0.0816358
0.345296 0.32723 0.0819104
0.360265 0.327031 0.0822156
0.374792 0.326802 0.0825208
0.388876 0.326574 0.0828565
0.402518 0.326329 0.0832227
0.415747 0.32607 0.0835889
0.428595 0.325795 0.0839857
0.441047 0.325521 0.0843977
0.453147 0.325216 0.0848402
0.464897 0.324895 0.0852979
0.47631 0.324559 0.085771
0.487419 0.324224 0.0862593
0.498207 0.323857 0.0867781
0.508721 0.323491 0.0873121
0.518959 0.323095 0.0878614
0.528939 0.322683 0.0884413
0.538674 0.322271 0.0890364
0.0723583 0.343221 0.0783551
0.0896925 0.343191 0.0784161
0.10602 0.343145 0.0784924
0.120958 0.343099 0.0785534
0.137011 0.343053 0.0786297
0.154177 0.342992 0.0787213
0.172061 0.342916 0.0788434
0.190326 0.34284 0.0789654
0.208698 0.342763 0.0791028
0.227008 0.342657 0.0792554
0.245075 0.34255 0.0794385
0.262821 0.342428 0.0796216
0.280171 0.342306 0.0798352
0.297063 0.342153 0.0800641
0.313497 0.342 0.0803082
0.329458 0.341848 0.0805676
0.344945 0.341665 0.0808576
0.35996 0.341482 0.0811475
0.374502 0.341283 0.0814679
0.388602 0.34107 0.0818036
0.402274 0.340841 0.0821546
0.415534 0.340612 0.082536
0.428382 0.340352 0.0829328
0.440864 0.340093 0.0833448
0.452964 0.339818 0.083772
0.464729 0.339529 0.0842298
0.476158 0.339223 0.0847028
0.487266 0.338918 0.0852064
0.498085 0.338582 0.0857099
0.508598 0.338247 0.0862593
0.518853 0.337881 0.0868086
0.528832 0.337514 0.0873884
0.538567 0.337133 0.0879835
0.0705577 0.357137 0.0772259
0.087892 0.357092 0.0773022
0.104387 0.357061 0.0773632
0.119478 0.357015 0.0774243
0.135668 0.35697 0.0775158
0.152972 0.356924 0.0776074
0.170977 0.356847 0.0777142
0.189364 0.356786 0.0778363
0.207843 0.356695 0.0779736
0.226246 0.356603 0.0781415
0.244388 0.356512 0.0783093
0.262211 0.356405 0.0785077
0.279622 0.356283 0.0787213
0.296574 0.356146 0.0789349
0.313054 0.356008 0.0791791
0.329061 0.355856 0.0794537
0.344579 0.355703 0.0797284
0.359625 0.355535 0.0800336
0.374197 0.355352 0.0803388
0.388327 0.355154 0.0806744
0.402014 0.35494 0.0810407
0.41529 0.354726 0.0814069
0.428168 0.354498 0.0818036
0.440665 0.354253 0.0822156
0.452781 0.354009 0.0826581
0.464561 0.35375 0.0831159
0.47599 0.353475 0.0835889
0.487114 0.353185 0.0840772
0.497932 0.35288 0.084596
0.508476 0.35256 0.0851301
0.51873 0.352239 0.0856794
0.52871 0.351904 0.0862593
0.53846 0.351553 0.0868544
0.0686503 0.370657 0.0760357
0.0859846 0.370626 0.0760967
0.102663 0.370596 0.076173
0.117906 0.37055 0.0762341
0.134249 0.37052 0.0763104
0.15169 0.370459 0.0764172
0.169833 0.370398 0.076524
0.188342 0.370336 0.0766461
0.206943 0.37026 0.0767834
0.225422 0.370184 0.0769513
0.243671 0.370092 0.0771191
0.261555 0.369985 0.0773175
0.279026 0.369879 0.0775158
0.296056 0.369757 0.0777447
0.312581 0.369635 0.0779889
0.328634 0.369497 0.0782635
0.344182 0.369345 0.0785382
0.359274 0.369192 0.0788434
0.373877 0.369024 0.0791485
0.388037 0.368841 0.0794842
0.401755 0.368658 0.0798505
0.415045 0.36846 0.0802167
0.427939 0.368246 0.0806134
0.440436 0.368017 0.0810254
0.452583 0.367788 0.0814679
0.464378 0.367544 0.0819257
0.475822 0.3673 0.0823987
0.486961 0.367025 0.082887
0.497795 0.366751 0.0834058
0.508324 0.366461 0.0839399
0.518593 0.366171 0.0844892
0.528588 0.36585 0.085069
0.538338 0.36553 0.0856641
0.0666209 0.38381 0.0747845
0.0839551 0.38378 0.0748455
0.100801 0.383749 0.0749065
0.116213 0.383719 0.0749828
0.132723 0.383688 0.0750591
0.150317 0.383642 0.0751507
0.168612 0.383581 0.0752575
0.187259 0.38352 0.0753948
0.205966 0.383459 0.0755322
0.224567 0.383383 0.0756847
0.242893 0.383291 0.0758679
0.260868 0.3832 0.076051
0.278416 0.383093 0.0762646
0.295491 0.382986 0.0764935
0.312078 0.382864 0.0767376
0.328176 0.382742 0.076997
0.343771 0.382605 0.0772717
0.358892 0.382467 0.0775769
0.373541 0.3823 0.0778973
0.387717 0.382147 0.078233
0.401465 0.381964 0.078584
0.414771 0.381781 0.0789654
0.427695 0.381598 0.0793622
0.440223 0.381384 0.0797742
0.452369 0.38117 0.0802014
0.464179 0.380957 0.0806592
0.475639 0.380728 0.0811322
0.486793 0.380484 0.0816358
0.497627 0.380224 0.0821393
0.508186 0.379965 0.0826734
0.518456 0.37969 0.083238
0.528466 0.3794 0.0838178
0.538216 0.379095 0.0844129
0.0644999 0.396612 0.0734569
0.0818341 0.396582 0.073518
0.0988174 0.396551 0.073579
0.114412 0.396521 0.0736553
0.13109 0.39649 0.0737316
0.148867 0.396445 0.0738231
0.167315 0.396399 0.07393
0.186099 0.396338 0.0740673
0.204944 0.396277 0.0742046
0.223651 0.396201 0.0743572
0.242084 0.396124 0.0745403
0.260136 0.396048 0.0747234
0.27776 0.395956 0.0749371
0.294911 0.39585 0.0751659
0.311559 0.395743 0.0754101
0.327703 0.395621 0.0756695
0.343343 0.395499 0.0759594
0.358495 0.395361 0.0762493
0.373175 0.395224 0.0765698
0.387381 0.395071 0.0769055
0.40116 0.394903 0.0772564
0.414496 0.394736 0.0776379
0.427436 0.394553 0.0780346
0.439979 0.394369 0.0784466
0.452155 0.394171 0.0788739
0.463966 0.393973 0.0793317
0.475456 0.393759 0.0798047
0.48661 0.39353 0.0803082
0.497459 0.393301 0.0808118
0.508019 0.393057 0.0813458
0.518303 0.392798 0.0819104
0.528328 0.392538 0.0824903
0.538079 0.392264 0.0830854
0.0622568 0.409064 0.0720531
0.0795911 0.409033 0.0721294
0.0967117 0.409003 0.0721904
0.112505 0.408972 0.0722515
0.129366 0.408942 0.072343
0.147326 0.408911 0.0724346
0.165942 0.408865 0.0725414
0.184878 0.408804 0.0726635
0.203861 0.408743 0.0728161
0.222675 0.408682 0.0729686
0.241215 0.408606 0.0731365
0.259373 0.40853 0.0733349
0.277073 0.408438 0.0735485
0.294286 0.408347 0.0737621
0.310994 0.408255 0.0740063
0.327184 0.408148 0.0742809
0.342885 0.408026 0.0745556
0.358083 0.407904 0.0748608
0.372793 0.407767 0.0751812
0.38703 0.40763 0.0755169
0.400839 0.407477 0.0758679
0.414206 0.407324 0.0762341
0.427161 0.407156 0.0766308
0.439719 0.406989 0.0770428
0.451911 0.406806 0.0774853
0.463752 0.406607 0.0779431
0.475242 0.406409 0.0784161
0.486427 0.40621 0.0789044
0.497292 0.405997 0.0794232
0.507866 0.405768 0.0799573
0.518151 0.405539 0.0805066
0.528176 0.405295 0.0810864
0.537942 0.405035 0.0816815
0.0599069 0.421164 0.0705882
0.0772412 0.421134 0.0706645
0.0944533 0.421118 0.0707256
0.11046 0.421088 0.0707866
0.127535 0.421057 0.0708782
0.145693 0.421027 0.0709697
0.164492 0.420981 0.0710765
0.183581 0.420935 0.0711986
0.202701 0.420874 0.0713512
0.221653 0.420813 0.0715038
0.240314 0.420752 0.0716716
0.258549 0.420676 0.07187
0.276341 0.4206 0.0720836
0.293629 0.420508 0.0722972
0.310399 0.420417 0.0725567
0.32665 0.42031 0.0728161
0.342397 0.420203 0.0730907
0.357641 0.420096 0.0733959
0.372396 0.419974 0.0737163
0.386664 0.419837 0.074052
0.400504 0.419699 0.074403
0.413886 0.419562 0.0747692
0.426871 0.419409 0.0751659
0.43946 0.419242 0.0755779
0.451667 0.419074 0.0760204
0.463523 0.418891 0.0764782
0.475044 0.418708 0.0769513
0.486229 0.418524 0.0774395
0.497108 0.418326 0.0779583
0.507683 0.418112 0.0784924
0.517983 0.417899 0.0790417
0.528023 0.41767 0.0796216
0.537804 0.417441 0.0802167
0.0574502 0.432944 0.0690623
0.0747845 0.432914 0.0691234
0.0920729 0.432898 0.0691844
0.108309 0.432868 0.0692607
0.125597 0.432837 0.069337
0.143954 0.432807 0.0694285
0.162951 0.432761 0.0695354
0.182208 0.432731 0.0696727
0.201495 0.43267 0.06981
0.220584 0.432624 0.0699626
0.239353 0.432547 0.0701457
0.257694 0.432486 0.0703288
0.275578 0.43241 0.0705425
0.292943 0.432334 0.0707713
0.309773 0.432242 0.0710155
0.326101 0.432151 0.0712749
0.341894 0.432044 0.0715648
0.357183 0.431937 0.0718547
0.371969 0.43183 0.0721752
0.386282 0.431708 0.0725109
0.400137 0.431586 0.0728618
0.413565 0.431449 0.0732433
0.426581 0.431312 0.07364
0.439185 0.431159 0.074052
0.451408 0.431006 0.0744793
0.463279 0.430838 0.0749371
0.474815 0.430671 0.0754101
0.486015 0.430488 0.0759136
0.49691 0.430304 0.0764172
0.5075 0.430106 0.0769513
0.517815 0.429908 0.0775158
0.527871 0.429694 0.0780957
0.537652 0.42948 0.0786908
0.0548714 0.444404 0.0674449
0.0722057 0.444373 0.0675212
0.0895399 0.444358 0.0675822
0.10602 0.444343 0.0676585
0.123537 0.444312 0.0677348
0.142123 0.444282 0.0678264
0.161318 0.444236 0.0679332
0.180774 0.444205 0.0680552
0.200214 0.44416 0.0682078
0.21944 0.444099 0.0683604
0.238331 0.444038 0.0685435
0.256794 0.443976 0.0687266
0.274769 0.443915 0.0689403
0.29221 0.443839 0.0691691
0.309133 0.443748 0.0694133
0.325505 0.443671 0.0696727
0.34136 0.44358 0.0699474
0.356695 0.443473 0.0702525
0.371527 0.443366 0.070573
0.385885 0.443259 0.0709087
0.399771 0.443137 0.0712596
0.41323 0.443015 0.0716411
0.426261 0.442878 0.0720378
0.438895 0.442741 0.0724498
0.451148 0.442588 0.0728771
0.463035 0.442435 0.0733349
0.474586 0.442283 0.0738079
0.485801 0.442115 0.0742962
0.496712 0.441947 0.074815
0.507317 0.441764 0.075349
0.517632 0.441581 0.0759136
0.527703 0.441382 0.0764782
0.537499 0.441184 0.0770886
0.0521706 0.455558 0.0657816
0.0695048 0.455543 0.0658427
0.0868544 0.455512 0.0659037
