a6000 rec709_2.C0006.cube
TITLE "Generate by Resolve"
LUT_3D_SIZE 9
0 0 0
0.10631 0 0.000411994
0.220874 0 0.00111391
0.335454 0 0.00221256
0.450034 0 0.00370794
0.564599 0 0.0056611
0.679179 0 0.00805676
0.793759 0 0.0109407
0.908324 0 0.0142977
0 0.0927901 0
0.104265 0.0916152 0
0.219699 0.0896162 0
0.334646 0.0864576 0.000732433
0.449424 0.0819867 0.00224308
0.564126 0.0758526 0.00418097
0.678782 0.068574 0.00657664
0.793423 0.0598611 0.00946059
0.908034 0.0496529 0.0128328
0 0.199832 0
0.100801 0.199145 0
0.2177 0.198001 0
0.333272 0.196201 0
0.448402 0.193683 0
0.563317 0.190402 0.00170901
0.678111 0.186282 0.00410468
0.792859 0.181247 0.00698863
0.907546 0.175204 0.0103456
0 0.306859 0
0.0952468 0.306401 0
0.214572 0.305608 0
0.331151 0.304372 0
0.446799 0.302663 0
0.562051 0.300435 0
0.677073 0.297673 0.000259403
0.791974 0.294331 0.0031281
0.906798 0.290364 0.00650034
0 0.413901 0
0.0872358 0.41355 0
0.210193 0.412955 0
0.328176 0.412024 0
0.444587 0.410758 0
0.560296 0.409094 0
0.675639 0.407034 0
0.790768 0.404562 0
0.905745 0.401633 0.00117494
0 0.520943 0
0.076051 0.520653 0
0.20441 0.52018 0
0.3243 0.519448 0
0.441703 0.518441 0
0.558022 0.517128 0
0.673777 0.515511 0
0.789181 0.513558 0
0.904387 0.511254 0
0 0.62797 0
0.0624247 0.627741 0
0.19707 0.627359 0
0.319463 0.626749 0
0.438132 0.625925 0
0.555215 0.624842 0
0.671458 0.623514 0
0.787243 0.621912 0
0.902724 0.620035 0
0 0.735012 0
0.0460975 0.734813 0
0.187991 0.734478 0
0.313573 0.733974 0
0.433799 0.733272 0
0.551812 0.732357 0
0.668696 0.731243 0
0.784909 0.729885 0
0.90071 0.728298 0
0 0.842039 0
0.0269932 0.841871 0
0.176898 0.841596 0
0.306538 0.841154 0
0.428687 0.840543 0
0.547814 0.839765 0
0.665431 0.838788 0
0.782162 0.837629 0
0.898344 0.836271 0
0.030045 0.0354009 0.112398
0.130251 0.0341344 0.112749
0.235401 0.0320134 0.113329
0.345571 0.0287175 0.114214
0.457679 0.024155 0.115434
0.570687 0.018265 0.117006
0.684199 0.0109865 0.118929
0.798001 0.00227359 0.121187
0.911986 0 0.123812
0.0276799 0.122759 0.111177
0.128466 0.121767 0.111528
0.234287 0.120104 0.112108
0.344793 0.117479 0.113008
0.457084 0.113802 0.114244
0.570214 0.108919 0.115816
0.683803 0.102678 0.117754
0.797665 0.0948806 0.120027
0.911711 0.0852522 0.122667
0.0237125 0.21825 0.109117
0.12546 0.217609 0.109468
0.232395 0.216541 0.110048
0.343465 0.214862 0.110964
0.456077 0.212543 0.1122
0.569406 0.209491 0.113802
0.683131 0.205692 0.115755
0.797101 0.201053 0.118074
0.911223 0.195514 0.120729
0.0175174 0.319753 0.105852
0.120653 0.31931 0.106203
0.22945 0.318547 0.106798
0.34139 0.317357 0.107729
0.454505 0.315709 0.108995
0.568154 0.313573 0.110628
0.682109 0.310918 0.112612
0.796231 0.307713 0.114961
0.91046 0.303914 0.117678
0.0089723 0.423667 0.101228
0.113802 0.423316 0.101595
0.225299 0.422736 0.102205
0.338506 0.421836 0.103151
0.452323 0.420584 0.104463
0.56643 0.418967 0.106126
0.680674 0.416953 0.108171
0.795026 0.414527 0.110582
0.909422 0.411688 0.113375
0 0.52871 0.0950484
0.10454 0.528435 0.0954299
0.219852 0.527977 0.0960708
0.334752 0.527245 0.0970626
0.4495 0.526253 0.0984207
0.564187 0.524956 0.100145
0.678828 0.523354 0.102266
0.793454 0.521431 0.104768
0.90808 0.519173 0.107637
0 0.634379 0.0870832
0.0923171 0.63415 0.08748
0.212955 0.633768 0.0881514
0.330053 0.633173 0.089189
0.445975 0.632349 0.0906081
0.561395 0.631281 0.0924392
0.676539 0.629969 0.0946517
0.791531 0.628382 0.0972763
0.906401 0.62652 0.100282
0 0.740429 0.0767681
0.0761425 0.740246 0.0771801
0.204456 0.739925 0.0778821
0.324331 0.739406 0.0789654
0.441733 0.73872 0.0804761
0.558038 0.737819 0.0826581
0.673793 0.73669 0.0850233
0.789197 0.735363 0.0878157
0.904402 0.733791 0.0910048
0 0.846738 0.0648661
0.0570382 0.846571 0.0652781
0.194125 0.846281 0.06598
0.317525 0.845853 0.0670634
0.436713 0.845243 0.068574
0.554086 0.844465 0.0705119
0.670558 0.843503 0.0729229
0.786465 0.842344 0.0757916
0.902052 0.840986 0.0791638
0.0805066 0.0945144 0.230381
0.164706 0.0933394 0.230579
0.258183 0.091371 0.230915
0.361975 0.0882429 0.231434
0.470237 0.0838178 0.232166
0.580758 0.0776989 0.233082
0.692531 0.0704204 0.234226
0.805066 0.0617075 0.235584
0.918105 0.0515145 0.237156
0.0781415 0.164172 0.229679
0.16321 0.163378 0.229877
0.25716 0.16202 0.230213
0.361212 0.159915 0.230732
0.469657 0.156954 0.231449
0.580285 0.153079 0.23238
0.692134 0.14818 0.233524
0.804746 0.142168 0.234882
0.91783 0.134874 0.236469
0.0741588 0.246525 0.228489
0.160678 0.245945 0.228687
0.255421 0.244984 0.229023
0.359945 0.243473 0.229541
0.468681 0.241382 0.230274
0.579492 0.238666 0.231205
0.691493 0.235264 0.232349
0.804181 0.231128 0.233707
0.917342 0.2262 0.235294
0.0679789 0.340383 0.226612
0.15668 0.339956 0.226825
0.252705 0.339239 0.227161
0.357961 0.338125 0.227695
0.467155 0.336568 0.228412
0.578271 0.334554 0.229358
0.690471 0.332052 0.230503
0.803326 0.32903 0.231876
0.916594 0.325475 0.233478
0.0594339 0.439567 0.224018
0.151019 0.439231 0.224216
0.24889 0.438682 0.224567
0.355215 0.437812 0.225101
0.465034 0.436606 0.225834
0.576577 0.435035 0.22678
0.689067 0.433097 0.227939
0.802121 0.430777 0.229328
0.915557 0.428031 0.230945
0.0484016 0.541497 0.220615
0.143465 0.541238 0.220829
0.2439 0.54078 0.22118
0.351614 0.540078 0.221714
0.462287 0.539101 0.222461
0.574365 0.53785 0.223423
0.687236 0.536278 0.224598
0.80058 0.534417 0.226001
0.914229 0.532204 0.227634
0.0347601 0.644999 0.216358
0.13373 0.64477 0.216571
0.237613 0.644404 0.216922
0.347143 0.643809 0.217472
0.458869 0.643 0.218235
0.571633 0.641962 0.219211
0.684977 0.640665 0.220401
0.798657 0.639109 0.221836
0.912566 0.637278 0.223484
0.0184329 0.749462 0.21117
0.12137 0.749264 0.211383
0.229877 0.748943 0.211749
0.341695 0.748455 0.212299
0.454734 0.747753 0.213077
0.568338 0.746868 0.214069
0.682261 0.745769 0.21529
0.796353 0.744442 0.216739
0.910582 0.742885 0.218433
0 0.854536 0.204944
0.10573 0.854368 0.205173
0.220539 0.854093 0.205539
0.335225 0.853666 0.206119
0.449851 0.853071 0.206912
0.564462 0.852293 0.207919
0.679072 0.851347 0.209171
0.793652 0.850202 0.210666
0.908248 0.848859 0.212406
0.145144 0.163821 0.348363
0.209369 0.163012 0.348501
0.290455 0.161669 0.34873
0.38613 0.159548 0.349096
0.489113 0.156588 0.349584
0.596048 0.152712 0.350225
0.705287 0.147799 0.351019
0.81593 0.141772 0.351949
0.927535 0.134463 0.353048
0.143496 0.216098 0.347875
0.208148 0.215457 0.348013
0.289525 0.214374 0.348241
0.385412 0.212696 0.348608
0.488563 0.210346 0.349096
0.59559 0.207279 0.349737
0.704906 0.203433 0.35053
0.81561 0.198749 0.351476
0.92726 0.193164 0.352575
0.140703 0.285573 0.347066
0.206058 0.285069 0.347204
0.287968 0.28423 0.347433
0.384222 0.282918 0.347784
0.487617 0.281086 0.348287
0.594827 0.278706 0.348928
0.704265 0.275746 0.349722
0.815061 0.27216 0.350668
0.926772 0.267903 0.351766
0.136278 0.370275 0.345785
0.202777 0.369879 0.345922
0.285527 0.369223 0.346151
0.382361 0.368185 0.346517
0.486152 0.366766 0.347021
0.593637 0.364904 0.347662
0.703258 0.362615 0.348455
0.814206 0.359838 0.349401
0.92604 0.356558 0.3505
0.130007 0.463218 0.344015
0.198184 0.462898 0.344152
0.282109 0.462379 0.344381
0.379782 0.46154 0.344747
0.484123 0.46041 0.345251
0.591989 0.45893 0.345892
0.701885 0.457084 0.346685
0.813031 0.454887 0.347646
0.925017 0.452277 0.348745
0.121569 0.5608 0.341711
0.192111 0.56054 0.341848
0.277653 0.560098 0.342092
0.376425 0.559426 0.342443
0.481483 0.55848 0.342962
0.589837 0.557275 0.343603
0.700099 0.555764 0.344411
0.811505 0.553964 0.345357
0.92369 0.551843 0.346487
0.110567 0.661143 0.338842
0.184375 0.660929 0.338979
0.272053 0.660563 0.339223
0.372229 0.659998 0.33959
0.478202 0.659205 0.340093
0.587182 0.658183 0.340749
0.697871 0.656916 0.341558
0.809628 0.655406 0.342535
0.922057 0.653635 0.343648
0.096376 0.763256 0.335378
0.174777 0.763073 0.335531
0.265217 0.762753 0.335775
0.367132 0.762264 0.336141
0.474235 0.761593 0.336645
0.583978 0.760723 0.337316
0.695216 0.75964 0.338125
0.807355 0.758343 0.339101
0.920089 0.756817 0.340246
0.0777752 0.866529 0.331289
0.162982 0.866361 0.331441
0.257008 0.866087 0.331685
0.361105 0.865675 0.332052
0.469566 0.86508 0.33257
0.580209 0.864317 0.333242
0.692088 0.863386 0.334066
0.804685 0.862257 0.335058
0.917784 0.860929 0.336202
0.209522 0.233127 0.466346
0.260471 0.232532 0.466453
0.330297 0.23151 0.466621
0.417273 0.229938 0.466896
0.514061 0.227741 0.467262
0.616556 0.224872 0.46775
0.722515 0.221286 0.468345
0.830701 0.216922 0.469047
0.940398 0.211734 0.469871
0.208286 0.274128 0.46598
0.259449 0.27361 0.466087
0.329473 0.272725 0.466255
0.416617 0.271366 0.466529
0.513527 0.269459 0.466896
0.616114 0.266987 0.467384
0.722133 0.263905 0.467979
0.830381 0.260166 0.468681
0.940108 0.255741 0.469505
0.20621 0.332692 0.46537
0.257725 0.33225 0.465476
0.328084 0.331518 0.465644
0.415518 0.330373 0.465919
0.512642 0.328801 0.466285
0.615366 0.326741 0.466773
0.721523 0.324178 0.467369
0.829847 0.321096 0.468071
0.939651 0.317449 0.468894
0.20293 0.408133 0.464408
0.255024 0.407767 0.464515
0.325933 0.407172 0.464683
0.413794 0.406226 0.464958
0.511254 0.404929 0.465339
0.614221 0.40325 0.465812
0.720546 0.40116 0.466407
0.829007 0.398642 0.467124
0.938918 0.395682 0.467948
0.198337 0.494041 0.463081
0.251255 0.493736 0.463188
0.322911 0.493248 0.463355
0.411414 0.49247 0.46363
0.509316 0.491402 0.464012
0.612619 0.490013 0.464485
0.719203 0.488304 0.465095
0.827863 0.486229 0.465797
0.937911 0.483803 0.466636
0.192264 0.586389 0.461372
0.246311 0.58613 0.461463
0.318975 0.585718 0.461646
0.408301 0.585077 0.461921
0.506813 0.584176 0.462287
0.610559 0.583017 0.462776
0.717464 0.581582 0.463371
0.826368 0.579858 0.464088
0.936614 0.577844 0.464927
0.184543 0.682795 0.459236
0.24007 0.682597 0.459342
0.314061 0.682231 0.45951
0.404425 0.681682 0.459785
0.5037 0.680919 0.460166
0.607996 0.679942 0.460655
0.715297 0.678721 0.46125
0.824506 0.677256 0.461982
0.934997 0.675547 0.462821
0.174945 0.781903 0.456672
0.23241 0.78172 0.456779
0.30808 0.781415 0.456947
0.399741 0.780926 0.457221
0.499947 0.78027 0.457603
0.604913 0.779416 0.458091
0.712703 0.778378 0.458701
0.822293 0.777111 0.459419
0.933059 0.775631 0.460273
0.163165 0.882811 0.453651
0.223163 0.882658 0.453758
0.300923 0.882383 0.453925
0.394186 0.881971 0.4542
0.495506 0.881392 0.454597
0.601282 0.880644 0.455085
0.709651 0.879728 0.455695
0.819684 0.878614 0.456428
0.930785 0.877333 0.457267
0.273915 0.302434 0.584329
0.315587 0.301961 0.584405
0.375875 0.301167 0.584543
0.454398 0.299916 0.584756
0.544549 0.298177 0.585061
0.642008 0.295918 0.585443
0.744137 0.293126 0.585901
0.849363 0.289723 0.586465
0.95671 0.28571 0.587121
0.272923 0.335729 0.584039
0.314733 0.335302 0.584115
0.375143 0.334569 0.584253
0.453788 0.33344 0.584466
0.544045 0.331868 0.584772
0.641581 0.329839 0.585153
0.74377 0.327306 0.585611
0.849042 0.324239 0.586175
0.956436 0.320623 0.586847
0.27129 0.385519 0.583551
0.313283 0.385138 0.583627
0.373922 0.384512 0.583764
0.452781 0.38352 0.583978
0.543206 0.382147 0.584283
0.640879 0.380362 0.584665
0.74316 0.378149 0.585138
0.848524 0.375494 0.585702
0.955978 0.372351 0.586358
0.268711 0.452415 0.582788
0.311025 0.452094 0.582879
0.372015 0.451545 0.583017
0.451194 0.450706 0.58323
0.541894 0.449531 0.58352
0.639765 0.44802 0.583902
0.742229 0.446143 0.584375
0.847715 0.44387 0.584939
0.955261 0.441215 0.585595
0.265095 0.531151 0.581735
0.307866 0.530877 0.581827
0.36936 0.530419 0.581964
0.449012 0.529702 0.582177
0.540078 0.52871 0.582467
0.638239 0.527428 0.582864
0.740917 0.525826 0.583337
0.846586 0.523919 0.583902
0.954284 0.52166 0.584558
0.26038 0.617792 0.580377
0.303761 0.617563 0.580468
0.365911 0.617166 0.580606
0.446159 0.616556 0.580819
0.537713 0.615702 0.581109
0.636255 0.614603 0.581506
0.739239 0.61326 0.581979
0.845121 0.611627 0.582544
0.953002 0.609705 0.5832
0.254444 0.709728 0.578698
0.298604 0.709529 0.578775
0.361593 0.709194 0.578927
0.442618 0.708659 0.579141
0.534783 0.707927 0.579431
0.633814 0.706981 0.579828
0.737148 0.705821 0.580301
0.84332 0.704417 0.580865
0.951415 0.70277 0.581537
0.247181 0.80528 0.576669
0.292332 0.805097 0.576761
0.356359 0.804807 0.576898
0.438331 0.804349 0.577111
0.531258 0.803708 0.577417
0.630854 0.802884 0.577798
0.73463 0.801862 0.578286
0.841154 0.800641 0.578851
0.949523 0.799207 0.579522
0.238422 0.903365 0.574304
0.284825 0.903212 0.57438
0.350149 0.902937 0.574517
0.433265 0.902541 0.574746
0.527108 0.901976 0.575036
0.62739 0.901244 0.575433
0.731685 0.900359 0.575906
0.838605 0.899275 0.576486
0.947295 0.898009 0.577157
0.338293 0.371756 0.702312
0.373236 0.371359 0.702373
0.425696 0.370703 0.702495
0.496422 0.36968 0.702663
0.579934 0.368246 0.702907
0.672038 0.3664 0.703227
0.76994 0.364111 0.703609
0.871809 0.361349 0.704067
0.976471 0.358083 0.704616
0.337484 0.399542 0.702068
0.372503 0.399176 0.702129
0.425055 0.398566 0.702251
0.495872 0.397604 0.702419
0.579461 0.396292 0.702663
0.671641 0.394568 0.702983
0.769589 0.392432 0.703365
0.871504 0.389868 0.703838
0.976196 0.386831 0.704372
0.336141 0.442374 0.701671
0.371283 0.442039 0.701732
0.423972 0.441489 0.701854
0.494942 0.44062 0.702022
0.578683 0.439429 0.702266
0.67097 0.437873 0.702586
0.769009 0.43595 0.702968
0.871 0.433631 0.703441
0.975753 0.430915 0.703975
0.33402 0.501747 0.701045
0.36936 0.501457 0.701106
0.422278 0.500969 0.701228
0.493507 0.500206 0.701396
0.577447 0.499153 0.70164
0.669917 0.497795 0.701961
0.768109 0.496101 0.702342
0.870207 0.494072 0.702815
0.975052 0.491676 0.703349
0.331075 0.573602 0.700175
0.36669 0.573358 0.700252
0.419944 0.572931 0.700359
0.491493 0.572259 0.700542
0.575738 0.571344 0.700786
0.668467 0.570169 0.701091
0.766842 0.568689 0.701488
0.869108 0.566934 0.701946
0.974075 0.564858 0.702495
0.32723 0.654414 0.699062
0.363195 0.6542 0.699138
0.416892 0.653834 0.699245
0.488899 0.653254 0.699428
0.573541 0.652461 0.699672
0.666575 0.651423 0.699977
0.765225 0.650141 0.700374
0.867689 0.648615 0.700832
0.972839 0.646815 0.701381
0.322438 0.741558 0.697688
0.358862 0.74136 0.697749
0.413092 0.741039 0.697871
0.485664 0.740536 0.698039
0.570794 0.739834 0.698283
0.66424 0.738933 0.698604
0.76321 0.737819 0.698985
0.865934 0.736477 0.699458
0.971283 0.73492 0.700008
0.316594 0.833188 0.696025
0.353582 0.833021 0.696086
0.408515 0.832731 0.696208
0.481773 0.832288 0.696376
0.567498 0.831678 0.696635
0.661433 0.830884 0.696941
0.760784 0.829892 0.697337
0.863828 0.828717 0.69781
0.969436 0.827344 0.69836
0.309636 0.928054 0.694072
0.347326 0.927901 0.694148
0.403067 0.927657 0.694255
0.47718 0.92726 0.694438
0.563622 0.926711 0.694682
0.658137 0.926009 0.695003
0.757946 0.925139 0.695399
0.861357 0.924086 0.695872
0.967254 0.922866 0.696422
0.40267 0.441062 0.820294
0.432578 0.440726 0.82034
0.478614 0.440177 0.820447
0.542412 0.439307 0.820584
0.619547 0.438102 0.820798
0.706233 0.436545 0.821057
0.799664 0.434623 0.821393
0.897871 0.432303 0.821775
0.999542 0.429572 0.822232
0.401999 0.464775 0.820081
0.431952 0.464454 0.820142
0.47805 0.463935 0.820233
0.541909 0.463111 0.820386
0.619104 0.461967 0.8206
0.705852 0.460502 0.820859
0.799329 0.458671 0.82118
0.897581 0.456474 0.821576
0.999283 0.45388 0.822034
0.400854 0.502052 0.819745
0.430884 0.501762 0.819806
0.477089 0.501274 0.819898
0.541054 0.500511 0.82005
0.618372 0.499458 0.820249
0.705211 0.4981 0.820523
0.798764 0.496406 0.820844
0.897093 0.494377 0.821241
0.99884 0.491997 0.821698
0.399069 0.554971 0.819226
0.429221 0.554711 0.819272
0.475593 0.554269 0.819379
0.539742 0.553582 0.819516
0.617227 0.552636 0.81973
0.704219 0.551415 0.819989
0.797894 0.549889 0.820325
0.89633 0.548058 0.820722
0.998169 0.545922 0.82118
0.396597 0.620493 0.818494
0.426917 0.620249 0.81854
0.473518 0.619867 0.818647
0.537911 0.619257 0.818799
0.615641 0.618402 0.818998
0.702831 0.617319 0.819272
0.796689 0.615961 0.819593
0.895262 0.614343 0.819989
0.997223 0.612436 0.820447
0.393362 0.695598 0.817548
0.423926 0.695384 0.817609
0.470817 0.695033 0.8177
0.535546 0.694499 0.817853
0.613581 0.693751 0.818051
0.701045 0.69279 0.818326
0.795132 0.691585 0.818647
0.893889 0.690166 0.819043
0.996002 0.688472 0.819501
0.389349 0.777829 0.816373
0.420188 0.777646 0.816434
0.46746 0.777325 0.816541
0.532601 0.776852 0.816678
0.611032 0.776196 0.816892
0.698833 0.775341 0.817151
0.79321 0.774273 0.817487
0.892195 0.773007 0.817884
0.994507 0.771511 0.818341
0.384482 0.865309 0.814984
0.415686 0.865156 0.815045
0.463401 0.864881 0.815137
0.529061 0.864454 0.81529
0.607965 0.863859 0.815488
0.696178 0.863096 0.815763
0.79089 0.86215 0.816083
0.89015 0.861021 0.81648
0.992691 0.859709 0.816953
0.378714 0.95671 0.813336
0.410346 0.956558 0.813397
0.45861 0.956313 0.813489
0.52488 0.955932 0.813642
0.604349 0.955413 0.813855
0.693049 0.954726 0.814115
0.788159 0.953887 0.81445
0.88777 0.95288 0.814847
0.99057 0.95169 0.815305
0.467063 0.510369 0.938262
0.49308 0.510094 0.938323
0.533852 0.509606 0.938399
0.591546 0.508858 0.938521
0.66273 0.50782 0.938704
0.744106 0.506477 0.938933
0.832975 0.504829 0.939223
0.927367 0.502831 0.939559
1 0.500481 0.939956
0.466468 0.530953 0.938094
0.492515 0.530678 0.93814
0.533349 0.530221 0.938231
0.591089 0.529503 0.938354
0.662333 0.528511 0.938537
0.74374 0.52723 0.938766
0.83267 0.525628 0.93904
0.927077 0.52372 0.939376
1 0.521462 0.939773
0.465492 0.563775 0.937804
0.491585 0.563516 0.93785
0.532479 0.563088 0.937926
0.590311 0.562417 0.938064
0.661646 0.561486 0.938247
0.743145 0.560281 0.938476
0.83212 0.558785 0.93875
0.926604 0.556985 0.939086
1 0.554879 0.939483
0.463951 0.6112 0.937346
0.490135 0.610956 0.937392
0.531151 0.610559 0.937484
0.58912 0.609949 0.937606
0.660578 0.609079 0.937789
0.742199 0.60798 0.938018
0.831296 0.606607 0.938293
0.925872 0.604959 0.938643
1 0.603021 0.93904
0.461814 0.670985 0.936721
0.488121 0.670771 0.936767
0.52929 0.670405 0.936843
0.587442 0.669856 0.93698
0.659098 0.669078 0.937163
0.740902 0.66807 0.937392
0.830137 0.666835 0.937667
0.924834 0.665339 0.938003
1 0.663584 0.938399
0.459052 0.740673 0.935897
0.485496 0.74049 0.935958
0.526879 0.740169 0.936034
0.58529 0.739666 0.936172
0.657191 0.738964 0.936339
0.739208 0.738064 0.936568
0.828656 0.736934 0.936858
0.923522 0.735607 0.937194
1 0.734035 0.937591
0.455604 0.818051 0.934905
0.482246 0.817884 0.934951
0.523888 0.817594 0.935027
0.582605 0.817136 0.935164
0.65481 0.81651 0.935332
0.737118 0.815702 0.935561
0.82681 0.814694 0.935851
0.921874 0.813504 0.936187
1 0.812085 0.936584
0.451453 0.90132 0.9337
0.478325 0.901152 0.933745
0.520287 0.900893 0.933822
0.579385 0.900496 0.933959
0.651972 0.899931 0.934127
0.734615 0.899199 0.934371
0.824582 0.898299 0.934646
0.919905 0.897215 0.934997
1 0.895949 0.935393
0.44654 0.989075 0.93228
0.473686 0.988937 0.932326
0.51603 0.988693 0.932418
0.575586 0.988327 0.93254
0.648615 0.987823 0.932723
0.731655 0.987167 0.932952
0.821988 0.986343 0.933242
0.917601 0.985382 0.933577
1 0.984237 0.933974
