a6000 slog3_1.C0006.cube
TITLE "Generate by Resolve"
LUT_3D_SIZE 5
0.0928664 0.0928664 0.0928664
0.296376 0.0883803 0.0943465
0.417639 0.0779736 0.0977798
0.500725 0.0605325 0.103532
0.563287 0.0354772 0.111803
0.0844587 0.282216 0.0876326
0.294286 0.280949 0.0891127
0.416938 0.277958 0.092546
0.500389 0.272755 0.0982986
0.563104 0.264836 0.106569
0.0649577 0.40174 0.0754711
0.289265 0.401297 0.0769513
0.415305 0.400305 0.0803845
0.499626 0.398596 0.0861524
0.562661 0.396109 0.0944228
0.0322728 0.484352 0.0551156
0.280308 0.484138 0.0565957
0.412512 0.483665 0.060029
0.498329 0.482872 0.0657816
0.561929 0.481712 0.074052
0 0.546731 0.0258793
0.266056 0.546609 0.0273594
0.408362 0.546334 0.0307927
0.496422 0.545892 0.0365454
0.560861 0.545235 0.0448157
0.190112 0.201678 0.302571
0.319982 0.199054 0.302907
0.426139 0.192706 0.303716
0.504829 0.18117 0.305028
0.565637 0.161089 0.306905
0.184573 0.312795 0.301335
0.318303 0.311833 0.301686
0.425483 0.309575 0.302495
0.504509 0.305699 0.303822
0.565454 0.299855 0.305715
0.17055 0.413138 0.298436
0.314275 0.412741 0.298787
0.423972 0.411841 0.299611
0.503761 0.4103 0.300984
0.565026 0.408072 0.302922
0.138903 0.489906 0.293385
0.307195 0.489723 0.293767
0.421393 0.489265 0.294621
0.50251 0.488502 0.296056
0.564309 0.487404 0.298085
0.0919661 0.549935 0.28571
0.296147 0.549813 0.286122
0.417563 0.549554 0.287037
0.500694 0.549111 0.288579
0.563272 0.548486 0.290745
0.288808 0.304326 0.424521
0.360845 0.303304 0.424643
0.443671 0.300862 0.424903
0.513802 0.296635 0.425345
0.570916 0.290303 0.425986
0.286564 0.362112 0.424109
0.359686 0.361486 0.424231
0.443122 0.360052 0.424491
0.513512 0.357595 0.424949
0.570748 0.353979 0.425589
0.281178 0.435798 0.423163
0.356924 0.435492 0.42327
0.441825 0.434745 0.423545
0.512825 0.433509 0.424002
0.570336 0.431693 0.424643
0.271534 0.501839 0.421546
0.352148 0.501671 0.421668
0.439628 0.501259 0.421942
0.511666 0.500587 0.4224
0.56965 0.499596 0.423041
0.256001 0.557046 0.419181
0.344915 0.556939 0.419303
0.436393 0.55668 0.419577
0.509987 0.556268 0.42005
0.568658 0.555673 0.420722
0.365026 0.381888 0.50779
0.407034 0.381384 0.507851
0.467964 0.380179 0.507973
0.527382 0.378134 0.508186
0.579232 0.375128 0.508476
0.363912 0.414343 0.507591
0.406256 0.413962 0.507652
0.467521 0.413062 0.507774
0.527123 0.411551 0.507988
0.57908 0.409339 0.508293
0.361257 0.465736 0.507149
0.404456 0.465492 0.50721
0.466484 0.464927 0.507332
0.526528 0.463981 0.507546
0.578698 0.462608 0.507851
0.356664 0.519341 0.506386
0.401373 0.519188 0.506447
0.464729 0.518853 0.506569
0.525505 0.518273 0.506783
0.578058 0.517433 0.507103
0.349722 0.568002 0.505302
0.39678 0.56791 0.505348
0.462165 0.567697 0.505486
0.524025 0.567315 0.505699
0.577142 0.566781 0.506004
0.424826 0.442237 0.570413
0.451209 0.441932 0.570443
0.495583 0.441245 0.57052
0.544381 0.44007 0.570642
0.590188 0.438361 0.570809
0.42417 0.462211 0.570306
0.45069 0.461967 0.570336
0.495232 0.461387 0.570413
0.544152 0.46041 0.570535
0.590036 0.458991 0.570703
0.422629 0.498177 0.570062
0.449485 0.497993 0.570092
0.494423 0.497581 0.570153
0.543633 0.496864 0.570275
0.5897 0.495857 0.570459
0.42002 0.540459 0.569619
0.44744 0.540337 0.569665
0.493065 0.540047 0.569726
0.542763 0.539559 0.569848
0.58912 0.538872 0.570031
0.416144 0.582086 0.569009
0.444434 0.581994 0.569039
0.491081 0.581796 0.569116
0.541497 0.581476 0.569238
0.588296 0.580987 0.569406
