a6000 portrait -3 -3 -3 to rec709_1.C0006.cube
TITLE "Generate by Resolve"
LUT_3D_SIZE 9
0 0 0
0.16817 0 0.00120546
0.281468 0 0.00320439
0.391745 0 0.00633249
0.499855 0 0.0106661
0.606287 0 0.0162356
0.711376 0 0.0231327
0.815305 0 0.0314031
0.918257 0 0.0410468
0 0.154528 0
0.16611 0.153338 0
0.280324 0.151324 0
0.390967 0.148119 0.00210575
0.499275 0.143572 0.00642405
0.605844 0.137484 0.0120089
0.711009 0.129564 0.0189059
0.815 0.119402 0.0271611
0.917998 0.10634 0.03682
0 0.260914 0
0.162615 0.260243 0
0.278386 0.259113 0
0.38967 0.257359 0
0.498329 0.254887 0
0.605097 0.251667 0.00489815
0.710399 0.247623 0.0117952
0.814496 0.242679 0.0200504
0.917556 0.236744 0.0297093
0 0.364446 0
0.157 0.364004 0
0.275334 0.363241 0
0.38764 0.362066 0
0.496834 0.360433 0
0.603937 0.358297 0
0.709453 0.355642 0.000732433
0.813703 0.352438 0.00898756
0.916884 0.348638 0.0186618
0 0.465965 0
0.148898 0.465629 0
0.271046 0.465064 0
0.384802 0.464195 0
0.494759 0.462989 0
0.602319 0.461433 0
0.708141 0.459495 0
0.812604 0.45716 0
0.915953 0.454414 0.00337224
0 0.565896 0
0.137697 0.565637 0
0.2654 0.565209 0
0.381109 0.564523 0
0.492058 0.563577 0
0.600214 0.562371 0
0.706447 0.560861 0
0.811185 0.559045 0
0.914733 0.556924 0
0 0.664561 0
0.122469 0.664347 0
0.258228 0.663996 0
0.376501 0.663447 0
0.488701 0.662684 0
0.59762 0.661692 0
0.704341 0.660471 0
0.80943 0.659007 0
0.913237 0.657282 0
0 0.762142 0
0.101411 0.761975 0
0.249317 0.761669 0
0.370871 0.761212 0
0.484657 0.760571 0
0.594476 0.759747 0
0.701808 0.758724 0
0.807309 0.757504 0
0.911437 0.756069 0
0 0.858808 0
0.0701305 0.858656 0
0.238407 0.858412 0
0.364141 0.858015 0
0.47985 0.857466 0
0.590784 0.856764 0
0.698817 0.855894 0
0.804837 0.854841 0
0.909316 0.85362 0
0.0758679 0.0851148 0.174304
0.192157 0.0830091 0.17464
0.295583 0.0793774 0.175219
0.401373 0.0734112 0.17612
0.506996 0.0644846 0.17734
0.611902 0.0513466 0.178912
0.715938 0.0315404 0.180835
0.819135 0.0065156 0.183108
0.921538 0 0.185733
0.0714733 0.18468 0.173068
0.190387 0.183688 0.173419
0.294499 0.182025 0.173999
0.400626 0.1794 0.174899
0.506447 0.175692 0.176135
0.61146 0.170794 0.177722
0.715587 0.164508 0.17966
0.81883 0.156649 0.181949
0.921279 0.146899 0.184588
0.0635538 0.278904 0.170993
0.187366 0.278279 0.171344
0.292668 0.277241 0.171939
0.399359 0.275608 0.172839
0.505501 0.273335 0.174105
0.610727 0.270375 0.175708
0.714977 0.266651 0.177661
0.818326 0.262119 0.17998
0.920851 0.256687 0.18265
0.0495308 0.376776 0.167712
0.182574 0.376349 0.168063
0.289799 0.375616 0.168673
0.397391 0.374487 0.169604
0.504036 0.372915 0.170871
0.609567 0.370871 0.172503
0.714046 0.368322 0.174502
0.817548 0.365255 0.176867
0.920165 0.361624 0.179583
0.0257725 0.475135 0.163043
0.175708 0.474815 0.163424
0.285771 0.474266 0.164034
0.394644 0.473411 0.164996
0.502007 0.472236 0.166308
0.60798 0.470726 0.167987
0.712734 0.468833 0.170047
0.816449 0.46656 0.172473
0.919234 0.463874 0.175265
0 0.573098 0.156817
0.166384 0.572854 0.157198
0.280476 0.572412 0.157839
0.391073 0.571756 0.158846
0.499352 0.570825 0.160204
0.605905 0.569635 0.161959
0.711055 0.568139 0.164096
0.815045 0.566369 0.166613
0.918029 0.564263 0.169512
0 0.670436 0.148745
0.154055 0.670222 0.149157
0.273747 0.669871 0.149828
0.386587 0.669337 0.150881
0.496056 0.668574 0.152331
0.603326 0.667597 0.154162
0.708965 0.666392 0.156405
0.813291 0.664942 0.15906
0.916533 0.663233 0.162097
0 0.767071 0.138445
0.137789 0.766903 0.138888
0.265446 0.766598 0.13962
0.38114 0.76614 0.140749
0.492088 0.765515 0.14229
0.600229 0.764691 0.144259
0.706447 0.763684 0.14667
0.8112 0.762463 0.149493
0.914748 0.761044 0.152728
0 0.86302 0.125338
0.115923 0.862867 0.125811
0.255329 0.862623 0.126619
0.374655 0.862226 0.127871
0.487373 0.861692 0.129564
0.596582 0.86099 0.131731
0.703502 0.860121 0.134356
0.808728 0.859083 0.137423
0.912642 0.857862 0.140948
0.142321 0.156268 0.290715
0.226383 0.155093 0.290913
0.317647 0.153094 0.291234
0.416922 0.14992 0.291737
0.51873 0.145434 0.292439
0.62118 0.139422 0.293339
0.723537 0.131624 0.294438
0.825513 0.12163 0.295766
0.927001 0.108827 0.297292
0.139879 0.225849 0.290028
0.224903 0.225055 0.290227
0.316655 0.223728 0.290547
0.41622 0.221637 0.291051
0.518196 0.218723 0.291752
0.620752 0.214878 0.292653
0.723186 0.210025 0.293767
0.825223 0.204028 0.295079
0.926757 0.19678 0.29662
0.135683 0.306371 0.288869
0.2224 0.305821 0.289067
0.314977 0.304875 0.289387
0.415015 0.303426 0.289906
0.517281 0.301396 0.290608
0.62002 0.298756 0.291508
0.722591 0.295445 0.292622
0.82472 0.291432 0.29395
0.926314 0.286656 0.295491
0.128893 0.396429 0.287053
0.218433 0.396017 0.287251
0.312352 0.395346 0.287587
0.413138 0.394278 0.28809
0.515846 0.392798 0.288808
0.618891 0.39089 0.289708
0.72166 0.388495 0.290837
0.823941 0.385626 0.292165
0.925658 0.382223 0.293721
0.118883 0.490059 0.28452
0.212833 0.489738 0.284718
0.308659 0.489219 0.285054
0.410513 0.488411 0.285573
0.513878 0.487282 0.28629
0.617319 0.485817 0.287205
0.720378 0.484001 0.28835
0.822858 0.481804 0.289693
0.924727 0.47924 0.291264
0.104616 0.584939 0.281224
0.205341 0.584695 0.281422
0.303838 0.584283 0.281758
0.407111 0.583627 0.282277
0.511315 0.582727 0.283009
0.61529 0.581567 0.28394
0.718715 0.580118 0.285084
0.821469 0.578378 0.286458
0.923537 0.576349 0.288045
0.084062 0.680156 0.277073
0.195636 0.679942 0.277272
0.297734 0.679606 0.277623
0.402853 0.679072 0.278157
0.50811 0.678325 0.278889
0.612772 0.677363 0.279835
0.716655 0.676188 0.28101
0.81973 0.674754 0.282399
0.922042 0.673091 0.284016
0.0517586 0.77525 0.271992
0.183276 0.775082 0.272206
0.290227 0.774792 0.272557
0.397681 0.774334 0.273106
0.50425 0.773709 0.273854
0.609735 0.7729 0.27483
0.714183 0.771908 0.27602
0.817655 0.770703 0.27744
0.920272 0.769299 0.279088
0 0.870039 0.265919
0.167575 0.869886 0.266148
0.281147 0.869642 0.266499
0.391516 0.869261 0.267063
0.499687 0.868727 0.267842
0.606165 0.868025 0.268833
0.711269 0.86717 0.270054
0.815213 0.866133 0.271504
0.918181 0.864927 0.273198
0.206989 0.225498 0.404013
0.270253 0.224704 0.40415
0.348714 0.223377 0.404364
0.43978 0.221286 0.404715
0.536339 0.218357 0.405173
0.635264 0.214511 0.405783
0.735149 0.209644 0.406531
0.835309 0.203647 0.407431
0.935424 0.196368 0.408469
0.205356 0.276814 0.403555
0.269047 0.276188 0.403693
0.347829 0.275135 0.403906
0.439109 0.273487 0.404242
0.535821 0.271199 0.404715
0.634836 0.268193 0.405325
0.734798 0.264439 0.406073
0.835019 0.259861 0.406973
0.93518 0.254383 0.408011
0.202579 0.344045 0.402777
0.267002 0.343557 0.402914
0.346334 0.342748 0.403128
0.437995 0.341482 0.403479
0.534936 0.339727 0.403937
0.634134 0.337438 0.404547
0.734218 0.334585 0.40531
0.834531 0.331121 0.406195
0.934752 0.327031 0.407248
0.198184 0.424796 0.401572
0.263798 0.42443 0.401694
0.343984 0.423804 0.401923
0.43624 0.422827 0.402258
0.533578 0.421469 0.402731
0.633036 0.419715 0.403342
0.733303 0.417533 0.404105
0.833753 0.414908 0.405005
0.934096 0.411795 0.406043
0.191913 0.512184 0.399878
0.259297 0.511879 0.400015
0.340703 0.511391 0.400229
0.433799 0.510613 0.40058
0.531685 0.50956 0.401053
0.63151 0.508171 0.401663
0.732052 0.506447 0.402426
0.8327 0.504387 0.403326
0.933181 0.501961 0.404379
0.183474 0.602777 0.397696
0.253346 0.602533 0.397833
0.336416 0.602136 0.398047
0.43061 0.601511 0.398398
0.529229 0.600641 0.398871
0.629541 0.599527 0.399496
0.730419 0.598138 0.400259
0.831327 0.59646 0.40116
0.931991 0.594507 0.402228
0.172442 0.694911 0.394965
0.245762 0.694713 0.395102
0.331029 0.694377 0.395331
0.426642 0.693858 0.395682
0.526162 0.693141 0.396155
0.6271 0.69221 0.39678
0.728405 0.691051 0.397559
0.829618 0.689677 0.398474
0.930526 0.688045 0.399542
0.15816 0.787747 0.391669
0.236316 0.787579 0.391806
0.324437 0.787289 0.392035
0.42182 0.786847 0.392386
0.522469 0.786236 0.392874
0.624155 0.785443 0.393515
0.725978 0.784466 0.394293
0.827573 0.783291 0.395209
0.928771 0.781918 0.396292
0.139513 0.880812 0.387778
0.224674 0.880659 0.387915
0.316503 0.880415 0.388144
0.416098 0.880034 0.38851
0.518105 0.879499 0.388998
0.620676 0.878828 0.389639
0.723125 0.877974 0.390417
0.825177 0.876967 0.391363
0.926711 0.875776 0.392447
0.27039 0.293385 0.515099
0.31986 0.292805 0.515206
0.386831 0.291814 0.515358
0.469139 0.290288 0.515618
0.559518 0.288151 0.515953
0.654093 0.285359 0.516411
0.750805 0.281865 0.51696
0.848615 0.277623 0.517617
0.946914 0.272557 0.518395
0.269184 0.333028 0.514763
0.318883 0.332525 0.514855
0.386038 0.331685 0.515023
0.468513 0.330358 0.515267
0.55903 0.328527 0.515618
0.653681 0.326146 0.516075
0.750469 0.323171 0.516625
0.848325 0.31957 0.517281
0.946654 0.315297 0.518059
0.267155 0.389105 0.514183
0.31722 0.388693 0.51429
0.384726 0.387991 0.514443
0.467475 0.386908 0.514702
0.558206 0.385397 0.515053
0.65301 0.383429 0.515496
0.749905 0.380987 0.516045
0.847837 0.378042 0.516716
0.946242 0.374563 0.517494
0.263951 0.460533 0.513298
0.314611 0.460197 0.51339
0.382666 0.459632 0.513558
0.465858 0.458747 0.513802
0.556909 0.457527 0.514153
0.651942 0.45594 0.514611
0.74902 0.453971 0.51516
0.847089 0.451606 0.515831
0.945586 0.448814 0.516609
0.259449 0.540917 0.512062
0.310948 0.540642 0.512154
0.379782 0.540169 0.512322
0.463615 0.539452 0.512566
0.555108 0.53846 0.512917
0.650477 0.537163 0.513375
0.747799 0.535576 0.513924
0.846052 0.533654 0.514595
0.944686 0.531395 0.515373
0.253498 0.626368 0.510445
0.306157 0.626139 0.510552
0.376028 0.625757 0.510704
0.460685 0.625162 0.510964
0.552789 0.624338 0.511315
0.648585 0.62327 0.511772
0.746212 0.621942 0.512337
0.844709 0.620356 0.512993
0.943526 0.618494 0.513787
0.24593 0.714672 0.508461
0.300114 0.714488 0.508553
0.371328 0.714168 0.508721
0.457038 0.713664 0.50898
0.549889 0.712963 0.509331
0.646235 0.712062 0.509789
0.744259 0.710948 0.510353
0.84303 0.709621 0.511025
0.942092 0.708049 0.511803
0.236484 0.804593 0.506065
0.292683 0.80444 0.506157
0.365606 0.80415 0.506325
0.452628 0.803723 0.506584
0.54641 0.803128 0.506935
0.643397 0.802365 0.507393
0.741894 0.801419 0.507958
0.841031 0.800275 0.508644
0.940368 0.798932 0.509422
0.224857 0.895415 0.503227
0.283696 0.895262 0.503334
0.35877 0.895018 0.503502
0.447395 0.894652 0.503761
0.54229 0.894133 0.504112
0.640055 0.893462 0.504585
0.739116 0.892638 0.50515
0.838682 0.891646 0.505837
0.938338 0.890486 0.50663
0.332815 0.36022 0.624475
0.372793 0.359762 0.624552
0.430091 0.358999 0.624674
0.503944 0.357794 0.624872
0.587762 0.35613 0.625147
0.677409 0.353979 0.625498
0.770428 0.351278 0.625925
0.865385 0.348028 0.626444
0.961471 0.344167 0.627054
0.331868 0.392004 0.624201
0.371969 0.391592 0.624277
0.429404 0.390906 0.624399
0.50338 0.389822 0.624598
0.587304 0.388327 0.624872
0.677028 0.386389 0.625223
0.770092 0.383963 0.625666
0.86511 0.381048 0.626184
0.961227 0.3776 0.62678
0.330282 0.439216 0.623758
0.370581 0.438849 0.623835
0.42826 0.438254 0.623957
0.502419 0.437324 0.624155
0.586526 0.436027 0.62443
0.676371 0.434348 0.624781
0.769543 0.432258 0.625208
0.864637 0.429725 0.625727
0.960815 0.426764 0.626337
0.32781 0.502083 0.623056
0.368429 0.501778 0.623133
0.426444 0.501274 0.623255
0.500954 0.500481 0.623453
0.585306 0.499382 0.623728
0.675364 0.497963 0.624079
0.768688 0.496208 0.624521
0.863905 0.494087 0.62504
0.960174 0.4916 0.625635
0.324331 0.575372 0.622095
0.365408 0.575113 0.622171
0.423941 0.574685 0.622293
0.498894 0.574014 0.622492
0.583627 0.573098 0.622766
0.673961 0.571908 0.623117
0.767514 0.570428 0.623545
0.862898 0.568658 0.624079
0.959304 0.566583 0.624674
0.319783 0.655222 0.620844
0.361486 0.655009 0.62092
0.420661 0.654658 0.621042
0.496223 0.654093 0.621241
0.581445 0.653315 0.621515
0.67216 0.652308 0.621866
0.765988 0.651057 0.622309
0.861585 0.649561 0.622827
0.95816 0.647807 0.623438
0.314046 0.739193 0.619287
0.356542 0.73901 0.619364
0.416571 0.738705 0.619486
0.492912 0.738216 0.619684
0.578729 0.737545 0.619959
0.669902 0.73669 0.620325
0.76408 0.735622 0.620752
0.859953 0.734356 0.621286
0.956741 0.73286 0.621897
0.307012 0.825711 0.617426
0.35053 0.825544 0.617502
0.411612 0.825284 0.617624
0.488899 0.824857 0.617823
0.575463 0.824292 0.618097
0.667201 0.823545 0.618463
0.761807 0.822629 0.618906
0.858 0.82153 0.619425
0.955047 0.820233 0.620035
0.298528 0.913817 0.615228
0.343313 0.91368 0.615305
0.405707 0.913436 0.615442
0.484154 0.913069 0.615641
0.571618 0.912566 0.615915
0.664027 0.911925 0.616281
0.759136 0.911116 0.616724
0.855711 0.910155 0.617243
0.953063 0.909026 0.617868
0.394446 0.4262 0.732433
0.427604 0.425818 0.732494
0.477043 0.425193 0.732601
0.54313 0.424231 0.732769
0.620417 0.422873 0.732982
0.70486 0.421134 0.733272
0.79379 0.418967 0.733623
0.885542 0.416342 0.734051
0.979065 0.413245 0.734539
0.393683 0.452445 0.732219
0.426917 0.452094 0.73228
0.476432 0.45153 0.732387
0.542626 0.450614 0.73254
0.619989 0.449378 0.732769
0.704494 0.447745 0.733059
0.793484 0.445731 0.73341
0.885267 0.44332 0.733822
0.978821 0.440452 0.734325
0.392386 0.492683 0.731853
0.425742 0.492363 0.731914
0.475425 0.491844 0.732021
0.541756 0.491035 0.732189
0.619272 0.489921 0.732403
0.703883 0.488472 0.732692
0.79295 0.486656 0.733043
0.88481 0.484489 0.733471
0.978424 0.481941 0.733959
0.390372 0.548089 0.731289
0.423926 0.547814 0.73135
0.473838 0.547356 0.731456
0.540413 0.546654 0.731609
0.618128 0.545678 0.731838
0.702922 0.544396 0.732128
0.792126 0.542824 0.732479
0.884108 0.540948 0.732906
0.977798 0.53872 0.733394
0.387564 0.614588 0.73051
0.421393 0.614359 0.730571
0.471641 0.613962 0.730663
0.538552 0.613352 0.730831
0.616571 0.612512 0.731044
0.701595 0.611414 0.731334
0.790997 0.610071 0.731685
0.883116 0.608438 0.732113
0.976944 0.606531 0.732616
0.383917 0.688762 0.729488
0.418097 0.688563 0.729549
0.468772 0.688228 0.729656
0.536126 0.687694 0.729809
0.614527 0.686976 0.730037
0.69987 0.68603 0.730327
0.789517 0.684855 0.730678
0.881849 0.683452 0.731106
0.97583 0.681819 0.731594
0.379324 0.768078 0.728222
0.413977 0.76791 0.728298
0.465202 0.76762 0.728389
0.53312 0.767163 0.728557
0.612009 0.766522 0.728786
0.697734 0.765713 0.729061
0.787701 0.764706 0.729427
0.880278 0.763485 0.729854
0.974456 0.762066 0.730343
0.373754 0.850843 0.726726
0.408972 0.85069 0.726787
0.460883 0.850431 0.726879
0.529488 0.850034 0.727047
0.608972 0.849485 0.727275
0.695171 0.848768 0.727565
0.785519 0.847883 0.727916
0.878386 0.84683 0.728344
0.972793 0.845579 0.728847
0.367102 0.935897 0.724941
0.403037 0.93576 0.725002
0.455772 0.935531 0.725109
0.5252 0.93518 0.725277
0.605386 0.934691 0.725505
0.692164 0.934066 0.725795
0.78294 0.933288 0.726146
0.876158 0.932357 0.726574
0.970855 0.931258 0.727077
0.45539 0.491447 0.839231
0.483497 0.491142 0.839277
0.526558 0.490623 0.839368
0.585779 0.489815 0.839506
0.656825 0.488685 0.839689
0.736004 0.487221 0.839933
0.820645 0.48542 0.840223
0.908904 0.483238 0.840574
0.999588 0.480674 0.840986
0.454749 0.513634 0.839048
0.482918 0.513344 0.839109
0.526024 0.512856 0.839185
0.585321 0.512078 0.839323
0.656428 0.511009 0.839506
0.735668 0.509636 0.83975
0.82034 0.507927 0.84004
0.908644 0.505867 0.840391
0.999359 0.503456 0.840803
0.453681 0.548363 0.838743
0.48191 0.548104 0.838804
0.525124 0.547646 0.83888
0.584543 0.546944 0.839017
0.655756 0.545953 0.8392
0.735088 0.544686 0.839445
0.819837 0.543114 0.839734
0.908202 0.541238 0.840085
0.998978 0.53901 0.840497
0.452003 0.597406 0.83827
0.480354 0.597162 0.838315
0.523735 0.59675 0.838407
0.583322 0.596124 0.838544
0.654704 0.595239 0.838727
0.734173 0.59411 0.838972
0.819043 0.592706 0.839261
0.907515 0.591012 0.839612
0.998367 0.589029 0.840024
0.449653 0.657694 0.837613
0.478187 0.657481 0.837659
0.521782 0.65713 0.837751
0.581628 0.656565 0.837888
0.653254 0.655787 0.838071
0.732921 0.654795 0.838315
0.81796 0.653544 0.838605
0.906569 0.652064 0.838956
0.997528 0.650309 0.839384
0.446616 0.726329 0.836759
0.47538 0.726146 0.83682
0.519265 0.725826 0.836896
0.579431 0.725338 0.837034
0.651362 0.724651 0.837217
0.731289 0.723766 0.837461
0.816556 0.722683 0.837766
0.905333 0.72137 0.838117
0.996445 0.719844 0.838529
0.442832 0.800916 0.835706
0.47187 0.800748 0.835767
0.516136 0.800473 0.835843
0.576715 0.800046 0.835981
0.649012 0.799451 0.836179
0.729274 0.798672 0.836408
0.814817 0.797711 0.836713
0.903822 0.796567 0.837064
0.995117 0.795224 0.837476
0.438239 0.879713 0.834455
0.467628 0.879561 0.834501
0.512352 0.879316 0.834592
0.573434 0.878935 0.83473
0.646204 0.878416 0.834913
0.726864 0.877729 0.835157
0.812726 0.876875 0.835447
0.901991 0.875868 0.835813
0.9935 0.874678 0.836225
0.432776 0.961471 0.832975
0.462608 0.961334 0.833021
0.507881 0.96112 0.833112
0.569558 0.960769 0.833249
0.642878 0.960311 0.833432
0.72401 0.959701 0.833677
0.810254 0.958953 0.833982
0.89984 0.958053 0.834333
0.991623 0.956985 0.834745
0.51577 0.5561 0.945006
0.540017 0.555825 0.945052
0.577874 0.555383 0.945129
0.631113 0.554696 0.945251
0.696361 0.553735 0.945403
0.770397 0.552483 0.945602
0.85066 0.550942 0.945861
0.935271 0.549081 0.946166
1 0.546914 0.946517
0.515221 0.575189 0.944854
0.539498 0.574929 0.9449
0.577401 0.574502 0.944976
0.630701 0.573846 0.945083
0.695994 0.572915 0.945251
0.770077 0.571725 0.945449
0.85037 0.570245 0.945708
0.935027 0.568475 0.946014
1 0.5664 0.946365
0.514305 0.605524 0.944595
0.538628 0.605295 0.94464
0.576608 0.604898 0.944717
0.629984 0.604273 0.944823
0.695369 0.603403 0.944991
0.769528 0.602289 0.94519
0.849897 0.600916 0.945449
0.9346 0.599252 0.945754
1 0.597314 0.946105
0.512871 0.64918 0.944183
0.537285 0.648951 0.944228
0.575357 0.648585 0.944305
0.62887 0.64802 0.944427
0.694392 0.647227 0.944579
0.768673 0.64622 0.944793
0.849149 0.644953 0.945037
0.933928 0.643442 0.945342
1 0.641657 0.945693
0.510872 0.703899 0.943633
0.535409 0.7037 0.943679
0.573648 0.70338 0.94374
0.627344 0.702861 0.943862
0.693049 0.702159 0.944015
0.767483 0.701244 0.944228
0.848112 0.700099 0.944472
0.933028 0.698741 0.944778
1 0.697139 0.945129
0.508293 0.7673 0.942901
0.532967 0.767117 0.942946
0.571405 0.766827 0.943023
0.62536 0.766369 0.94313
0.691295 0.765728 0.943297
0.765957 0.76492 0.943496
0.846769 0.763897 0.943755
0.931838 0.762692 0.94406
1 0.761257 0.944411
0.505074 0.837217 0.942
0.529931 0.837064 0.942046
0.568643 0.836805 0.942123
0.622889 0.836393 0.942245
0.689128 0.835828 0.942397
0.764065 0.835096 0.942596
0.845106 0.834195 0.942855
0.930373 0.833112 0.94316
1 0.831846 0.943511
0.501183 0.911986 0.940932
0.526268 0.911849 0.940978
0.565301 0.911604 0.941039
0.619913 0.911238 0.941161
0.686519 0.910735 0.941329
0.761791 0.910094 0.941527
0.843107 0.909285 0.941787
0.928618 0.908309 0.942092
1 0.907179 0.942443
0.496574 0.99028 0.939666
0.52195 0.990158 0.939712
0.561349 0.989944 0.939788
0.616419 0.989624 0.939895
0.683452 0.989166 0.940063
0.759106 0.988586 0.940261
0.840757 0.987854 0.94052
0.926558 0.986999 0.940826
1 0.985977 0.941176
