a6000 slog3_1.C0006.cube
TITLE "Generate by Resolve"
LUT_3D_SIZE 33
0.0928664 0.0928664 0.0928664
0.126955 0.0924697 0.0929885
0.161059 0.0920729 0.0931258
0.187488 0.0916609 0.0932631
0.21146 0.0911879 0.0934157
0.23447 0.0906233 0.0935988
0.256321 0.0899672 0.0938125
0.276951 0.0892195 0.0940719
0.296376 0.0883803 0.0943465
0.314672 0.0874342 0.0946517
0.331899 0.0863966 0.0950027
0.34818 0.0852522 0.0953689
0.363561 0.0840162 0.0957809
0.378119 0.0826581 0.0962387
0.391959 0.0812085 0.0967117
0.405112 0.0796368 0.0972305
0.417639 0.0779736 0.0977798
0.429603 0.0761883 0.0983749
0.441047 0.0742962 0.0990005
0.452003 0.072282 0.0996567
0.462516 0.070161 0.100359
0.472618 0.0679332 0.101091
0.482338 0.0655833 0.101869
0.491691 0.0631113 0.102678
0.500725 0.0605325 0.103532
0.509453 0.0578317 0.104433
0.517876 0.0549935 0.105364
0.52604 0.0520485 0.10634
0.533944 0.0489815 0.107347
0.541604 0.0457923 0.1084
0.549035 0.0424811 0.109499
0.556268 0.0390478 0.110628
0.563287 0.0354772 0.111803
0.0921187 0.122164 0.0923934
0.126207 0.121767 0.0925307
0.160311 0.12137 0.092668
0.186984 0.120974 0.0927901
0.211063 0.1205 0.092958
0.23415 0.119936 0.0931411
0.256062 0.11928 0.0933547
0.276722 0.118532 0.0935988
0.296193 0.117678 0.0938735
0.314504 0.116747 0.0941939
0.331777 0.115694 0.0945296
0.348058 0.114565 0.0949111
0.363455 0.113313 0.0953231
0.378042 0.111955 0.0957656
0.391882 0.110506 0.0962539
0.405035 0.108949 0.0967575
0.417578 0.107271 0.097322
0.429541 0.105486 0.0979019
0.441001 0.103593 0.0985275
0.451957 0.101595 0.0991989
0.46247 0.0994736 0.0998856
0.472572 0.0972305 0.100633
0.482292 0.0948806 0.101411
0.491661 0.0924239 0.10222
0.500694 0.0898299 0.103075
0.509422 0.087129 0.10396
0.517845 0.0843061 0.104906
0.526009 0.0813611 0.105867
0.533913 0.078294 0.106889
0.541588 0.0751049 0.107942
0.54902 0.0717937 0.109026
0.556237 0.0683452 0.11017
0.563272 0.0647898 0.111345
0.091371 0.151476 0.0919356
0.12546 0.15108 0.0920729
0.159564 0.150683 0.092195
0.186496 0.150286 0.0923323
0.210666 0.149813 0.0924849
0.233829 0.149248 0.092668
0.255787 0.148592 0.0928817
0.276509 0.147845 0.0931411
0.29601 0.147005 0.0934157
0.314351 0.146059 0.0937209
0.33164 0.145022 0.0940719
0.347936 0.143877 0.0944381
0.363348 0.142626 0.0948501
0.377951 0.141283 0.0953078
0.391806 0.139818 0.0957809
0.404974 0.138262 0.0962997
0.417517 0.136584 0.096849
0.429496 0.134813 0.0974441
0.44094 0.132906 0.0980697
0.451911 0.130907 0.0987259
0.462425 0.128786 0.0994278
0.472541 0.126558 0.10016
0.482261 0.124208 0.100938
0.49163 0.121736 0.101747
0.500664 0.119142 0.102602
0.509392 0.116442 0.103502
0.51783 0.113619 0.104433
0.525994 0.110674 0.105409
0.533898 0.107607 0.106416
0.541558 0.104417 0.107469
0.549004 0.101106 0.108568
0.556222 0.097673 0.109697
0.563256 0.0941024 0.110872
0.0906233 0.177584 0.0914626
0.124712 0.177295 0.0915999
0.158816 0.177005 0.091722
0.185992 0.176715 0.0918593
0.210254 0.176364 0.0920119
0.233494 0.175952 0.0922103
0.255528 0.175479 0.0924239
0.27628 0.174929 0.092668
0.295811 0.174304 0.0929427
0.314199 0.173602 0.0932631
0.331502 0.172824 0.0935988
0.347829 0.171969 0.0939803
0.363256 0.171023 0.0943923
0.377859 0.169986 0.0948348
0.391714 0.168856 0.0953078
0.404898 0.167636 0.0958267
0.417456 0.166155 0.096376
0.429435 0.16437 0.0969711
0.440894 0.162478 0.0975967
0.451865 0.160479 0.0982528
0.462394 0.158358 0.0989548
0.472496 0.156115 0.0996872
0.482231 0.153765 0.100465
0.4916 0.151308 0.101289
0.500633 0.148714 0.102144
0.509361 0.146014 0.103029
0.5178 0.143191 0.10396
0.525963 0.140246 0.104936
0.533867 0.137179 0.105943
0.541543 0.133989 0.106996
0.548989 0.130678 0.108095
0.556207 0.12723 0.109224
0.563241 0.123674 0.110399
0.0897231 0.200244 0.0909133
0.123812 0.200015 0.0910353
0.157916 0.199771 0.0911727
0.185397 0.199542 0.09131
0.209781 0.199252 0.0914626
0.233112 0.198932 0.0916457
0.255207 0.198535 0.0918593
0.27602 0.198093 0.0921187
0.295598 0.197589 0.0923934
0.314 0.197009 0.0926986
0.331334 0.196384 0.0930495
0.347692 0.195697 0.0934157
0.363134 0.194919 0.0938277
0.377752 0.194095 0.0942855
0.391623 0.193179 0.0947585
0.404822 0.192203 0.0952773
0.41738 0.19115 0.0958267
0.429374 0.190005 0.0964218
0.440833 0.188785 0.0970474
0.451804 0.187472 0.0977035
0.462348 0.186069 0.0984054
0.47245 0.184573 0.0991379
0.482185 0.182971 0.0999161
0.491554 0.181262 0.100725
0.500603 0.179446 0.101579
0.509331 0.177523 0.10248
0.517769 0.175463 0.10341
0.525933 0.173281 0.104387
0.533852 0.170977 0.105394
0.541512 0.168505 0.106447
0.548959 0.165637 0.107546
0.556191 0.162188 0.108675
0.56321 0.158633 0.10985
0.0886702 0.222232 0.0902571
0.122759 0.222049 0.0903792
0.156863 0.221851 0.0905165
0.184695 0.221653 0.0906539
0.209201 0.221424 0.0908064
0.232654 0.221149 0.0909895
0.254826 0.220829 0.0912032
0.2757 0.220478 0.0914473
0.295338 0.22005 0.0917372
0.313787 0.219593 0.0920424
0.331151 0.219074 0.0923934
0.347524 0.218509 0.0927596
0.362982 0.217899 0.0931716
0.37763 0.217212 0.0936141
0.391516 0.21648 0.0941024
0.404715 0.215686 0.0946212
0.417288 0.214832 0.0951705
0.429297 0.213901 0.0957504
0.440757 0.212924 0.096376
0.451743 0.211872 0.0970474
0.462287 0.210742 0.0977493
0.472404 0.209537 0.0984817
0.482139 0.20827 0.0992599
0.491524 0.206912 0.100069
0.500557 0.205478 0.100923
0.5093 0.203952 0.101823
0.517739 0.202335 0.102754
0.525902 0.200626 0.103731
0.533822 0.198825 0.104738
0.541482 0.196918 0.105791
0.548928 0.194888 0.106889
0.556161 0.192752 0.108019
0.563195 0.190494 0.109194
0.0874495 0.24329 0.0894942
0.121538 0.243122 0.0896162
0.155642 0.242969 0.0897536
0.183856 0.242802 0.0898909
0.208545 0.242618 0.0900435
0.232105 0.24239 0.0902266
0.254383 0.24213 0.0904402
0.275334 0.241825 0.0906844
0.295033 0.241489 0.0909743
0.313527 0.241108 0.0912795
0.330922 0.240681 0.0916152
0.347326 0.240208 0.0919966
0.362829 0.239704 0.0924086
0.377478 0.239139 0.0928511
0.391394 0.238544 0.0933394
0.404608 0.237888 0.0938582
0.417197 0.237186 0.0944076
0.429206 0.236439 0.0949874
0.440681 0.23563 0.095613
0.451667 0.234775 0.0962844
0.462211 0.23386 0.0969863
0.472343 0.232883 0.0977188
0.482078 0.231861 0.098497
0.491463 0.230762 0.0993057
0.500511 0.229603 0.10016
0.509255 0.228382 0.101061
0.517693 0.227085 0.101991
0.525872 0.225727 0.102953
0.533776 0.224277 0.103975
0.541451 0.222766 0.105028
0.548898 0.221164 0.106111
0.55613 0.219486 0.107256
0.563165 0.217716 0.108431
0.0860456 0.263279 0.0886091
0.120134 0.263142 0.0887465
0.154238 0.26302 0.0888838
0.182895 0.262882 0.0890059
0.207782 0.26273 0.0891737
0.231495 0.262531 0.0893568
0.25388 0.262318 0.0895705
0.274922 0.262058 0.0898146
0.294682 0.261784 0.0900893
0.313222 0.261463 0.0904097
0.330678 0.261112 0.0907454
0.347112 0.260716 0.0911269
0.362631 0.260304 0.0915389
0.37731 0.259831 0.0919814
0.391241 0.259342 0.0924697
0.404471 0.258793 0.0929732
0.417075 0.258213 0.0935378
0.429099 0.257588 0.0941176
0.440589 0.256931 0.0947433
0.451591 0.256214 0.0953994
0.462135 0.255467 0.0961013
0.472267 0.254673 0.096849
0.482017 0.253819 0.0976272
0.491402 0.252918 0.098436
0.50045 0.251972 0.0992905
0.509194 0.25098 0.100175
0.517647 0.249928 0.101106
0.525826 0.248814 0.102083
0.533745 0.247639 0.103105
0.541421 0.246418 0.104158
0.548867 0.245121 0.105241
0.5561 0.243778 0.106386
0.563134 0.242344 0.107561
0.0844587 0.282216 0.0876326
0.118547 0.282094 0.0877546
0.152651 0.281987 0.087892
0.181811 0.28188 0.0880293
0.206912 0.281743 0.0881819
0.230793 0.281575 0.088365
0.2533 0.281392 0.0885786
0.274449 0.281193 0.088838
0.294286 0.280949 0.0891127
0.312886 0.280674 0.0894179
0.330388 0.280385 0.0897688
0.346868 0.280064 0.090135
0.362417 0.279698 0.090547
0.377127 0.279316 0.0910048
0.391073 0.278889 0.0914778
0.404318 0.278447 0.0919966
0.416938 0.277958 0.092546
0.428977 0.27744 0.0931411
0.440482 0.276875 0.0937667
0.451484 0.27628 0.0944228
0.462043 0.275654 0.0951247
0.47219 0.274998 0.0958572
0.481941 0.274281 0.0966354
0.491341 0.273548 0.0974441
0.500389 0.272755 0.0982986
0.509148 0.271931 0.0991989
0.517586 0.271061 0.10013
0.525765 0.27013 0.101106
0.5337 0.269169 0.102113
0.541375 0.268162 0.103166
0.548821 0.267109 0.104265
0.556069 0.265995 0.105394
0.563104 0.264836 0.106569
0.0827039 0.300114 0.0865339
0.116793 0.300008 0.086656
0.150896 0.299916 0.0867933
0.180575 0.299825 0.0869306
0.205921 0.299702 0.0870832
0.229999 0.299565 0.0872663
0.252659 0.299413 0.08748
0.273915 0.299229 0.0877241
0.293828 0.299031 0.088014
0.31252 0.298802 0.0883192
0.330068 0.298558 0.0886702
0.346593 0.298283 0.0890364
0.362173 0.297978 0.0894484
0.376913 0.297642 0.0898909
0.39089 0.297292 0.0903792
0.404166 0.29691 0.090898
0.4168 0.296498 0.0914473
0.42884 0.296056 0.0920424
0.44036 0.295583 0.0926528
0.451377 0.295079 0.0933242
0.461952 0.29456 0.0940261
0.472099 0.293996 0.0947585
0.481865 0.2934 0.0955367
0.491264 0.292775 0.0963455
0.500328 0.292103 0.0972
0.509071 0.291417 0.0981003
0.51754 0.290684 0.0990311
0.525719 0.289921 0.100008
0.533639 0.289113 0.101015
0.541329 0.288273 0.102068
0.548775 0.287388 0.103166
0.556023 0.286458 0.104295
0.563058 0.285496 0.10547
0.0807507 0.317021 0.0853132
0.114839 0.316945 0.0854505
0.148943 0.316869 0.0855726
0.179202 0.316777 0.0857099
0.204837 0.316686 0.0858625
0.229114 0.316564 0.0860609
0.251942 0.316426 0.0862745
0.27332 0.316274 0.0865187
0.293339 0.316106 0.0867933
0.312093 0.315908 0.0870985
0.329717 0.315694 0.0874495
0.346288 0.31545 0.0878309
0.361913 0.31519 0.0882429
0.376684 0.314916 0.0886854
0.390677 0.314611 0.0891585
0.403983 0.31429 0.0896773
0.416632 0.313939 0.0902266
0.428702 0.313558 0.0908217
0.440223 0.313161 0.0914473
0.45127 0.312734 0.0921035
0.461845 0.312276 0.0928054
0.472007 0.311803 0.0935378
0.481773 0.311284 0.094316
0.491173 0.31075 0.09514
0.500252 0.310201 0.0959945
0.50901 0.309606 0.0968795
0.517464 0.30898 0.0978103
0.525658 0.308339 0.0987869
0.533593 0.307652 0.099794
0.541268 0.306935 0.100847
0.54873 0.306188 0.101946
0.555978 0.305409 0.103075
0.563012 0.304601 0.10425
0.0786145 0.333043 0.0839857
0.112688 0.332967 0.0841077
0.146807 0.332891 0.0842451
0.177676 0.33283 0.0843824
0.203632 0.332738 0.084535
0.228153 0.332631 0.0847181
0.251148 0.332525 0.0849317
0.272679 0.332387 0.0851759
0.29279 0.332235 0.0854658
0.311635 0.332067 0.085771
0.32932 0.331884 0.0861219
0.345937 0.331685 0.0864881
0.361624 0.331456 0.0869001
0.376425 0.331212 0.0873426
0.390463 0.330953 0.0878309
0.403784 0.330663 0.0883497
0.416449 0.330358 0.0888991
0.428534 0.330037 0.0894789
0.440085 0.329686 0.0901045
0.451133 0.32932 0.0907759
0.461723 0.328939 0.0914778
0.471901 0.328527 0.0922103
0.481666 0.328084 0.0929885
0.491081 0.327626 0.0937972
0.50016 0.327153 0.0946517
0.508934 0.326635 0.095552
0.517403 0.326101 0.0964828
0.525582 0.325551 0.0974594
0.533516 0.324971 0.0984665
0.541207 0.324361 0.0995193
0.548684 0.32372 0.100618
0.555917 0.323049 0.101747
0.562966 0.322362 0.102922
0.0762798 0.348211 0.0825208
0.110369 0.34815 0.0826581
0.144472 0.348074 0.0827955
0.175998 0.348013 0.0829175
0.202289 0.347951 0.0830854
0.227085 0.34786 0.0832685
0.250294 0.347753 0.0834821
0.271962 0.347646 0.0837262
0.292195 0.347509 0.0840009
0.311131 0.347356 0.0843214
0.328893 0.347204 0.0846571
0.345571 0.347021 0.0850385
0.361303 0.346822 0.0854505
0.37615 0.346609 0.085893
0.390204 0.34638 0.0863813
0.403555 0.346136 0.0868849
0.416251 0.345876 0.0874495
0.428367 0.345586 0.0880293
0.439918 0.345296 0.0886549
0.450996 0.344976 0.0893263
0.461601 0.34464 0.090013
0.471778 0.344274 0.0907607
0.481559 0.343893 0.0915389
0.49099 0.343496 0.0923476
0.500069 0.343084 0.0932021
0.508843 0.342641 0.0940871
0.517311 0.342184 0.0950332
0.525521 0.341695 0.0959945
0.533455 0.341192 0.0970169
0.541146 0.340673 0.0980697
0.548623 0.340124 0.0991531
0.555871 0.339544 0.100298
0.562921 0.338949 0.101472
0.0737469 0.3626 0.0809491
0.107836 0.362539 0.0810864
0.141939 0.362493 0.0812085
0.174136 0.362432 0.0813458
0.200824 0.362371 0.0814984
0.22591 0.362295 0.0816968
0.249332 0.362203 0.0819104
0.271183 0.362097 0.0821546
0.291554 0.36199 0.0824292
0.310597 0.361852 0.0827497
0.32842 0.361715 0.0830854
0.345174 0.361563 0.0834669
0.360952 0.361395 0.0838788
0.375845 0.361196 0.0843214
0.389944 0.360998 0.0847944
0.403326 0.360784 0.0853132
0.416052 0.360555 0.0858625
0.428168 0.360311 0.0864576
0.43975 0.360037 0.0870832
0.450828 0.359762 0.0877394
0.461448 0.359472 0.0884413
0.471641 0.359152 0.089189
0.481437 0.358831 0.0899519
0.490883 0.35848 0.0907759
0.499977 0.358114 0.0916304
0.508751 0.357733 0.0925154
0.517235 0.357321 0.0934462
0.525429 0.356909 0.0944228
0.533379 0.356466 0.0954299
0.541085 0.356008 0.0964828
0.548547 0.355535 0.0975814
0.55581 0.355032 0.0987106
0.56286 0.354513 0.0999008
0.0710155 0.376272 0.0792554
0.105104 0.376226 0.0793774
0.139208 0.376181 0.0795148
0.172091 0.376135 0.0796521
0.199222 0.376074 0.0798047
0.224628 0.376013 0.0799878
0.24831 0.375937 0.0802014
0.270329 0.375845 0.0804608
0.290852 0.375738 0.0807355
0.310002 0.375631 0.0810407
0.327916 0.375494 0.0813916
0.344732 0.375357 0.0817578
0.360571 0.375204 0.0821698
0.375509 0.375051 0.0826276
0.389654 0.374868 0.0831006
0.403067 0.374685 0.0836194
0.415808 0.374472 0.0841688
0.42797 0.374258 0.0847639
0.439567 0.374029 0.0853895
0.45066 0.373785 0.0860456
0.461295 0.37351 0.0867475
0.471504 0.373236 0.08748
0.481315 0.372946 0.0882582
0.490761 0.372641 0.0890669
0.49987 0.37232 0.0899214
0.508644 0.371984 0.0908217
0.517143 0.371633 0.0917525
0.525353 0.371267 0.0927291
0.533303 0.370871 0.0937362
0.541009 0.370474 0.094789
0.548486 0.370047 0.0958877
0.555749 0.369619 0.0970169
0.562799 0.369162 0.0981918
0.0680858 0.389303 0.0774243
0.102174 0.389258 0.0775616
0.136278 0.389227 0.0776837
0.169848 0.389181 0.077821
0.197467 0.38912 0.0779736
0.223239 0.389075 0.078172
0.247181 0.388998 0.0783856
0.269413 0.388922 0.0786297
0.290089 0.38883 0.0789044
0.309361 0.388724 0.0792248
0.327367 0.388617 0.0795605
0.344274 0.388495 0.079942
0.360159 0.388357 0.080354
0.375158 0.388205 0.0807965
0.389334 0.388052 0.0812695
0.402792 0.387884 0.0817884
0.415564 0.387701 0.0823377
0.427741 0.387503 0.0829328
0.439368 0.387304 0.0835584
0.450492 0.387091 0.0842145
0.461143 0.386847 0.0849165
0.471351 0.386603 0.0856641
0.481178 0.386358 0.0864271
0.490639 0.386084 0.0872511
0.499748 0.385794 0.0881056
0.508537 0.385504 0.0889906
0.517037 0.385183 0.0899214
0.525261 0.384863 0.090898
0.533211 0.384512 0.0919051
0.540932 0.384161 0.092958
0.548409 0.38378 0.0940566
0.555673 0.383398 0.0951858
0.562737 0.383001 0.096376
0.0649577 0.40174 0.0754711
0.0990463 0.401694 0.0756085
0.13315 0.401663 0.0757305
0.167407 0.401617 0.0758679
0.195575 0.401572 0.0760204
0.221744 0.401526 0.0762188
0.245975 0.40145 0.0764324
0.268421 0.401389 0.0766766
0.289265 0.401297 0.0769513
0.308659 0.401221 0.0772717
0.326787 0.401114 0.0776074
0.343771 0.401007 0.0779889
0.359731 0.400885 0.0784009
0.374777 0.400748 0.0788434
0.388998 0.40061 0.0793164
0.402487 0.400458 0.0798352
0.415305 0.400305 0.0803845
0.427512 0.400122 0.0809796
0.439155 0.399939 0.0816052
0.450294 0.399756 0.0822614
0.46096 0.399542 0.0829633
0.471199 0.399329 0.083711
0.481041 0.3991 0.0844739
0.490501 0.398856 0.0852979
0.499626 0.398596 0.0861524
0.508431 0.398337 0.0870375
0.51693 0.398047 0.0879683
0.525154 0.397757 0.0889448
0.53312 0.397452 0.0899519
0.540841 0.397147 0.0910048
0.548333 0.396811 0.0921035
0.555596 0.39646 0.0932479
0.562661 0.396109 0.0944228
0.0616159 0.413611 0.0733959
0.0957046 0.413565 0.0735332
0.129809 0.413535 0.0736553
0.164202 0.413504 0.0737926
0.193515 0.413458 0.0739452
0.220111 0.413413 0.0741283
0.244663 0.413352 0.074342
0.267353 0.413291 0.0746014
0.28838 0.413214 0.074876
0.307927 0.413138 0.0751812
0.326162 0.413046 0.0755322
0.343221 0.412955 0.0759136
0.359258 0.412848 0.0763104
0.374365 0.412726 0.0767681
0.388647 0.412604 0.0772412
0.402167 0.412467 0.07776
0.415015 0.412314 0.0783093
0.427253 0.412161 0.0789044
0.438926 0.411994 0.07953
0.45008 0.411826 0.0801862
0.460777 0.411643 0.0808881
0.471031 0.411444 0.0816205
0.480873 0.411231 0.0823987
0.490364 0.411017 0.0832074
0.499489 0.410788 0.084062
0.508309 0.410559 0.0849622
0.516823 0.4103 0.085893
0.525063 0.41004 0.0868696
0.533028 0.409766 0.0878767
0.540749 0.409491 0.0889296
0.548241 0.409186 0.0900282
0.55552 0.408881 0.0911574
0.562585 0.40856 0.0923323
0.0580606 0.424964 0.0711833
0.0921492 0.424933 0.0713207
0.126253 0.424903 0.0714427
0.160647 0.424872 0.0715801
0.191272 0.424842 0.0717327
0.218357 0.424796 0.0719158
0.243259 0.42475 0.0721447
0.266209 0.424689 0.0723888
0.287434 0.424613 0.0726635
0.307134 0.424552 0.0729686
0.32549 0.42446 0.0733196
0.342657 0.424384 0.0737011
0.35877 0.424277 0.0741131
0.373938 0.42417 0.0745556
0.388266 0.424063 0.0750286
0.401831 0.423941 0.0755474
0.414725 0.423804 0.0760967
0.426978 0.423667 0.0766918
0.438682 0.423514 0.0773175
0.449866 0.423362 0.0779736
0.460578 0.423194 0.0786755
0.470848 0.423011 0.079408
0.480705 0.422827 0.0801862
0.490211 0.422644 0.0810101
0.499352 0.422431 0.0818647
0.508171 0.422217 0.0827497
0.516701 0.421988 0.0836805
0.524941 0.421759 0.0846571
0.532921 0.421515 0.0856641
0.540658 0.421256 0.086717
0.54815 0.420996 0.0878157
0.555428 0.420722 0.0889448
0.562509 0.420432 0.0901198
0.0543069 0.435859 0.0688487
0.0883955 0.435828 0.0689708
0.122499 0.435798 0.0691081
0.156893 0.435767 0.0692302
0.188861 0.435737 0.069398
0.21648 0.435706 0.0695811
0.241764 0.43566 0.0697948
0.264988 0.435599 0.0700389
0.286427 0.435538 0.0703288
0.306294 0.435477 0.070634
0.324773 0.435401 0.0709697
0.342046 0.435325 0.0713512
0.358236 0.435233 0.0717632
0.373465 0.435142 0.0722057
0.387854 0.435035 0.072694
0.40148 0.434928 0.0732128
0.414405 0.434806 0.0737621
0.426703 0.434684 0.074342
0.438422 0.434546 0.0749676
0.449638 0.434409 0.075639
0.460365 0.434256 0.0763409
0.470649 0.434089 0.0770733
0.480537 0.433921 0.0778515
0.490043 0.433753 0.0786603
0.499199 0.433555 0.0795148
0.508034 0.433371 0.080415
0.516579 0.433158 0.0813458
0.524819 0.432959 0.0823072
0.532815 0.432731 0.0833295
0.540551 0.432502 0.0843824
0.548058 0.432258 0.0854658
0.555337 0.432013 0.0866102
0.562417 0.431754 0.0877852
0.0503395 0.446311 0.0663615
0.0844282 0.446281 0.0664988
0.118532 0.446265 0.0666361
0.152926 0.446235 0.0667582
0.186252 0.446204 0.0669261
0.214435 0.446174 0.0671092
0.240146 0.446128 0.0673228
0.263676 0.446082 0.0675669
0.285344 0.446021 0.0678416
0.305394 0.44596 0.0681621
0.32401 0.445899 0.0684977
0.34139 0.445823 0.0688792
0.357671 0.445747 0.0692912
0.372976 0.445655 0.0697337
0.387427 0.445563 0.070222
0.401099 0.445457 0.0707256
0.414054 0.44535 0.0712902
0.426398 0.445243 0.07187
0.438148 0.445121 0.0724956
0.449393 0.444984 0.073167
0.460136 0.444846 0.0738537
0.470451 0.444709 0.0746014
0.480354 0.444556 0.0753796
0.489876 0.444389 0.0761883
0.499046 0.444221 0.0770428
0.507897 0.444053 0.0779278
0.516442 0.44387 0.0788739
0.524697 0.443671 0.0798352
0.532692 0.443473 0.0808576
0.540444 0.443259 0.0819104
0.547951 0.443046 0.0829938
0.555245 0.442817 0.0841382
0.562325 0.442573 0.0853132
0.0461433 0.456367 0.0637522
0.0802319 0.456336 0.0638895
0.114336 0.456321 0.0640269
0.14873 0.456291 0.0641489
0.183429 0.45626 0.0643168
0.212253 0.45623 0.0644999
0.238422 0.456199 0.0647135
0.262287 0.456153 0.0649577
0.284199 0.456092 0.0652323
0.304433 0.456046 0.0655528
0.323201 0.455985 0.0658885
0.340703 0.455909 0.0662699
0.357076 0.455848 0.0666819
0.372457 0.455756 0.0671244
0.386969 0.45568 0.0676127
0.400687 0.455589 0.0681163
0.413703 0.455482 0.0686809
0.426078 0.455375 0.0692607
0.437858 0.455268 0.0698863
0.449119 0.455146 0.0705577
0.459907 0.455024 0.0712444
0.470237 0.454887 0.0719921
0.480156 0.454749 0.0727703
0.489693 0.454612 0.073579
0.498878 0.454459 0.0744335
0.507744 0.454292 0.0753185
0.516289 0.454124 0.0762646
0.524575 0.453956 0.0772259
0.53257 0.453773 0.0782483
0.540322 0.453574 0.0793011
0.547845 0.453376 0.0803845
0.555154 0.453178 0.081529
0.562234 0.452949 0.0827039
0.0417487 0.466026 0.0610208
0.0758373 0.466011 0.0611429
0.109941 0.465995 0.0612802
0.144335 0.465965 0.0614023
0.180377 0.46595 0.0615702
0.209918 0.465919 0.0617533
0.236576 0.465873 0.0619669
0.260807 0.465843 0.062211
0.282979 0.465797 0.062501
0.30341 0.465736 0.0628061
0.322347 0.46569 0.0631418
0.339971 0.465629 0.0635233
0.356435 0.465553 0.0639353
0.371908 0.465492 0.0643778
0.386481 0.4654 0.0648661
0.400259 0.465324 0.0653849
0.413321 0.465232 0.0659342
0.425742 0.465141 0.0665141
0.437568 0.465034 0.0671397
0.448844 0.464927 0.0678111
0.459648 0.464805 0.068513
0.470008 0.464683 0.0692454
0.479942 0.464561 0.0700236
0.489494 0.464424 0.0708324
0.498711 0.464286 0.0716869
0.507576 0.464134 0.0725872
0.516152 0.463981 0.073518
0.524422 0.463828 0.0744793
0.532448 0.463661 0.0755016
0.5402 0.463478 0.0765545
0.547738 0.463294 0.0776379
0.555047 0.463111 0.0787823
0.562142 0.462913 0.0799573
0.0371252 0.475349 0.0581369
0.0712139 0.475334 0.0582589
0.105318 0.475319 0.0583963
0.139712 0.475288 0.0585336
0.177096 0.475273 0.0586862
0.207401 0.475242 0.0588693
0.234592 0.475212 0.0590829
0.25922 0.475181 0.0593423
0.281682 0.475135 0.059617
0.302342 0.47509 0.0599222
0.321431 0.475029 0.0602731
0.339193 0.474983 0.0606394
0.355779 0.474922 0.0610513
0.371328 0.474845 0.0615091
0.385977 0.474784 0.0619821
0.399817 0.474708 0.062501
0.412924 0.474617 0.0630503
0.425376 0.474525 0.0636454
0.437247 0.474434 0.064271
0.448554 0.474342 0.0649271
0.459388 0.474235 0.0656291
0.469764 0.474113 0.0663615
0.479728 0.474006 0.0671397
0.489296 0.473884 0.0679484
0.498512 0.473747 0.0688029
0.507408 0.47361 0.0697032
0.515984 0.473472 0.070634
0.524285 0.47332 0.0716106
0.532311 0.473167 0.0726177
0.540078 0.473014 0.0736706
0.547616 0.472847 0.0747692
0.554925 0.472679 0.0758984
0.562036 0.472496 0.0770733
0.0322728 0.484352 0.0551156
0.0663615 0.484337 0.0552529
0.100465 0.484306 0.055375
0.134859 0.484291 0.0555123
0.173541 0.484276 0.0556649
0.2047 0.484245 0.055848
0.232486 0.484215 0.0560769
0.257527 0.484184 0.0563211
0.280308 0.484138 0.0565957
0.301198 0.484108 0.0569009
0.320485 0.484062 0.0572519
0.338369 0.484001 0.0576333
0.355077 0.48394 0.0580301
0.370718 0.483879 0.0584878
0.385443 0.483818 0.0589609
0.399344 0.483742 0.0594797
0.412512 0.483665 0.060029
0.42501 0.483589 0.0606241
0.436896 0.483497 0.0612497
0.448264 0.483406 0.0619059
0.459113 0.483314 0.0626078
0.46952 0.483207 0.0633402
0.4795 0.483101 0.0641184
0.489082 0.482994 0.0649424
0.498329 0.482872 0.0657816
0.507225 0.48275 0.0666819
0.515816 0.482612 0.0676127
0.524132 0.482475 0.0685893
0.532158 0.482338 0.0695964
0.53994 0.482185 0.0706493
0.547494 0.482033 0.0717479
0.554818 0.48188 0.0728771
0.561929 0.481712 0.074052
0.0272068 0.493034 0.051957
0.0612955 0.493019 0.0520943
0.0953994 0.493004 0.0522164
0.129793 0.492988 0.0523537
0.169696 0.492973 0.0525063
0.201816 0.492943 0.0526894
0.230243 0.492912 0.0529183
0.255741 0.492882 0.0531624
0.278859 0.492851 0.0534371
0.299992 0.492805 0.0537423
0.319463 0.49276 0.0540932
0.337514 0.492714 0.0544747
0.35433 0.492668 0.0548867
0.370077 0.492607 0.0553292
0.384878 0.492546 0.0558022
0.39884 0.492485 0.0563211
0.41207 0.492409 0.0568704
0.424613 0.492332 0.0574655
0.436545 0.492256 0.0580911
0.447944 0.492164 0.0587472
0.458824 0.492073 0.0594492
0.469245 0.491981 0.0601816
0.479255 0.49189 0.0609598
0.488869 0.491783 0.0617838
0.498116 0.491676 0.0626383
0.507042 0.491554 0.0635233
0.515648 0.491432 0.0644541
0.523964 0.49131 0.0654307
0.532021 0.491173 0.0664378
0.539803 0.491051 0.0674907
0.547356 0.490898 0.0685893
0.554696 0.490761 0.0697185
0.561807 0.490608 0.0708934
0.021912 0.501442 0.048661
0.0560006 0.501427 0.0487984
0.0901045 0.501411 0.0489204
0.124498 0.501396 0.0490578
0.165179 0.501381 0.0492103
0.198718 0.50135 0.0493935
0.227848 0.50132 0.0496223
0.253849 0.501305 0.0498665
