a6000 portrait -3 -3 -3 to rec709_1.C0006.cube
TITLE "Generate by Resolve"
LUT_3D_SIZE 5
0 0 0
0.281468 0 0.00320439
0.499855 0 0.0106661
0.711376 0 0.0231327
0.918257 0 0.0410468
0 0.260914 0
0.278386 0.259113 0
0.498329 0.254887 0
0.710399 0.247623 0.0117952
0.917556 0.236744 0.0297093
0 0.465965 0
0.271046 0.465064 0
0.494759 0.462989 0
0.708141 0.459495 0
0.915953 0.454414 0.00337224
0 0.664561 0
0.258228 0.663996 0
0.488701 0.662684 0
0.704341 0.660471 0
0.913237 0.657282 0
0 0.858808 0
0.238407 0.858412 0
0.47985 0.857466 0
0.698817 0.855894 0
0.909316 0.85362 0
0.142321 0.156268 0.290715
0.317647 0.153094 0.291234
0.51873 0.145434 0.292439
0.723537 0.131624 0.294438
0.927001 0.108827 0.297292
0.135683 0.306371 0.288869
0.314977 0.304875 0.289387
0.517281 0.301396 0.290608
0.722591 0.295445 0.292622
0.926314 0.286656 0.295491
0.118883 0.490059 0.28452
0.308659 0.489219 0.285054
0.513878 0.487282 0.28629
0.720378 0.484001 0.28835
0.924727 0.47924 0.291264
0.084062 0.680156 0.277073
0.297734 0.679606 0.277623
0.50811 0.678325 0.278889
0.716655 0.676188 0.28101
0.922042 0.673091 0.284016
0 0.870039 0.265919
0.281147 0.869642 0.266499
0.499687 0.868727 0.267842
0.711269 0.86717 0.270054
0.918181 0.864927 0.273198
0.27039 0.293385 0.515099
0.386831 0.291814 0.515358
0.559518 0.288151 0.515953
0.750805 0.281865 0.51696
0.946914 0.272557 0.518395
0.267155 0.389105 0.514183
0.384726 0.387991 0.514443
0.558206 0.385397 0.515053
0.749905 0.380987 0.516045
0.946242 0.374563 0.517494
0.259449 0.540917 0.512062
0.379782 0.540169 0.512322
0.555108 0.53846 0.512917
0.747799 0.535576 0.513924
0.944686 0.531395 0.515373
0.24593 0.714672 0.508461
0.371328 0.714168 0.508721
0.549889 0.712963 0.509331
0.744259 0.710948 0.510353
0.942092 0.708049 0.511803
0.224857 0.895415 0.503227
0.35877 0.895018 0.503502
0.54229 0.894133 0.504112
0.739116 0.892638 0.50515
0.938338 0.890486 0.50663
0.394446 0.4262 0.732433
0.477043 0.425193 0.732601
0.620417 0.422873 0.732982
0.79379 0.418967 0.733623
0.979065 0.413245 0.734539
0.392386 0.492683 0.731853
0.475425 0.491844 0.732021
0.619272 0.489921 0.732403
0.79295 0.486656 0.733043
0.978424 0.481941 0.733959
0.387564 0.614588 0.73051
0.471641 0.613962 0.730663
0.616571 0.612512 0.731044
0.790997 0.610071 0.731685
0.976944 0.606531 0.732616
0.379324 0.768078 0.728222
0.465202 0.76762 0.728389
0.612009 0.766522 0.728786
0.787701 0.764706 0.729427
0.974456 0.762066 0.730343
0.367102 0.935897 0.724941
0.455772 0.935531 0.725109
0.605386 0.934691 0.725505
0.78294 0.933288 0.726146
0.970855 0.931258 0.727077
0.51577 0.5561 0.945006
0.577874 0.555383 0.945129
0.696361 0.553735 0.945403
0.85066 0.550942 0.945861
1 0.546914 0.946517
0.514305 0.605524 0.944595
0.576608 0.604898 0.944717
0.695369 0.603403 0.944991
0.849897 0.600916 0.945449
1 0.597314 0.946105
0.510872 0.703899 0.943633
0.573648 0.70338 0.94374
0.693049 0.702159 0.944015
0.848112 0.700099 0.944472
1 0.697139 0.945129
0.505074 0.837217 0.942
0.568643 0.836805 0.942123
0.689128 0.835828 0.942397
0.845106 0.834195 0.942855
1 0.831846 0.943511
0.496574 0.99028 0.939666
0.561349 0.989944 0.939788
0.683452 0.989166 0.940063
0.840757 0.987854 0.94052
1 0.985977 0.941176
