a6000 portrait -3 -3 -3 to rec709_1.C0006.cube
TITLE "Generate by Resolve"
LUT_3D_SIZE 33
0 0 0
0.067689 0 0.000289921
0.108797 0 0.000564584
0.139178 0 0.000854505
0.16817 0 0.00120546
0.196857 0 0.0016022
0.225284 0 0.00207523
0.253468 0 0.00260929
0.281468 0 0.00320439
0.30927 0 0.00387579
0.336919 0 0.00462348
0.364401 0 0.00544747
0.391745 0 0.00633249
0.418952 0 0.00730907
0.446021 0 0.00834669
0.472999 0 0.00946059
0.499855 0 0.0106661
0.526604 0 0.0119326
0.553262 0 0.0132906
0.579812 0 0.014725
0.606287 0 0.0162356
0.632685 0 0.0178378
0.658991 0 0.0195163
0.685222 0 0.0212863
0.711376 0 0.0231327
0.737453 0 0.0250706
0.76347 0 0.0271
0.789425 0 0.0292058
0.815305 0 0.0314031
0.841138 0 0.0336767
0.866896 0 0.0360571
0.892607 0 0.0385138
0.918257 0 0.0410468
0 0.0601968 0
0.0665751 0.0595407 0
0.108049 0.0588846 0
0.138582 0.0582132 0
0.167681 0.0574044 0.000183108
0.196445 0.0564431 0.000595102
0.224918 0.055314 0.00106813
0.253162 0.0540017 0.0016022
0.281193 0.052491 0.0021973
0.309026 0.050782 0.0028687
0.33669 0.0488289 0.00361639
0.364202 0.0466316 0.00444038
0.391562 0.0441596 0.0053254
0.418784 0.0413825 0.00628672
0.445869 0.0382544 0.00733959
0.472847 0.0348669 0.0084535
0.499718 0.0312352 0.0096437
0.526482 0.0273747 0.0109255
0.55314 0.02327 0.0122835
0.579705 0.0189212 0.0137179
0.60618 0.0143282 0.0152285
0.632578 0.00947585 0.0168307
0.658885 0.00437934 0.0185092
0.68513 0 0.0202792
0.711284 0 0.0221256
0.737377 0 0.0240635
0.763394 0 0.0260929
0.789349 0 0.0281987
0.815229 0 0.030396
0.841062 0 0.0326696
0.866835 0 0.03505
0.892546 0 0.0375067
0.918196 0 0.0400549
0 0.0987869 0
0.0654307 0.0983597 0
0.107286 0.0979171 0
0.137987 0.0974746 0
0.167193 0.0969406 0
0.196033 0.0963149 0
0.224567 0.0955825 4.57771e-05
0.252857 0.094728 0.000595102
0.280919 0.0937667 0.0011902
0.308782 0.0926833 0.0018616
0.336477 0.0914778 0.00260929
0.364004 0.090135 0.00343328
0.391379 0.0886397 0.0043183
0.418601 0.0870069 0.00527962
0.445716 0.0852216 0.00633249
0.472709 0.0832532 0.0074464
0.49958 0.0811017 0.00863661
0.526345 0.0787671 0.00991836
0.553017 0.0762188 0.0112764
0.579599 0.0734417 0.0127108
0.606073 0.0704051 0.0142214
0.632471 0.0670939 0.0158236
0.658793 0.0634623 0.0175021
0.685039 0.0594949 0.0192721
0.711192 0.0551003 0.0211185
0.737285 0.0502327 0.0230564
0.763317 0.0447852 0.0250858
0.789273 0.0386053 0.0271916
0.815167 0.0319677 0.0293889
0.840986 0.0250401 0.0316625
0.866758 0.0178683 0.0340429
0.89247 0.0104067 0.0364996
0.918135 0.00268559 0.0390478
0 0.127321 0
0.0642557 0.12697 0
0.106523 0.126635 0
0.137392 0.126284 0
0.166705 0.125872 0
0.195621 0.125368 0
0.224216 0.124804 0
0.252552 0.124147 0
0.280644 0.1234 0.000167849
0.308537 0.12256 0.000854505
0.336248 0.121614 0.00158694
0.36379 0.120592 0.00241093
0.39118 0.119448 0.00329595
0.418433 0.118212 0.00427253
0.445563 0.116854 0.00531014
0.472557 0.115389 0.00642405
0.499443 0.113787 0.00762951
0.526223 0.112062 0.00889601
0.552895 0.110216 0.0102541
0.579477 0.108202 0.0116884
0.605966 0.10605 0.0132143
0.63238 0.103746 0.0148013
0.658701 0.101259 0.016495
0.684947 0.0985885 0.0182498
0.711116 0.0957198 0.0201114
0.737209 0.0926375 0.0220493
0.763241 0.0893111 0.0240635
0.789197 0.0857252 0.0261692
0.815091 0.0818647 0.0283665
0.840925 0.0776684 0.0306554
0.866697 0.073106 0.0330205
0.892409 0.0681163 0.0354772
0.918074 0.062623 0.0380255
0 0.154528 0
0.0628519 0.154253 0
0.105608 0.153964 0
0.136675 0.153674 0
0.16611 0.153338 0
0.195117 0.152941 0
0.223789 0.152468 0
0.252171 0.151934 0
0.280324 0.151324 0
0.308248 0.150637 0
0.335988 0.149874 0.000396735
0.363561 0.149035 0.00120546
0.390967 0.148119 0.00210575
0.418235 0.147112 0.00306706
0.445365 0.146029 0.00410468
0.472389 0.144839 0.00523384
0.499275 0.143572 0.00642405
0.52607 0.142199 0.00770581
0.552758 0.140734 0.0090486
0.579339 0.139162 0.0104829
0.605844 0.137484 0.0120089
0.632258 0.135683 0.013611
0.658579 0.133776 0.0152895
0.68484 0.131731 0.0170596
0.711009 0.129564 0.0189059
0.737102 0.127245 0.0208438
0.763134 0.124788 0.022858
0.789105 0.122179 0.0249638
0.815 0.119402 0.0271611
0.840848 0.116442 0.0294499
0.866621 0.113283 0.0318151
0.892332 0.109926 0.0342718
0.917998 0.10634 0.03682
0 0.18146 0
0.0611582 0.181231 0
0.104524 0.180987 0
0.135836 0.180743 0
0.165423 0.180468 0
0.194537 0.180117 0
0.223285 0.179721 0
0.251743 0.179278 0
0.279927 0.178759 0
0.307897 0.17818 0
0.335668 0.177554 0
0.363272 0.176852 0
0.390707 0.176074 0.000671397
0.41799 0.17525 0.00163272
0.445151 0.174334 0.00268559
0.472175 0.173358 0.0037995
0.499092 0.172305 0.0049897
0.525887 0.171176 0.00627146
0.55259 0.169955 0.00762951
0.579187 0.168673 0.00906386
0.605692 0.167285 0.0105745
0.63212 0.16582 0.0121767
0.658457 0.164263 0.0138552
0.684703 0.162615 0.0156252
0.710887 0.160876 0.0174716
0.736996 0.159014 0.0194095
0.763027 0.157061 0.0214389
0.788998 0.155001 0.0235447
0.814908 0.152819 0.025742
0.840742 0.150515 0.0280156
0.866529 0.148074 0.030396
0.892241 0.14551 0.0328527
0.917906 0.142794 0.0354009
0 0.208164 0
0.0591592 0.20795 0
0.103243 0.207752 0
0.134829 0.207538 0
0.164599 0.207294 0
0.193851 0.207004 0
0.222705 0.206668 0
0.251225 0.206271 0
0.279484 0.205829 0
0.3075 0.205341 0
0.335317 0.204791 0
0.362936 0.204196 0
0.390402 0.20354 0
0.417716 0.202823 0
0.444892 0.202045 0.00102235
0.471946 0.201221 0.00213626
0.498863 0.20032 0.00334173
0.525689 0.199359 0.00460822
0.552392 0.198337 0.00596628
0.579004 0.197238 0.00740063
0.605524 0.196078 0.00892653
0.631952 0.194842 0.0105287
0.658289 0.19353 0.0122072
0.684565 0.192157 0.0139773
0.71075 0.190692 0.0158236
0.736858 0.189151 0.0177615
0.762905 0.187518 0.0197757
0.788876 0.185809 0.0218814
0.814786 0.184024 0.0240787
0.840635 0.182132 0.0263676
0.866407 0.180133 0.0287327
0.892134 0.178058 0.0311894
0.917815 0.17586 0.0337377
0 0.234638 0
0.0567941 0.234455 0
0.101762 0.234272 0
0.133684 0.234089 0
0.163668 0.233875 0
0.193072 0.233616 0
0.222034 0.233326 0
0.250645 0.23299 0
0.278965 0.232609 0
0.307042 0.232166 0
0.33489 0.231693 0
0.36257 0.231174 0
0.390051 0.23061 0
0.417395 0.229984 0
0.444602 0.229313 0
0.471672 0.22858 0.000244144
0.498604 0.227802 0.00144961
0.525444 0.226978 0.00271611
0.552163 0.226093 0.00407416
0.57879 0.225147 0.00550851
0.605325 0.22414 0.00703441
0.631754 0.223072 0.00862135
0.658122 0.221958 0.0103151
0.684382 0.220768 0.0120699
0.710582 0.219516 0.0139315
0.736706 0.218204 0.0158694
0.762753 0.216815 0.0178836
0.788739 0.215351 0.0199893
0.814649 0.213825 0.0221866
0.840497 0.212222 0.0244755
0.866285 0.210544 0.0268406
0.892027 0.208789 0.0292973
0.917693 0.206943 0.0318456
0 0.260914 0
0.0540475 0.260761 0
0.100069 0.260594 0
0.132387 0.260441 0
0.162615 0.260243 0
0.192187 0.260029 0
0.221271 0.259754 0
0.249989 0.259464 0
0.278386 0.259113 0
0.306508 0.258747 0
0.334432 0.25832 0
0.362142 0.257862 0
0.38967 0.257359 0
0.417044 0.256809 0
0.444266 0.256214 0
0.471351 0.255573 0
0.498329 0.254887 0
0.52517 0.254154 0.000579843
0.551919 0.253376 0.0019379
0.578561 0.252552 0.00337224
0.605097 0.251667 0.00489815
0.631556 0.250736 0.00648508
0.657908 0.24976 0.00817884
0.684199 0.248722 0.00993362
0.710399 0.247623 0.0117952
0.736522 0.246479 0.0137331
0.762585 0.245274 0.0157473
0.788571 0.244007 0.0178531
0.814496 0.242679 0.0200504
0.840345 0.241291 0.0223392
0.866148 0.239841 0.0247044
0.89189 0.238331 0.0271611
0.917556 0.236744 0.0297093
0 0.287022 0
0.0508583 0.286885 0
0.098146 0.286748 0
0.130907 0.286595 0
0.161425 0.286427 0
0.191196 0.286229 0
0.220417 0.285985 0
0.249241 0.285725 0
0.277729 0.28542 0
0.305928 0.285084 0
0.333898 0.284703 0
0.361654 0.284291 0
0.389227 0.283848 0
0.416632 0.28336 0
0.4439 0.282826 0
0.471015 0.282261 0
0.498009 0.281651 0
0.52488 0.280995 0
0.551629 0.280308 0
0.578286 0.279561 0.000991836
0.604852 0.278782 0.00251774
0.631312 0.277958 0.00410468
0.657694 0.277089 0.00579843
0.683986 0.276158 0.00755322
0.710201 0.275196 0.00941482
0.736339 0.274174 0.0113375
0.762402 0.273121 0.0133669
0.788403 0.271992 0.0154726
0.814328 0.270832 0.0176699
0.840192 0.269612 0.0199435
0.865995 0.26833 0.0223239
0.891737 0.267002 0.0247807
0.917418 0.265614 0.0273289
0 0.312978 0
0.0471809 0.31284 0
0.0959793 0.312718 0
0.129274 0.312596 0
0.160098 0.312444 0
0.190082 0.312261 0
0.219471 0.312047 0
0.248417 0.311803 0
0.276997 0.311528 0
0.305287 0.311223 0
0.333318 0.310887 0
0.361135 0.310506 0
0.388754 0.310109 0
0.41619 0.309667 0
0.443488 0.309194 0
0.470634 0.308675 0
0.497642 0.308125 0
0.524544 0.307546 0
0.551324 0.30692 0
0.577996 0.306264 0
0.604562 0.305562 0
0.631052 0.304814 0.00148013
0.657435 0.304036 0.00315862
0.683742 0.303212 0.00492866
0.709972 0.302342 0.00677501
0.736126 0.301427 0.0087129
0.762188 0.300481 0.0107271
0.788205 0.299474 0.0128328
0.81413 0.298436 0.0150301
0.840009 0.297353 0.017319
0.865812 0.296208 0.0196841
0.891569 0.295018 0.0221408
0.91725 0.293782 0.0247044
0 0.338781 0
0.0429084 0.338659 0
0.0935378 0.338552 0
0.127443 0.33843 0
0.158618 0.338293 0
0.188861 0.338125 0
0.218433 0.337926 0
0.247517 0.337713 0
0.276204 0.337469 0
0.30457 0.337194 0
0.332677 0.336873 0
0.360555 0.336538 0
0.38822 0.336172 0
0.415702 0.335775 0
0.44303 0.335348 0
0.470207 0.334874 0
0.497261 0.334386 0
0.524178 0.333852 0
0.550973 0.333288 0
0.577676 0.332677 0
0.604257 0.332052 0
0.630762 0.33138 0
0.65716 0.330663 0.000259403
0.683482 0.329915 0.00202945
0.709728 0.329137 0.00387579
0.735882 0.328313 0.00581369
0.761975 0.327459 0.00784314
0.787976 0.326558 0.00994888
0.813931 0.325612 0.0121462
0.839811 0.324636 0.0144198
0.865629 0.323613 0.0168002
0.891386 0.322545 0.0192569
0.917082 0.321431 0.0218051
0 0.364446 0
0.0379339 0.36434 0
0.090837 0.364233 0
0.125414 0.364126 0
0.157 0.364004 0
0.187518 0.363851 0
0.217288 0.363668 0
0.246525 0.36347 0
0.275334 0.363241 0
0.303792 0.362997 0
0.331975 0.362707 0
0.359915 0.362402 0
0.38764 0.362066 0
0.415167 0.3617 0
0.442542 0.361303 0
0.469749 0.360876 0
0.496834 0.360433 0
0.523781 0.359945 0
0.550607 0.359426 0
0.577325 0.358877 0
0.603937 0.358297 0
0.630442 0.357687 0
0.65687 0.357046 0
0.683207 0.356359 0
0.709453 0.355642 0.000732433
0.735622 0.354894 0.00267033
0.761715 0.354116 0.00468452
0.787747 0.353292 0.00679026
0.813703 0.352438 0.00898756
0.839597 0.351553 0.0112764
0.865415 0.350622 0.0136416
0.891188 0.349645 0.0160983
0.916884 0.348638 0.0186618
0 0.38999 0
0.0324559 0.389899 0
0.0878157 0.389807 0
0.123186 0.3897 0
0.15523 0.389578 0
0.186053 0.389441 0
0.216037 0.389288 0
0.245441 0.38909 0
0.274372 0.388891 0
0.302953 0.388647 0
0.331212 0.388388 0
0.359228 0.388113 0
0.387015 0.387808 0
0.414588 0.387472 0
0.442008 0.387106 0
0.469261 0.386709 0
0.496361 0.386297 0
0.523339 0.385855 0
0.550195 0.385382 0
0.576944 0.384878 0
0.603571 0.384344 0
0.630106 0.38378 0
0.65655 0.383185 0
0.682887 0.382559 0
0.709163 0.381903 0
0.735348 0.381216 0
0.761456 0.380499 0.0012665
0.787488 0.379751 0.00337224
0.813458 0.378973 0.00556954
0.839353 0.378149 0.0078584
0.865187 0.377295 0.0102235
0.890959 0.37641 0.0126955
0.916671 0.375494 0.0152438
0 0.415427 0
0.0265354 0.415335 0
0.0844434 0.415244 0
0.120729 0.415152 0
0.153292 0.415045 0
0.184451 0.414908 0
0.214694 0.414755 0
0.244266 0.414588 0
0.27335 0.414405 0
0.302037 0.414176 0
0.330388 0.413947 0
0.35848 0.413687 0
0.386328 0.413397 0
0.413962 0.413092 0
0.441428 0.412757 0
0.468727 0.41239 0
0.495872 0.412009 0
0.522881 0.411597 0
0.549752 0.411154 0
0.576532 0.410697 0
0.603174 0.410193 0
0.62974 0.409674 0
0.656199 0.409125 0
0.682567 0.40856 0
0.708843 0.40795 0
0.735042 0.407324 0
0.761166 0.406653 0
0.787213 0.405966 0
0.813199 0.405249 0.00189212
0.839109 0.404486 0.00416571
0.864942 0.403708 0.00654612
0.89073 0.402899 0.00900282
0.916457 0.402045 0.0115511
0 0.440742 0
0.0201877 0.440665 0
0.080705 0.440574 0
0.118044 0.440482 0
0.151186 0.440391 0
0.182727 0.440269 0
0.21323 0.440131 0
0.243 0.439963 0
0.272236 0.439796 0
0.301045 0.439582 0
0.329503 0.439368 0
0.357671 0.439124 0
0.385595 0.438865 0
0.413291 0.438575 0
0.440803 0.438254 0
0.468147 0.437919 0
0.495338 0.437568 0
0.522377 0.437186 0
0.549294 0.436774 0
0.576074 0.436347 0
0.602762 0.435889 0
0.629343 0.435416 0
0.655818 0.434897 0
0.6822 0.434363 0
0.708507 0.433814 0
0.734722 0.433219 0
0.760861 0.432609 0
0.786923 0.431968 0
0.812909 0.431296 0
0.838834 0.43061 0.000213626
0.864683 0.429877 0.00259403
0.890471 0.429129 0.00505074
0.916213 0.428336 0.00759899
0 0.465965 0
0.0133974 0.465873 0
0.0765393 0.465797 0
0.115114 0.465721 0
0.148898 0.465629 0
0.18085 0.465522 0
0.211643 0.465385 0
0.241642 0.465232 0
0.271046 0.465064 0
0.299992 0.464881 0
0.328557 0.464683 0
0.356817 0.464454 0
0.384802 0.464195 0
0.412573 0.463935 0
0.440146 0.463645 0
0.467521 0.463325 0
0.494759 0.462989 0
0.521843 0.462638 0
0.548775 0.462257 0
0.575601 0.46186 0
0.602319 0.461433 0
0.628916 0.46099 0
0.655421 0.460517 0
0.681819 0.460014 0
0.708141 0.459495 0
0.734371 0.458946 0
0.760525 0.458381 0
0.786603 0.457786 0
0.812604 0.45716 0
0.838544 0.456519 0
0.864408 0.455848 0
0.890211 0.455146 0.000808728
0.915953 0.454414 0.00337224
0 0.491081 0
0.00614939 0.491005 0
0.07187 0.490929 0
0.111894 0.490852 0
0.14641 0.490761 0
0.178836 0.490669 0
0.209949 0.490547 0
0.240192 0.490394 0
0.269764 0.490242 0
0.298848 0.490074 0
0.327535 0.489876 0
0.355886 0.489662 0
0.383963 0.489433 0
0.41181 0.489174 0
0.439429 0.488914 0
0.466865 0.488624 0
0.494148 0.488304 0
0.521263 0.487968 0
0.548241 0.487617 0
0.575097 0.487236 0
0.601831 0.486839 0
0.628458 0.486427 0
0.654994 0.485985 0
0.681422 0.485527 0
0.707759 0.485039 0
0.734005 0.48452 0
0.760174 0.483986 0
0.786267 0.483436 0
0.812284 0.482856 0
0.838224 0.482246 0
0.864103 0.481621 0
0.889921 0.480964 0
0.915679 0.480293 0
0 0.516106 0
0 0.51603 0
0.0666514 0.515969 0
0.108385 0.515892 0
0.143725 0.515816 0
0.176654 0.515709 0
0.208133 0.515602 0
0.238621 0.515465 0
0.268406 0.515328 0
0.297642 0.51516 0
0.326452 0.514977 0
0.35491 0.514778 0
0.383078 0.514565 0
0.410986 0.514321 0
0.438666 0.514061 0
0.466163 0.513787 0
0.493492 0.513497 0
0.520653 0.513191 0
0.547677 0.512856 0
0.574563 0.512505 0
0.601328 0.512139 0
0.627985 0.511742 0
0.654536 0.51133 0
0.68098 0.510887 0
0.707347 0.51043 0
0.733608 0.509957 0
0.759793 0.509453 0
0.785901 0.508934 0
0.811933 0.508385 0
0.837903 0.50782 0
0.863783 0.507225 0
0.889616 0.506615 0
0.915373 0.505989 0
0 0.541039 0
0 0.540978 0
0.0607462 0.540917 0
0.104555 0.540841 0
0.140826 0.540764 0
0.174334 0.540673 0
0.20618 0.540566 0
0.236957 0.540444 0
0.266941 0.540307 0
0.296361 0.540154 0
0.325292 0.539986 0
0.353872 0.539788 0
0.382116 0.53959 0
0.410117 0.539361 0
0.437873 0.539132 0
0.465415 0.538872 0
0.49279 0.538598 0
0.519997 0.538293 0
0.547066 0.537987 0
0.573983 0.537652 0
0.600793 0.537301 0
0.627466 0.536934 0
0.654047 0.536538 0
0.680522 0.536141 0
0.706905 0.535698 0
0.733196 0.535256 0
0.759396 0.534783 0
0.785519 0.534295 0
0.811566 0.533776 0
0.837552 0.533257 0
0.863447 0.532692 0
0.889296 0.532113 0
0.915068 0.531518 0
0 0.565896 0
0 0.565835 0
0.0540169 0.565774 0
0.100359 0.565713 0
0.137697 0.565637 0
0.171832 0.565545 0
0.204105 0.565454 0
0.235172 0.565332 0
0.2654 0.565209 0
0.294987 0.565057 0
0.324071 0.564889 0
0.352758 0.564721 0
0.381109 0.564523 0
0.409186 0.564309 0
0.437018 0.56408 0
0.464637 0.563851 0
0.492058 0.563577 0
0.519326 0.563302 0
0.546426 0.563012 0
0.573388 0.562692 0
0.600214 0.562371 0
0.626932 0.56202 0
0.653544 0.561654 0
0.680034 0.561257 0
0.706447 0.560861 0
0.732754 0.560433 0
0.758984 0.559991 0
0.785122 0.559533 0
0.811185 0.559045 0
0.837171 0.558541 0
0.863096 0.558022 0
0.888945 0.557473 0
0.914733 0.556924 0
0 0.590677 0
0 0.590616 0
0.0462196 0.590555 0
0.0957504 0.590494 0
0.134325 0.590433 0
0.169146 0.590341 0
0.201892 0.590249 0
0.23328 0.590143 0
0.263752 0.590021 0
0.293538 0.589883 0
0.322774 0.589731 0
0.351583 0.589563 0
0.380056 0.58938 0
0.408209 0.589181 0
0.436118 0.588968 0
0.463798 0.588724 0
0.491279 0.588479 0
0.518593 0.58822 0
0.545739 0.587945 0
0.572747 0.58764 0
0.599619 0.587335 0
0.626368 0.586999 0
0.652995 0.586648 0
0.67953 0.586282 0
0.705959 0.585901 0
0.73228 0.585504 0
0.758541 0.585092 0
0.784695 0.584649 0
0.810773 0.584192 0
0.836789 0.583719 0
0.86273 0.58323 0
0.888594 0.582712 0
0.914382 0.582177 0
0 0.615381 0
0 0.61532 0
0.0370184 0.615259 0
0.0906691 0.615213 0
0.130678 0.615137 0
0.166278 0.615061 0
0.199527 0.614969 0
0.231281 0.614862 0
0.262013 0.614755 0
0.291997 0.614618 0
0.321401 0.614481 0
0.350347 0.614313 0
0.378927 0.614145 0
0.407187 0.613947 0
0.435172 0.613748 0
0.462928 0.613535 0
0.490471 0.613291 0
0.51783 0.613046 0
0.545022 0.612787 0
0.572076 0.612497 0
0.598978 0.612207 0
0.625757 0.611887 0
0.65243 0.611566 0
0.678981 0.611215 0
0.70544 0.610849 0
0.731792 0.610468 0
0.758068 0.610071 0
0.784253 0.609659 0
0.810346 0.609232 0
0.836378 0.608774 0
0.862333 0.608316 0
0.888212 0.607828 0
0.914031 0.607324 0
0 0.640009 0
0 0.639948 0
0.0269932 0.639902 0
0.085069 0.639841 0
0.126741 0.63978 0
0.16321 0.639704 0
0.197009 0.639612 0
0.229145 0.639521 0
0.260166 0.639414 0
0.290379 0.639277 0
0.319951 0.639139 0
0.34905 0.638987 0
0.377737 0.638834 0
0.406104 0.638651 0
0.434165 0.638453 0
0.461997 0.638254 0
0.489616 0.638025 0
0.517021 0.637797 0
0.544274 0.637537 0
0.571374 0.637278 0
0.598321 0.636988 0
0.625132 0.636698 0
0.651835 0.636378 0
0.678416 0.636057 0
0.704906 0.635706 0
0.731289 0.63534 0
0.75758 0.634974 0
0.78378 0.634577 0
0.809903 0.634165 0
0.83595 0.633738 0
0.861906 0.633295 0
0.887816 0.632822 0
0.913634 0.632349 0
0 0.664561 0
0 0.664515 0
0.016495 0.664454 0
0.0788434 0.664408 0
0.122469 0.664347 0
0.15993 0.664271 0
0.194339 0.664195 0
0.226902 0.664103 0
0.258228 0.663996 0
0.288655 0.663874 0
0.318425 0.663737 0
0.347677 0.6636 0
0.376501 0.663447 0
0.404959 0.663279 0
0.433127 0.663081 0
0.461021 0.662898 0
0.488701 0.662684 0
0.516182 0.662455 0
0.543481 0.662211 0
0.570626 0.661967 0
0.59762 0.661692 0
0.624475 0.661402 0
0.651209 0.661112 0
0.677821 0.660792 0
0.704341 0.660471 0
0.730739 0.660121 0
0.757061 0.65977 0
0.783291 0.659388 0
0.80943 0.659007 0
0.835492 0.658595 0
0.861479 0.658167 0
0.887388 0.657725 0
0.913237 0.657282 0
0 0.689052 0
0 0.689006 0
0.00550851 0.68896 0
0.0718547 0.688914 0
0.117861 0.688853 0
0.156435 0.688777 0
0.191501 0.688701 0
0.224506 0.688609 0
0.256168 0.688518 0
0.286854 0.688396 0
0.316823 0.688273 0
0.346227 0.688136 0
0.375189 0.687984 0
0.403754 0.687816 0
0.432013 0.687648 0
0.460014 0.687465 0
0.487755 0.687251 0
0.515297 0.687037 0
0.542657 0.686809 0
0.569848 0.686564 0
0.596887 0.68632 0
0.623774 0.686046 0
0.650553 0.685756 0
0.677195 0.685466 0
0.703746 0.685145 0
0.730175 0.684825 0
0.756527 0.684474 0
0.782773 0.684123 0
0.808942 0.683742 0
0.835019 0.68336 0
0.861021 0.682963 0
0.886946 0.682536 0
0.91281 0.682109 0
0 0.713481 0
0 0.713436 0
0 0.71339 0
0.0639353 0.713344 0
0.11284 0.713283 0
0.152682 0.713222 0
0.188479 0.713146 0
0.221988 0.713054 0
0.254002 0.712963 0
0.284962 0.712856 0
0.315145 0.712734 0
0.344717 0.712596 0
0.373816 0.712459 0
0.402502 0.712306 0
0.430869 0.712139 0
0.458946 0.711955 0
0.486763 0.711757 0
0.514382 0.711559 0
0.541787 0.711345 0
0.569039 0.711101 0
0.596124 0.710857 0
0.623056 0.710597 0
0.649866 0.710338 0
0.676555 0.710048 0
0.70312 0.709743 0
0.729595 0.709438 0
0.755962 0.709102 0
0.782238 0.708766 0
0.808423 0.708415 0
0.834516 0.708034 0
0.860548 0.707652 0
0.886503 0.707256 0
0.912367 0.706844 0
0 0.73785 0
0 0.737804 0
0 0.737758 0
0.0548104 0.737713 0
0.107378 0.737652 0
0.148669 0.737591 0
0.18529 0.73753 0
0.219318 0.737438 0
0.251713 0.737346 0
