a6000 rec709_2.C0006.cube
TITLE "Generate by Resolve"
LUT_3D_SIZE 33
0 0 0
0.025742 0 0.000106813
0.0514839 0 0.000198367
0.0774548 0 0.00030518
0.10631 0 0.000411994
0.134951 0 0.000564584
0.163592 0 0.000717174
0.192233 0 0.000900282
0.220874 0 0.00111391
0.249516 0 0.00135805
0.278172 0 0.00161746
0.306813 0 0.00189212
0.335454 0 0.00221256
0.364096 0 0.00254826
0.392737 0 0.00289921
0.421378 0 0.00329595
0.450034 0 0.00370794
0.478676 0 0.00415045
0.507317 0 0.00462348
0.535958 0 0.00512703
0.564599 0 0.0056611
0.59324 0 0.00621042
0.621897 0 0.00680552
0.650538 0 0.00741588
0.679179 0 0.00805676
0.70782 0 0.00872816
0.736461 0 0.00943008
0.765103 0 0.0101778
0.793759 0 0.0109407
0.8224 0 0.0117342
0.851041 0 0.0125582
0.879683 0 0.0134127
0.908324 0 0.0142977
0 0.0221256 0
0.0251774 0.0218204 0
0.0509194 0.0215305 0
0.0768902 0.0212253 0
0.105821 0.0208591 6.10361e-05
0.134539 0.0204318 0.000213626
0.163241 0.0199435 0.000366217
0.191913 0.019379 0.000549325
0.2206 0.0187381 0.000762951
0.249271 0.0180362 0.0010071
0.277943 0.0172427 0.0012665
0.3066 0.0163729 0.00154116
0.335256 0.0154421 0.0018616
0.363912 0.0144198 0.0021973
0.392569 0.0133211 0.00254826
0.421225 0.0121462 0.00294499
0.449882 0.0108797 0.00335698
0.478538 0.00953689 0.0037995
0.507195 0.00810254 0.00427253
0.535836 0.0065919 0.00477607
0.564492 0.0049897 0.00531014
0.593133 0.00329595 0.00585946
0.62179 0.0015259 0.00645457
0.650431 0 0.00706493
0.679088 0 0.00770581
0.707729 0 0.0083772
0.736385 0 0.00907912
0.765026 0 0.00982681
0.793667 0 0.0105898
0.822324 0 0.0113832
0.850965 0 0.0122072
0.879606 0 0.0130617
0.908263 0 0.0139467
0 0.0442664 0
0.0246128 0.0439612 0
0.05037 0.0436561 0
0.0763256 0.0433509 0
0.105333 0.0429999 0
0.134127 0.0425727 0
0.162875 0.0420844 1.5259e-05
0.191608 0.0415198 0.000198367
0.220325 0.0408789 0.000411994
0.249012 0.0401617 0.000656138
0.277714 0.0393835 0.000915541
0.306386 0.0385138 0.0011902
0.335073 0.037583 0.00151064
0.363745 0.0365606 0.00184634
0.392416 0.035462 0.0021973
0.421073 0.0342718 0.00259403
0.449744 0.0330205 0.00300603
0.478401 0.0316625 0.00344854
0.507057 0.0302434 0.00392157
0.535714 0.0287175 0.00442512
0.56437 0.0271305 0.00495918
0.593027 0.0254368 0.00550851
0.621683 0.0236667 0.00610361
0.650339 0.0218051 0.00671397
0.678996 0.019852 0.00735485
0.707637 0.0178073 0.00802625
0.736294 0.015671 0.00872816
0.76495 0.0134432 0.00947585
0.793591 0.0111391 0.0102388
0.822248 0.00872816 0.0110323
0.850889 0.00622568 0.0118563
0.879545 0.00363165 0.0127108
0.908186 0.0009308 0.0135958
0 0.0665904 0
0.0240482 0.0662852 0
0.0497902 0.06598 0
0.075761 0.0656748 0
0.104845 0.0653239 0
0.133715 0.0648966 0
0.162509 0.0644083 0
0.191287 0.0638437 0
0.220035 0.0632029 6.10361e-05
0.248768 0.0624857 0.000289921
0.27747 0.0617075 0.000549325
0.306172 0.0608377 0.000839246
0.334874 0.0599069 0.00114443
0.363561 0.0588846 0.00148013
0.392248 0.0577859 0.00184634
0.42092 0.0565957 0.00224308
0.449592 0.0553445 0.00265507
0.478264 0.0539864 0.00309758
0.506935 0.0525673 0.00357061
0.535592 0.0510567 0.00407416
0.564263 0.0494545 0.00459297
0.59292 0.0477607 0.00515755
0.621576 0.0459907 0.00573739
0.650233 0.0441291 0.00636301
0.678889 0.0421759 0.00700389
0.707546 0.0401312 0.00767529
0.736202 0.037995 0.0083772
0.764858 0.0357671 0.00910964
0.793515 0.033463 0.00987259
0.822171 0.0310521 0.0106813
0.850813 0.0285496 0.0115053
0.879469 0.0259556 0.0123598
0.908125 0.0232548 0.0132448
0 0.0927901 0
0.0233768 0.0925154 0
0.0491188 0.0922408 0
0.0750896 0.0919509 0
0.104265 0.0916152 0
0.133211 0.0912184 0
0.162081 0.0907607 0
0.190906 0.0902266 0
0.219699 0.0896162 0
0.248463 0.0889448 0
0.277195 0.0881971 0.000137331
0.305928 0.0873732 0.000427253
0.334646 0.0864576 0.000732433
0.363348 0.0854658 0.00106813
0.39205 0.0843977 0.00143435
0.420737 0.083238 0.00181582
0.449424 0.0819867 0.00224308
0.478096 0.0803845 0.00268559
0.506783 0.0789654 0.00315862
0.535454 0.0774395 0.00364691
0.564126 0.0758526 0.00418097
0.592782 0.0741588 0.00474556
0.621454 0.0723888 0.0053254
0.650126 0.0705272 0.00593576
0.678782 0.068574 0.00657664
0.707439 0.0665293 0.00726329
0.736095 0.0643931 0.00796521
0.764767 0.0621653 0.00869764
0.793423 0.0598611 0.00946059
0.82208 0.0574502 0.0102541
0.850736 0.0549477 0.0110781
0.879377 0.0523537 0.0119326
0.908034 0.0496529 0.0128328
0 0.119554 0
0.0225681 0.11931 0
0.0483253 0.119081 0
0.0742962 0.118837 0
0.103578 0.118547 0
0.132631 0.118212 0
0.161578 0.117815 0
0.190463 0.117357 0
0.219303 0.116854 0
0.248096 0.116274 0
0.276875 0.115648 0
0.305638 0.114946 0
0.334371 0.114183 0.000228885
0.363088 0.113344 0.000564584
0.391806 0.112444 0.0009308
0.420523 0.111467 0.00132753
0.44921 0.110414 0.00173953
0.477913 0.1093 0.00218204
0.5066 0.108095 0.00265507
0.535271 0.106813 0.00315862
0.563958 0.10544 0.00367742
0.59263 0.10399 0.00424201
0.621302 0.102434 0.00482185
0.649973 0.100801 0.00544747
0.678645 0.0990616 0.00608835
0.707317 0.0972305 0.00675975
0.735973 0.0952926 0.00746166
0.764645 0.0932479 0.00819409
0.793301 0.0910964 0.00895705
0.821958 0.0888228 0.00976577
0.850629 0.0864118 0.0105898
0.879286 0.0838941 0.0114443
0.907942 0.0809644 0.0123293
0 0.146319 0
0.0216526 0.146105 0
0.0473945 0.145892 0
0.0733654 0.145693 0
0.10277 0.145434 0
0.131945 0.145144 0
0.160983 0.144808 0
0.189944 0.144411 0
0.218845 0.143969 0
0.247684 0.143481 0
0.276493 0.142931 0
0.305287 0.142321 0
0.334051 0.141665 0
0.362799 0.140948 0
0.391531 0.140169 0.000350958
0.420264 0.13933 0.000747692
0.448981 0.13843 0.00115969
0.477684 0.137469 0.0016022
0.506386 0.136431 0.00207523
0.535073 0.135332 0.00257877
0.563775 0.134173 0.00311284
0.592462 0.132937 0.00366217
0.621134 0.131624 0.00425727
0.649821 0.130236 0.00486763
0.678492 0.128771 0.00550851
0.707164 0.12723 0.0061799
0.735836 0.125612 0.00688182
0.764508 0.123903 0.00762951
0.793179 0.122103 0.00839246
0.821836 0.120211 0.00918593
0.850507 0.118227 0.0100099
0.879164 0.116152 0.0108644
0.90782 0.11397 0.0117494
0 0.173068 0
0.0205844 0.172885 0
0.0463417 0.172702 0
0.0723125 0.172519 0
0.101839 0.172305 0
0.131167 0.172045 0
0.160311 0.17174 0
0.189349 0.171405 0
0.218311 0.171008 0
0.247211 0.170581 0
0.276066 0.170092 0
0.304891 0.169558 0
0.333684 0.168978 0
0.362463 0.168353 0
0.391226 0.167681 0
0.419974 0.166949 9.15541e-05
0.448707 0.166155 0.000503548
0.477424 0.165316 0.000946059
0.506142 0.164416 0.00141909
0.534844 0.163455 0.00192264
0.563546 0.162448 0.00244144
0.592248 0.161364 0.00300603
0.620935 0.160235 0.00358587
0.649622 0.15903 0.00421149
0.678309 0.157763 0.00485237
0.706996 0.156435 0.00552377
0.735668 0.155032 0.00622568
0.764355 0.153567 0.00695811
0.793027 0.152026 0.00772107
0.821698 0.150408 0.00852979
0.85037 0.148714 0.00935378
0.879026 0.146944 0.0102083
0.907698 0.145098 0.0110933
0 0.199832 0
0.0193942 0.199664 0
0.0451514 0.199496 0
0.0711223 0.199344 0
0.100801 0.199145 0
0.130266 0.198917 0
0.159548 0.198642 0
0.188678 0.198337 0
0.2177 0.198001 0
0.246662 0.197604 0
0.275578 0.197177 0
0.304448 0.196704 0
0.333272 0.196201 0
0.362081 0.195636 0
0.390875 0.195026 0
0.419638 0.194385 0
0.448402 0.193683 0
0.477134 0.192935 0.000198367
0.505867 0.192142 0.000671397
0.5346 0.191287 0.00117494
0.563317 0.190402 0.00170901
0.59202 0.189441 0.00225834
0.620722 0.188449 0.00285344
0.649424 0.187381 0.0034638
0.678111 0.186282 0.00410468
0.706798 0.185107 0.00477607
0.735485 0.183871 0.00547799
0.764172 0.182589 0.00622568
0.792859 0.181247 0.00698863
0.82153 0.179828 0.0077821
0.850202 0.178363 0.00860609
0.878874 0.176822 0.00946059
0.907546 0.175204 0.0103456
0 0.226581 0
0.0180667 0.226444 0
0.0438087 0.226291 0
0.0697795 0.226154 0
0.0996109 0.225971 0
0.129274 0.225772 0
0.158679 0.225528 0
0.187915 0.225254 0
0.217044 0.224933 0
0.246067 0.224582 0
0.275029 0.224201 0
0.303944 0.223774 0
0.332815 0.223316 0
0.361669 0.222812 0
0.390478 0.222278 0
0.419272 0.221683 0
0.448051 0.221057 0
0.476814 0.220401 0
0.505562 0.219684 0
0.53431 0.218921 0.000350958
0.563043 0.218128 0.000869764
0.59176 0.217273 0.00143435
0.620478 0.216373 0.00201419
0.64918 0.215442 0.00263981
0.677897 0.21445 0.00328069
0.706584 0.213397 0.00395209
0.735286 0.212314 0.004654
0.763973 0.21117 0.00538643
0.79266 0.209964 0.00614939
0.821347 0.208713 0.00694286
0.850034 0.207416 0.0077821
0.878706 0.206043 0.00863661
0.907393 0.204623 0.00952163
0 0.253346 0
0.0165866 0.253208 0
0.0423438 0.253086 0
0.0683146 0.252949 0
0.0982986 0.252781 0
0.128161 0.252598 0
0.157733 0.252384 0
0.187076 0.252125 0
0.216297 0.25185 0
0.245396 0.25153 0
0.274434 0.251179 0
0.303395 0.250797 0
0.332311 0.250385 0
0.361196 0.249928 0
0.390051 0.249439 0
0.418875 0.248905 0
0.447669 0.248341 0
0.476463 0.24773 0
0.505226 0.247089 0
0.533989 0.246403 0
0.562737 0.245686 0
0.59147 0.244923 0.000518807
0.620203 0.244114 0.00109865
0.64892 0.243259 0.00170901
0.677638 0.242359 0.00236515
0.706355 0.241428 0.00303655
0.735058 0.240436 0.00373846
0.76376 0.239414 0.00447089
0.792462 0.238331 0.00523384
0.821149 0.237217 0.00602731
0.849836 0.236042 0.0068513
0.878523 0.234821 0.00772107
0.90721 0.233539 0.00860609
0 0.28011 0
0.0149691 0.279988 0
0.0407263 0.279866 0
0.0666972 0.279744 0
0.096849 0.279591 0
0.12694 0.279423 0
0.15668 0.279225 0
0.18616 0.278996 0
0.215473 0.278737 0
0.244663 0.278447 0
0.273762 0.278126 0
0.302785 0.277775 0
0.331762 0.277394 0
0.360678 0.276982 0
0.389563 0.276539 0
0.418418 0.276051 0
0.447257 0.275532 0
0.476066 0.274983 0
0.50486 0.274388 0
0.533639 0.273777 0
0.562402 0.273106 0
0.591165 0.272419 0
0.619913 0.271672 9.15541e-05
0.648646 0.270909 0.000701915
0.677378 0.270085 0.00135805
0.706096 0.26923 0.00202945
0.734813 0.268345 0.00273136
0.763516 0.267414 0.0034638
0.792233 0.266438 0.00422675
0.82092 0.265415 0.00502022
0.849622 0.264347 0.00584421
0.878325 0.263249 0.00671397
0.907012 0.262104 0.00759899
0 0.306859 0
0.0132143 0.306752 0
0.0389563 0.306645 0
0.0649271 0.306523 0
0.0952468 0.306401 0
0.125597 0.306233 0
0.15552 0.30605 0
0.185153 0.305837 0
0.214572 0.305608 0
0.24387 0.305333 0
0.27303 0.305043 0
0.302129 0.304723 0
0.331151 0.304372 0
0.360113 0.30399 0
0.389044 0.303578 0
0.417945 0.303136 0
0.446799 0.302663 0
0.475639 0.302159 0
0.504463 0.30161 0
0.533257 0.301045 0
0.562051 0.300435 0
0.590814 0.299794 0
0.619577 0.299123 0
0.648325 0.298421 0
0.677073 0.297673 0.000259403
0.705806 0.296895 0.0009308
0.734539 0.296071 0.00163272
0.763256 0.295216 0.00236515
0.791974 0.294331 0.0031281
0.820691 0.2934 0.00392157
0.849393 0.292424 0.00474556
0.878096 0.291417 0.00561532
0.906798 0.290364 0.00650034
0 0.333623 0
0.0113069 0.333516 0
0.0370489 0.33341 0
0.0630198 0.333318 0
0.093492 0.333196 0
0.124132 0.333043 0
0.154269 0.332876 0
0.184054 0.332677 0
0.213611 0.332464 0
0.242985 0.332219 0
0.272251 0.331945 0
0.301396 0.33164 0
0.33048 0.331319 0
0.359503 0.330968 0
0.388479 0.330587 0
0.417411 0.330175 0
0.446311 0.329732 0
0.475181 0.329274 0
0.504021 0.328771 0
0.532845 0.328252 0
0.561654 0.327688 0
0.590448 0.327092 0
0.619226 0.326482 0
0.64799 0.325826 0
0.676753 0.325139 0
0.705501 0.324422 0
0.734249 0.323659 0.000442512
0.762982 0.322881 0.00117494
0.791699 0.322057 0.0019379
0.820432 0.321202 0.00273136
0.849149 0.320302 0.00355535
0.877852 0.319387 0.00442512
0.906554 0.31841 0.00531014
0 0.360388 0
0.00924697 0.360281 0
0.0349889 0.360189 0
0.0609598 0.360098 0
0.0915694 0.359976 0
0.12253 0.359838 0
0.152895 0.359686 0
0.182864 0.359503 0
0.212558 0.359304 0
0.242039 0.359075 0
0.271397 0.358816 0
0.300618 0.358541 0
0.329778 0.358236 0
0.358846 0.357916 0
0.387869 0.357565 0
0.416846 0.357183 0
0.445777 0.356771 0
0.474678 0.356344 0
0.503548 0.355886 0
0.532403 0.355398 0
0.561227 0.354879 0
0.590051 0.35433 0
0.618845 0.35375 0
0.647639 0.35314 0
0.676402 0.352514 0
0.705165 0.351843 0
0.733928 0.351141 0
0.762676 0.350423 0
0.791409 0.34966 0.000656138
0.820142 0.348867 0.00144961
0.848875 0.348043 0.00227359
0.877592 0.347189 0.00314336
0.90631 0.346288 0.00402838
0 0.387137 0
0.00703441 0.387045 0
0.0327764 0.386969 0
0.0587472 0.386877 0
0.0894942 0.38677 0
0.120806 0.386633 0
0.151415 0.386496 0
0.181567 0.386328 0
0.211414 0.38613 0
0.241032 0.385916 0
0.270466 0.385687 0
0.299794 0.385428 0
0.329 0.385138 0
0.358144 0.384833 0
0.387213 0.384512 0
0.41622 0.384161 0
0.445197 0.38378 0
0.474144 0.383368 0
0.503044 0.38294 0
0.531929 0.382483 0
0.560784 0.38201 0
0.589624 0.381491 0
0.618433 0.380957 0
0.647242 0.380392 0
0.676036 0.379797 0
0.704814 0.379187 0
0.733577 0.378531 0
0.762341 0.377859 0
0.791104 0.377142 0
0.819837 0.37641 7.62951e-05
0.848585 0.375647 0.000900282
0.877317 0.374853 0.00175479
0.906035 0.374029 0.00263981
0 0.413901 0
0.00466926 0.413809 0
0.0304112 0.413733 0
0.0563821 0.413642 0
0.0872358 0.41355 0
0.118944 0.413428 0
0.149828 0.413291 0
0.180194 0.413138 0
0.210193 0.412955 0
0.239933 0.412757 0
0.26949 0.412543 0
0.298894 0.412299 0
0.328176 0.412024 0
0.357382 0.411749 0
0.386496 0.411444 0
0.415564 0.411109 0
0.444587 0.410758 0
0.473564 0.410376 0
0.502495 0.409964 0
0.531411 0.409537 0
0.560296 0.409094 0
0.589151 0.408621 0
0.618006 0.408118 0
0.64683 0.407584 0
0.675639 0.407034 0
0.704433 0.406455 0
0.733227 0.405844 0
0.76199 0.405219 0
0.790768 0.404562 0
0.819516 0.403861 0
0.848264 0.403159 0
0.877012 0.402411 0.000289921
0.905745 0.401633 0.00117494
0 0.440665 0
0.00215152 0.440574 0
0.0278935 0.440497 0
0.0538643 0.440421 0
0.0847791 0.44033 0
0.11693 0.440223 0
0.148119 0.440085 0
0.178714 0.439933 0
0.208881 0.439765 0
0.238758 0.439582 0
0.268437 0.439384 0
0.297932 0.439155 0
0.327291 0.438911 0
0.356573 0.438636 0
0.385748 0.438346 0
0.414862 0.438041 0
0.443931 0.437705 0
0.472953 0.437339 0
0.501915 0.436973 0
0.530861 0.436561 0
0.559777 0.436149 0
0.588663 0.435691 0
0.617533 0.435233 0
0.646387 0.43473 0
0.675212 0.434211 0
0.704021 0.433661 0
0.73283 0.433097 0
0.761624 0.432502 0
0.790402 0.431891 0
0.819181 0.43125 0
0.847929 0.430579 0
0.876692 0.429877 0
0.90544 0.42916 0
0 0.467414 0
0 0.467338 0
0.0252232 0.467262 0
0.0511788 0.467201 0
0.0821393 0.467109 0
0.114763 0.467002 0
0.146288 0.46688 0
0.177127 0.466743 0
0.207492 0.466575 0
0.237522 0.466407 0
0.267308 0.466209 0
0.29691 0.465995 0
0.32636 0.465766 0
0.355703 0.465507 0
0.384955 0.465232 0
0.414115 0.464942 0
0.443229 0.464637 0
0.472297 0.464302 0
0.501305 0.463935 0
0.530282 0.463569 0
0.559228 0.463157 0
0.588144 0.462745 0
0.617029 0.462303 0
0.645914 0.46183 0
0.674754 0.461341 0
0.703593 0.460838 0
0.732418 0.460304 0
0.761227 0.459739 0
0.790021 0.459159 0
0.818799 0.458549 0
0.847578 0.457923 0
0.876356 0.457267 0
0.905104 0.45658 0
0 0.494179 0
0 0.494102 0
0.022385 0.494041 0
0.0483406 0.493965 0
0.079057 0.493889 0
0.112444 0.493782 0
0.14432 0.49366 0
0.175433 0.493538 0
0.205997 0.493385 0
0.236194 0.493217 0
0.266102 0.493034 0
0.295811 0.492836 0
0.325368 0.492607 0
0.354788 0.492378 0
0.3841 0.492119 0
0.413336 0.491844 0
0.442496 0.491539 0
0.471595 0.491234 0
0.500648 0.490898 0
0.529671 0.490532 0
0.558648 0.490166 0
0.587594 0.489754 0
0.61651 0.489342 0
0.645411 0.488899 0
0.674281 0.488441 0
0.703136 0.487953 0
0.731975 0.487449 0
0.7608 0.486931 0
0.789624 0.486381 0
0.818418 0.485801 0
0.847211 0.485206 0
0.87599 0.484596 0
0.904768 0.483955 0
0 0.520943 0
0 0.520867 0
0.019379 0.520806 0
0.0453498 0.520729 0
0.076051 0.520653 0
0.109941 0.520562 0
0.142229 0.520455 0
0.173617 0.520333 0
0.20441 0.52018 0
0.234775 0.520027 0
0.264836 0.51986 0
0.294667 0.519661 0
0.3243 0.519448 0
0.353811 0.519234 0
0.3832 0.51899 0
0.412497 0.518715 0
0.441703 0.518441 0
0.470863 0.518135 0
0.499962 0.51783 0
0.529015 0.517479 0
0.558022 0.517128 0
0.586999 0.516747 0
0.615946 0.51635 0
0.644877 0.515938 0
0.673777 0.515511 0
0.702647 0.515053 0
0.731517 0.514565 0
0.760357 0.514076 0
0.789181 0.513558 0
0.818006 0.513008 0
0.846815 0.512444 0
0.875608 0.511864 0
0.904387 0.511254 0
0 0.547692 0
0 0.547631 0
0.0162203 0.54757 0
0.0421912 0.547509 0
0.0728923 0.547433 0
0.107286 0.547341 0
0.140002 0.547234 0
0.17171 0.547112 0
0.202731 0.54699 0
0.23328 0.546838 0
0.263493 0.54667 0
0.293446 0.546487 0
0.323186 0.546288 0
0.352773 0.546075 0
0.382239 0.545846 0
0.411612 0.545586 0
0.440879 0.545327 0
0.470085 0.545037 0
0.499229 0.544747 0
0.528328 0.544427 0
0.557366 0.544076 0
0.586389 0.543725 0
0.615366 0.543343 0
0.644312 0.542947 0
0.673243 0.542535 0
0.702144 0.542107 0
0.731029 0.54165 0
0.759884 0.541176 0
0.788739 0.540688 0
0.817578 0.540169 0
0.846387 0.539635 0
0.875212 0.539086 0
0.904005 0.538506 0
0 0.574456 0
0 0.574395 0
0.0128939 0.574334 0
0.0388647 0.574273 0
0.0695659 0.574197 0
0.104433 0.574121 0
0.137636 0.574014 0
0.169665 0.573907 0
0.200946 0.57377 0
0.231708 0.573632 0
0.262074 0.57348 0
0.292149 0.573297 0
0.322011 0.573114 0
0.35169 0.572915 0
0.381247 0.572686 0
0.410666 0.572457 0
0.440009 0.572198 0
0.469276 0.571923 0
0.498466 0.571649 0
0.527596 0.571344 0
0.55668 0.571023 0
0.585733 0.570672 0
0.61474 0.570321 0
0.643717 0.56994 0
0.672679 0.569543 0
0.70161 0.569131 0
0.73051 0.568704 0
0.759396 0.568261 0
0.788266 0.567788 0
0.817121 0.5673 0
0.84596 0.566796 0
0.874784 0.566262 0
0.903593 0.565728 0
0 0.601205 0
0 0.60116 0
0.00939956 0.601099 0
0.0353704 0.601038 0
0.0660716 0.600977 0
0.101396 0.600885 0
0.135103 0.600793 0
0.167514 0.600687 0
0.199069 0.600565 0
0.23003 0.600427 0
0.260578 0.600275 0
0.290791 0.600122 0
0.320775 0.599939 0
0.350561 0.599741 0
0.380179 0.599527 0
0.409689 0.599298 0
0.439094 0.599069 0
0.468406 0.59881 0
0.497658 0.598535 0
0.526833 0.598245 0
0.555962 0.59794 0
0.585046 0.597604 0
0.614099 0.597269 0
0.643107 0.596918 0
0.672084 0.596536 0
0.701045 0.596139 0
0.729961 0.595743 0
0.758877 0.5953 0
0.787762 0.594858 0
0.816632 0.5944 0
0.845487 0.593912 0
0.874342 0.593408 0
0.903166 0.592889 0
0 0.62797 0
0 0.627924 0
0.00573739 0.627863 0
0.0317082 0.627802 0
0.0624247 0.627741 0
0.098146 0.627665 0
0.132433 0.627573 0
0.165225 0.627466 0
0.19707 0.627359 0
0.228275 0.627222 0
0.258991 0.627085 0
0.289357 0.626917 0
0.319463 0.626749 0
0.349355 0.626566 0
0.37908 0.626368 0
0.408652 0.626154 0
0.438132 0.625925 0
0.467506 0.625681 0
0.496803 0.625406 0
0.52604 0.625132 0
0.555215 0.624842 0
0.584329 0.624537 0
0.613413 0.624201 0
0.642451 0.623865 0
0.671458 0.623514 0
0.70045 0.623133 0
0.729397 0.622736 0
0.758328 0.622339 0
0.787243 0.621912 0
0.816129 0.621469 0
0.845014 0.620996 0
0.873869 0.620523 0
0.902724 0.620035 0
0 0.654734 0
0 0.654673 0
0.00192264 0.654627 0
0.0278935 0.654566 0
0.0585946 0.654505 0
0.094667 0.654429 0
0.12958 0.654353 0
0.162814 0.654246 0
0.19498 0.654139 0
0.226413 0.654017 0
0.257328 0.65388 0
0.287861 0.653727 0
0.31809 0.653559 0
0.348089 0.653391 0
0.377905 0.653193 0
0.407568 0.652995 0
0.437125 0.652766 0
0.46656 0.652537 0
0.495918 0.652277 0
0.5252 0.652018 0
0.554421 0.651743 0
0.583581 0.651438 0
0.612696 0.651133 0
0.641779 0.650797 0
0.670817 0.650462 0
0.699825 0.650095 0
0.728801 0.649729 0
0.757763 0.649332 0
0.786694 0.648936 0
0.81561 0.648508 0
0.844511 0.648066 0
0.873381 0.647608 0
0.902251 0.647135 0
0 0.681483 0
0 0.681437 0
0 0.681392 0
0.0238956 0.681331 0
0.0545968 0.681285 0
0.090959 0.681208 0
0.126574 0.681117 0
0.160266 0.681025 0
0.192767 0.680919 0
0.22446 0.680812 0
0.255589 0.680674 0
0.28629 0.680522 0
0.316655 0.680369 0
0.346777 0.680201 0
0.376684 0.680018 0
0.406439 0.67982 0
0.436057 0.679606 0
0.465568 0.679377 0
0.494987 0.679149 0
0.524315 0.678889 0
0.553582 0.678614 0
0.582788 0.67834 0
0.611948 0.678035 0
0.641062 0.677729 0
0.67013 0.677394 0
0.699168 0.677058 0
0.728191 0.676692 0
0.757168 0.676326 0
0.78613 0.675929 0
0.815061 0.675532 0
0.843976 0.675105 0
0.872877 0.674662 0
0.901747 0.67422 0
0 0.708247 0
0 0.708202 0
0 0.708156 0
0.0197299 0.70811 0
0.0504311 0.708049 0
0.0869917 0.707973 0
0.123369 0.707897 0
0.157565 0.707805 0
0.190448 0.707698 0
