a6000 vivid_1.C0006.cube
TITLE "Generate by Resolve"
LUT_3D_SIZE 9
0 0 0
0.0606699 0 0
0.167407 0 0
0.309209 0 0
0.460365 0 0
0.616129 0 0
0.770153 0 0
0.918181 0 0
1 0 0
0 0.0475624 0
0.0517586 0.0440986 0
0.158618 0.0298619 0
0.303624 0.00679026 0
0.459632 0 0
0.62327 0 0
0.786862 0 0
0.942901 0 0
1 0 0
0 0.116701 0
0.0261845 0.119921 0
0.145037 0.118273 0
0.303639 0.107485 0
0.471473 0.0943923 0
0.643595 0.0798505 0
0.813565 0.0658427 0
0.975296 0.0530404 0
1 0.0467842 0
0 0.233356 0
0 0.245289 0
0.118502 0.248539 0
0.280446 0.240513 0
0.450919 0.229969 0
0.625132 0.21854 0
0.797116 0.207034 0
0.960876 0.197452 0
1 0.194614 0
0 0.36762 0
0 0.381292 0
0.0881971 0.387625 0
0.252934 0.381506 0
0.425788 0.372686 0
0.601892 0.362676 0
0.77499 0.35317 0
0.940185 0.345373 0
1 0.344427 0
0 0.50779 0
0 0.522606 0
0.0555428 0.532189 0
0.223407 0.527352 0
0.398062 0.519783 0
0.575769 0.510842 0
0.750103 0.502251 0
0.916182 0.495354 0
1 0.495201 0
0 0.650813 0
0 0.666331 0
0.0233005 0.678599 0
0.194217 0.674571 0
0.370977 0.667399 0
0.549249 0.6589 0
0.724437 0.650462 0
0.890501 0.643748 0
1 0.64332 0
0 0.793271 0
0 0.808942 0
0 0.823926 0
0.168353 0.820111 0
0.346395 0.812848 0
0.525917 0.80383 0
0.701091 0.794903 0
0.867262 0.787503 0
1 0.786389 0
0 0.931884 0
0 0.947234 0
0 0.964538 0
0.147539 0.960357 0
0.326955 0.9523 0
0.506493 0.94226 0
0.681407 0.932113 0
0.847013 0.923506 0
0.986999 0.920821 0
0.0138094 0.0170901 0.061738
0.0711681 0.0134279 0.0590677
0.179416 0 0.0435645
0.317525 0 0.021561
0.467445 0 0
0.623835 0 0
0.78027 0 0
0.932815 0 0
1 0 0
0.00483711 0.0610056 0.0532845
0.0637827 0.0590524 0.0522621
0.175814 0.0460212 0.0407721
0.320897 0.0282444 0.0253758
0.48101 0.0119173 0.0122072
0.646723 0 0
0.810971 0 0
0.966796 0 0
1 0 0
0 0.136843 0.0222019
0.0422675 0.145251 0.0316777
0.164858 0.142885 0.0311589
0.319234 0.133135 0.0243839
0.48455 0.120806 0.0158236
0.654734 0.107149 0.00753796
0.823407 0.0939651 0.000747692
0.984482 0.0819715 0
1 0.0774548 0.00122072
0 0.256855 0
0.0166476 0.268818 0.00723278
0.140642 0.268971 0.00885023
0.297459 0.261418 0.0034638
0.465003 0.25124 0
0.63711 0.239933 0
0.807172 0.229053 0
0.969909 0.220279 0
1 0.218311 0
0 0.388968 0
0 0.402747 0
0.111376 0.405417 0
0.271092 0.39939 0
0.440726 0.390875 0
0.614557 0.381125 0
0.786236 0.371786 0
0.949493 0.364462 0
1 0.364294 0
0 0.527596 0
0 0.542763 0
0.0801556 0.548028 0
0.242573 0.543191 0
0.413825 0.535698 0
0.589029 0.526879 0
0.7617 0.51838 0
0.926131 0.51162 0
1 0.512001 0
0 0.669291 0
0 0.685267 0
0.0491646 0.69279 0
0.21416 0.688518 0
0.387045 0.681437 0
0.56289 0.672908 0
0.73608 0.664469 0
0.900923 0.657938 0
1 0.658 0
0 0.810575 0
0 0.826596 0
0.0208438 0.836637 0
0.188815 0.832319 0
0.363012 0.824903 0
0.539818 0.815854 0
0.712596 0.807034 0
0.876936 0.799573 0
1 0.79855 0
0 0.947768 0
0 0.963134 0
0 0.975647 0
0.168582 0.970733 0
0.343954 0.962448 0
0.520699 0.952407 0
0.693797 0.942275 0
0.857084 0.933776 0
0.994171 0.931289 0
0.0314336 0.0394293 0.180163
0.0901656 0.0348363 0.176486
0.200748 0.0191043 0.162173
0.337179 0.000167849 0.14583
0.490364 0 0.131029
0.650813 0 0.117708
0.810269 0 0.105882
0.962554 0 0.0966049
1 0 0.0958724
0.0215 0.0848859 0.170733
0.0857404 0.0859236 0.172961
0.20499 0.078233 0.167163
0.349996 0.0671244 0.158892
0.508995 0.0540475 0.149615
0.673335 0.0394141 0.139986
0.836439 0.0251926 0.13164
0.992142 0.011902 0.125658
1 0.00656138 0.128679
0 0.173877 0.148806
0.0683757 0.180819 0.156664
0.190509 0.175998 0.153597
0.338231 0.167163 0.147677
0.499428 0.155673 0.140185
0.666545 0.143252 0.132769
0.83241 0.131136 0.126925
0.991455 0.120333 0.124071
1 0.117784 0.130541
0 0.289647 0.124346
0.0446479 0.298482 0.134112
0.168399 0.295186 0.132433
0.31841 0.288197 0.127947
0.481117 0.278584 0.121798
0.649439 0.268009 0.115343
0.816785 0.25774 0.110399
0.977432 0.2495 0.108644
1 0.248936 0.115541
0 0.417868 0.0957809
0.0162509 0.428748 0.107347
0.141344 0.427329 0.107225
0.293477 0.421561 0.103609
0.457923 0.413275 0.0983444
0.627909 0.403891 0.0928359
0.796658 0.394858 0.0886244
0.957702 0.388144 0.0872663
1 0.388754 0.0943008
0 0.554253 0.0660563
0 0.566659 0.0791943
0.11249 0.56701 0.0807813
0.266407 0.562005 0.0775006
0.432746 0.554437 0.0724346
0.6038 0.545739 0.067155
0.772992 0.537423 0.0629587
0.934508 0.530877 0.0612192
1 0.532128 0.0684215
0 0.693843 0.0371252
0 0.707851 0.0517891
0.0836805 0.709697 0.0547341
0.239872 0.704997 0.0517433
0.407172 0.697673 0.0467842
0.579004 0.689006 0.0411688
0.748516 0.680629 0.0363775
0.910063 0.673884 0.0337224
1 0.674418 0.0394141
0 0.833173 0.0125124
0 0.848066 0.0280003
0.0574502 0.851408 0.0323186
0.21593 0.846464 0.0289311
0.384344 0.838743 0.023331
0.556466 0.829557 0.0166323
0.725719 0.820523 0.0105745
0.886976 0.812924 0.00697337
1 0.81239 0.0111543
0 0.968246 0
0 0.983581 0.0105745
0.0365454 0.988174 0.0160372
0.197238 0.98262 0.0116274
0.366461 0.973953 0.00466926
0.538888 0.963623 0
0.708171 0.953262 0
0.868421 0.944457 0
1 0.942397 0
0.0640574 0.0817578 0.340978
0.137667 0.0786908 0.339025
0.246586 0.0713207 0.333516
0.382666 0.0611582 0.326162
0.53434 0.0484779 0.317006
0.69366 0.0345922 0.307774
0.852049 0.0207065 0.299046
1 0.00831617 0.293355
1 0.00421149 0.297124
0.0542458 0.140642 0.331868
0.129137 0.139132 0.331472
0.239765 0.133104 0.327321
0.377081 0.124102 0.320928
0.530571 0.112398 0.313313
0.691859 0.0997635 0.30602
0.852659 0.0871595 0.299535
1 0.0762951 0.296437
1 0.0739147 0.30309
0.0381323 0.225452 0.316716
0.113481 0.225086 0.317311
0.225284 0.220066 0.313924
0.364233 0.212329 0.308705
0.519173 0.201968 0.301869
0.681086 0.190799 0.295201
0.843366 0.18027 0.289998
0.9991 0.171084 0.287419
1 0.171237 0.295079
0.0156863 0.33344 0.296101
0.0917983 0.334554 0.298054
0.205539 0.330571 0.295491
0.345785 0.323751 0.290852
0.5019 0.315221 0.285008
0.665064 0.30544 0.279118
0.828367 0.296025 0.274571
0.985321 0.288701 0.273091
1 0.290181 0.280919
0 0.456779 0.271458
0.0650492 0.459342 0.274769
0.180331 0.45597 0.272618
0.322576 0.450416 0.268971
0.479988 0.442466 0.263676
0.644892 0.433875 0.258503
0.808774 0.425513 0.254368
0.96582 0.418997 0.252537
1 0.42118 0.26067
0 0.589136 0.246098
0.0358434 0.592981 0.250477
0.153582 0.59057 0.248951
0.29688 0.585351 0.245335
0.455833 0.578271 0.24036
0.621256 0.569802 0.234775
0.785657 0.561791 0.230472
0.943252 0.555444 0.228565
1 0.558175 0.236103
0 0.725429 0.221057
0.00703441 0.730892 0.227085
0.12665 0.728771 0.22591
0.272175 0.723888 0.222507
0.431754 0.716426 0.217075
0.597391 0.707897 0.211185
0.76173 0.699733 0.205951
0.919417 0.692988 0.202945
1 0.695048 0.209293
0 0.861524 0.199832
0 0.868757 0.207553
0.102312 0.866377 0.206012
0.249302 0.861158 0.202106
0.409339 0.853239 0.195758
0.575418 0.843931 0.188647
0.739818 0.834867 0.182467
0.896803 0.827314 0.178347
1 0.828061 0.183124
0 0.992203 0.185916
0 1 0.195514
0.0841382 0.998932 0.193622
0.23241 0.992935 0.188602
0.393362 0.983917 0.181064
0.559182 0.973495 0.17258
0.723049 0.963165 0.16463
0.87924 0.95433 0.158465
1 0.953155 0.160525
0.123995 0.156588 0.508156
0.192599 0.152956 0.505577
0.290883 0.147555 0.5019
0.417502 0.138918 0.495628
0.563043 0.128389 0.488884
0.717739 0.116793 0.482185
0.872526 0.105501 0.476646
1 0.0958267 0.474281
1 0.0961929 0.482994
0.114763 0.207401 0.500069
0.184192 0.204456 0.49807
0.282765 0.199252 0.494469
0.410605 0.191516 0.489189
0.556222 0.181598 0.482353
0.711559 0.170901 0.476112
0.867185 0.160525 0.47129
1 0.152056 0.469123
1 0.153567 0.478508
0.100496 0.282353 0.487617
0.170611 0.279911 0.48603
0.270085 0.275395 0.482933
0.398825 0.268452 0.478187
0.545586 0.259358 0.47216
0.701518 0.249836 0.466255
0.858 0.240497 0.461814
1 0.232914 0.460136
1 0.236088 0.469886
0.080293 0.381842 0.470237
0.151293 0.379965 0.469093
0.251972 0.376074 0.466239
0.381781 0.370031 0.461967
0.52961 0.361898 0.456519
0.68629 0.353216 0.451316
0.843656 0.344854 0.447272
0.995468 0.338704 0.44593
1 0.342428 0.455772
0.0552987 0.498711 0.449729
0.127382 0.496925 0.4486
0.229526 0.493904 0.446677
0.360342 0.488121 0.442496
0.509407 0.480873 0.437461
0.666636 0.472587 0.43209
0.82475 0.465156 0.42826
0.976761 0.459251 0.426688
1 0.463432 0.436194
0.0281682 0.625803 0.427863
0.101472 0.624353 0.426978
0.204883 0.621668 0.425254
0.33669 0.61622 0.421149
0.486397 0.609262 0.416007
0.644175 0.601129 0.410559
0.802411 0.593454 0.40618
0.954986 0.587808 0.404227
1 0.591867 0.412833
0.000915541 0.757824 0.406989
0.0756237 0.756802 0.406455
0.180224 0.75378 0.404273
0.31339 0.748547 0.400183
0.463325 0.741054 0.394278
0.621759 0.732891 0.388464
0.77969 0.724849 0.383307
0.931792 0.718303 0.38024
1 0.72166 0.387655
0 0.890517 0.389731
0.0515297 0.889281 0.388922
0.157778 0.886015 0.386419
0.291661 0.880186 0.38172
0.442359 0.872053 0.375158
0.600626 0.862959 0.368109
0.75845 0.853986 0.361517
0.909514 0.846586 0.356939
1 0.848722 0.362615
0 1 0.383825
0.0374151 1 0.383215
0.145083 1 0.379705
0.279561 1 0.373663
0.430686 0.996307 0.36585
0.588098 0.985916 0.356954
0.745327 0.975692 0.348516
0.895354 0.966888 0.341634
1 0.965682 0.343008
0.194919 0.236652 0.675776
0.25388 0.23386 0.673762
0.341314 0.229038 0.670359
0.458808 0.221881 0.665354
0.595483 0.213245 0.659724
0.742611 0.203845 0.654215
0.891524 0.194781 0.649775
1 0.1879 0.648936
1 0.192569 0.660365
0.187427 0.279957 0.669276
0.246677 0.277348 0.667414
0.334356 0.272847 0.663981
0.452186 0.266148 0.659358
0.589349 0.257908 0.653895
0.736767 0.249058 0.648692
0.886213 0.240482 0.644541
1 0.234241 0.643702
1 0.239445 0.655543
0.174929 0.345876 0.658427
0.234668 0.343511 0.656809
0.323598 0.33959 0.654108
0.44181 0.333394 0.649851
0.579477 0.32578 0.644495
0.726955 0.317235 0.639323
0.877195 0.309606 0.635767
1 0.303655 0.634821
1 0.309743 0.646571
0.157687 0.436744 0.643442
0.217639 0.434638 0.641993
0.307042 0.4309 0.639353
0.426001 0.425193 0.63537
0.564614 0.417975 0.630549
0.712902 0.409918 0.625574
0.863035 0.402991 0.62208
1 0.397604 0.621073
1 0.404028 0.63267
0.135897 0.545068 0.625299
0.196948 0.543206 0.624018
0.286687 0.539696 0.6215
0.406409 0.534325 0.617639
0.545617 0.527428 0.612818
0.694102 0.519768 0.607523
0.844816 0.512978 0.604105
0.98996 0.507759 0.60296
1 0.514244 0.61416
0.112078 0.664469 0.60589
0.173526 0.662791 0.604669
0.26424 0.659327 0.601907
0.384527 0.654063 0.597772
0.523919 0.647211 0.592782
0.673228 0.639658 0.58761
0.823713 0.632441 0.583352
0.968795 0.626978 0.581445
1 0.633402 0.592035
0.0878614 0.789822 0.587655
0.150393 0.787991 0.586267
0.241672 0.78439 0.583413
0.362707 0.778805 0.578973
0.502739 0.771466 0.573251
0.651499 0.76321 0.567086
0.802258 0.755627 0.562081
0.946548 0.749599 0.558785
1 0.754864 0.567681
0.0659648 0.916091 0.572702
0.12929 0.914 0.571008
0.221332 0.909972 0.567636
0.342916 0.903777 0.562448
0.482643 0.895582 0.555657
0.631724 0.886473 0.548363
0.78146 0.877699 0.541695
0.92578 0.870771 0.53724
1 0.874769 0.544411
0.0594186 1 0.574899
0.123522 1 0.572686
0.216434 1 0.568643
0.337911 1 0.562173
0.478004 1 0.553979
0.626123 1 0.544869
0.774975 0.990417 0.536126
0.916091 0.979797 0.527108
1 0.976699 0.525917
0.270512 0.321447 0.838254
0.32192 0.318944 0.836469
0.400244 0.315038 0.833783
0.507469 0.308965 0.829618
0.634882 0.301625 0.824887
0.773114 0.293935 0.820218
0.914244 0.286732 0.817243
1 0.282429 0.818021
1 0.29044 0.831601
0.263767 0.35877 0.832395
0.315267 0.356451 0.83061
0.393668 0.352682 0.827893
0.50135 0.346777 0.823804
0.628809 0.339681 0.819211
0.76759 0.332204 0.814954
0.90927 0.325505 0.812284
1 0.321294 0.812512
1 0.329809 0.826673
0.253346 0.417395 0.823453
0.305135 0.415122 0.821805
0.383764 0.4112 0.818967
0.492088 0.40589 0.81532
0.619577 0.3991 0.810636
0.758251 0.391699 0.806073
0.900313 0.385275 0.803357
1 0.381292 0.803845
1 0.390204 0.817624
0.237797 0.498878 0.809842
0.289952 0.497139 0.808682
0.369177 0.493355 0.805875
0.477394 0.487984 0.802029
0.605493 0.481422 0.797574
0.744839 0.474464 0.793347
0.886625 0.468009 0.790051
1 0.464546 0.790433
1 0.473213 0.803861
0.218784 0.598383 0.794049
0.27126 0.596307 0.792508
0.350927 0.592996 0.790066
0.459556 0.587701 0.78613
0.588281 0.58114 0.781445
0.727382 0.574121 0.776852
0.869444 0.567742 0.773404
1 0.563958 0.772885
1 0.572717 0.785855
0.197803 0.709392 0.777142
0.250507 0.707317 0.775509
0.330571 0.703944 0.7729
0.439567 0.698512 0.768643
0.568521 0.691722 0.7635
0.707439 0.68423 0.758144
0.849577 0.677668 0.754208
0.984253 0.673335 0.752651
1 0.681636 0.76466
0.176883 0.826535 0.761288
0.230106 0.824323 0.759441
0.310307 0.820417 0.756191
0.419577 0.814588 0.7514
0.548272 0.80734 0.745586
0.687678 0.799451 0.739544
0.828855 0.791943 0.73434
0.963684 0.786954 0.731731
1 0.794079 0.742092
0.157565 0.945068 0.748318
0.210788 0.942596 0.746181
0.291279 0.938186 0.742336
0.400732 0.931701 0.736736
0.529702 0.923537 0.729809
0.668513 0.914763 0.72256
0.809461 0.906142 0.71577
0.943603 0.899657 0.711498
1 0.904784 0.719402
0.162646 1 0.760647
0.21619 1 0.757961
0.297261 1 0.753613
0.406729 1 0.746822
0.535012 1 0.73843
0.671611 1 0.727932
0.80885 1 0.716594
0.935256 0.989395 0.703471
1 0.985199 0.700923
0.350179 0.410132 0.988922
0.395087 0.407889 0.987305
0.465339 0.404318 0.984771
0.562493 0.399084 0.980896
0.679515 0.39292 0.976822
0.80824 0.386465 0.973266
0.941283 0.380804 0.971206
1 0.380087 0.974807
1 0.389715 0.989105
0.344381 0.442817 0.983932
0.389425 0.440589 0.982315
0.459617 0.437156 0.979706
0.556924 0.431998 0.975875
0.674144 0.425849 0.971862
0.802991 0.419516 0.968322
0.93608 0.413947 0.966201
1 0.413016 0.969375
1 0.423011 0.983871
0.334874 0.494484 0.975784
0.380301 0.492271 0.974121
0.450523 0.488914 0.971695
0.54818 0.483772 0.968032
0.665553 0.477714 0.963973
0.794598 0.471443 0.960311
0.927596 0.466011 0.958038
1 0.465171 0.960739
1 0.475151 0.97528
0.321523 0.567498 0.964218
0.366842 0.565362 0.9626
0.437263 0.562036 0.960128
0.535103 0.556939 0.956359
0.652613 0.550927 0.951949
0.781674 0.544701 0.947936
0.914488 0.539269 0.945449
1 0.538216 0.947951
1 0.548135 0.96202
0.30454 0.657588 0.95024
0.349966 0.655451 0.948531
0.4206 0.652079 0.945907
0.518944 0.647227 0.942199
0.636881 0.640955 0.937545
0.765454 0.634256 0.93283
0.897948 0.628656 0.929625
1 0.627543 0.93167
1 0.636881 0.944732
0.285954 0.759533 0.935699
0.33167 0.757259 0.933822
0.402625 0.753643 0.930877
0.500771 0.748196 0.926482
0.618418 0.74165 0.921324
0.747265 0.734798 0.916259
0.879286 0.728298 0.911971
0.998657 0.726528 0.912917
1 0.735332 0.924605
0.267094 0.867338 0.921202
0.31313 0.865217 0.919432
0.383764 0.861051 0.915846
0.482216 0.855375 0.911101
0.599771 0.848234 0.905211
0.728023 0.84036 0.89897
0.860151 0.83328 0.893904
0.979034 0.830427 0.893492
1 0.838285 0.904021
0.252232 0.976516 0.912123
0.298085 0.9738 0.909667
0.36939 0.96939 0.905715
0.467185 0.962844 0.899886
0.584802 0.954818 0.892836
0.712825 0.946227 0.885542
0.843137 0.937362 0.878279
0.959991 0.931212 0.874067
1 0.932555 0.877668
0.26836 1 0.934691
0.314305 1 0.931746
0.384985 1 0.926787
0.481819 1 0.918639
0.59649 1 0.908034
0.718196 1 0.893462
0.84094 1 0.877729
0.950469 0.997406 0.864363
1 0.993286 0.861662
0.43537 0.504219 1
0.475029 0.502098 1
0.537423 0.498909 1
0.625544 0.494469 1
0.732387 0.489006 1
0.851041 0.483528 1
0.974304 0.478935 1
1 0.482475 1
1 0.491951 1
0.430259 0.53257 1
0.470268 0.530785 1
0.532601 0.527489 1
0.620554 0.52285 1
0.727337 0.517418 1
0.845808 0.512001 1
0.969039 0.507378 1
1 0.510811 1
1 0.520211 1
0.421836 0.577844 1
0.461921 0.576059 1
0.524407 0.572854 1
0.612314 0.568078 1
0.719234 0.5626 1
0.837644 0.557122 1
0.960769 0.552483 1
1 0.555749 1
1 0.565118 1
0.409949 0.642908 1
0.449653 0.640818 1
0.512322 0.63769 1
0.600458 0.633005 1
0.707393 0.627405 1
0.825696 0.62179 1
0.94873 0.616938 1
1 0.619745 1
1 0.629053 1
0.395102 0.723949 1
0.434852 0.721752 1
0.497246 0.71841 1
0.585565 0.713695 1
0.692409 0.70779 1
0.810834 0.701762 1
0.933562 0.696483 1
1 0.69868 1
1 0.707774 1
0.378561 0.816052 1
0.418479 0.813703 1
0.481132 0.810101 1
0.5691 0.805051 1
0.675944 0.798703 1
0.793896 0.792157 1
0.91574 0.786099 1
1 0.787717 1
1 0.796139 1
0.361852 0.914565 1
0.401419 0.912062 1
0.464057 0.908095 1
0.552239 0.90251 1
0.658686 0.895476 1
0.776379 0.888228 1
0.897841 0.881422 1
0.995544 0.881041 1
1 0.886458 1
0.358221 1 1
0.398108 1 1
0.460517 1 1
0.547814 0.996872 1
0.653101 0.988373 1
0.767971 0.978012 1
0.883635 0.965286 0.991501
0.974594 0.957656 0.984955
1 0.955322 0.983993
0.374731 1 1
0.413031 1 1
0.472679 1 1
0.556146 1 1
0.655879 1 1
0.764477 1 1
0.87599 1 0.986557
0.965148 1 0.976196
1 1 0.973632
