a6000 slog3_1.C0006.cube
TITLE "Generate by Resolve"
LUT_3D_SIZE 9
0.0928664 0.0928664 0.0928664
0.21146 0.0911879 0.0934157
0.296376 0.0883803 0.0943465
0.363561 0.0840162 0.0957809
0.417639 0.0779736 0.0977798
0.462516 0.070161 0.100359
0.500725 0.0605325 0.103532
0.533944 0.0489815 0.107347
0.563287 0.0354772 0.111803
0.0897231 0.200244 0.0909133
0.209781 0.199252 0.0914626
0.295598 0.197589 0.0923934
0.363134 0.194919 0.0938277
0.41738 0.19115 0.0958267
0.462348 0.186069 0.0984054
0.500603 0.179446 0.101579
0.533852 0.170977 0.105394
0.56321 0.158633 0.10985
0.0844587 0.282216 0.0876326
0.206912 0.281743 0.0881819
0.294286 0.280949 0.0891127
0.362417 0.279698 0.090547
0.416938 0.277958 0.092546
0.462043 0.275654 0.0951247
0.500389 0.272755 0.0982986
0.5337 0.269169 0.102113
0.563104 0.264836 0.106569
0.0762798 0.348211 0.0825208
0.202289 0.347951 0.0830854
0.292195 0.347509 0.0840009
0.361303 0.346822 0.0854505
0.416251 0.345876 0.0874495
0.461601 0.34464 0.090013
0.500069 0.343084 0.0932021
0.533455 0.341192 0.0970169
0.562921 0.338949 0.101472
0.0649577 0.40174 0.0754711
0.195575 0.401572 0.0760204
0.289265 0.401297 0.0769513
0.359731 0.400885 0.0784009
0.415305 0.400305 0.0803845
0.46096 0.399542 0.0829633
0.499626 0.398596 0.0861524
0.53312 0.397452 0.0899519
0.562661 0.396109 0.0944228
0.0503395 0.446311 0.0663615
0.186252 0.446204 0.0669261
0.285344 0.446021 0.0678416
0.357671 0.445747 0.0692912
0.414054 0.44535 0.0712902
0.460136 0.444846 0.0738537
0.499046 0.444221 0.0770428
0.532692 0.443473 0.0808576
0.562325 0.442573 0.0853132
0.0322728 0.484352 0.0551156
0.173541 0.484276 0.0556649
0.280308 0.484138 0.0565957
0.355077 0.48394 0.0580301
0.412512 0.483665 0.060029
0.459113 0.483314 0.0626078
0.498329 0.482872 0.0657816
0.532158 0.482338 0.0695964
0.561929 0.481712 0.074052
0.0106508 0.517449 0.0416419
0.153903 0.517403 0.0421912
0.273976 0.517296 0.043122
0.351888 0.517159 0.0445563
0.41062 0.516945 0.0465553
0.457877 0.516686 0.049134
0.497459 0.516365 0.0523079
0.531518 0.515969 0.0561227
0.56144 0.515496 0.0605783
0 0.546731 0.0258793
0.128603 0.546685 0.0264286
0.266056 0.546609 0.0273594
0.348028 0.546502 0.0287938
0.408362 0.546334 0.0307927
0.456413 0.546136 0.0333715
0.496422 0.545892 0.0365454
0.53077 0.545586 0.0403601
0.560861 0.545235 0.0448157
0.132662 0.139742 0.216449
0.230777 0.138079 0.216724
0.305791 0.135271 0.217197
0.368795 0.130892 0.217914
0.42089 0.124849 0.218906
0.464698 0.117052 0.220188
0.502281 0.107408 0.221729
0.535088 0.0958724 0.22356
0.564172 0.0823682 0.22565
0.129534 0.224811 0.215457
0.229358 0.224018 0.215732
0.305074 0.22269 0.216205
0.368383 0.220569 0.216938
0.42063 0.217578 0.217945
0.46453 0.213596 0.219226
0.502159 0.208469 0.220783
0.534997 0.201999 0.222629
0.564095 0.193912 0.224735
0.124254 0.294636 0.213764
0.226963 0.294209 0.214054
0.303868 0.293507 0.214527
0.367712 0.292393 0.215274
0.420203 0.290837 0.216281
0.46424 0.288792 0.217578
0.501945 0.286213 0.219165
0.534844 0.283055 0.221042
0.563989 0.279225 0.223178
0.116075 0.35523 0.211078
0.223117 0.354986 0.211368
0.301961 0.354574 0.211872
0.366644 0.353933 0.212619
0.419547 0.353048 0.213672
0.463798 0.351888 0.215
0.501625 0.350439 0.216617
0.534615 0.348669 0.218524
0.563806 0.346563 0.220722
0.104753 0.406119 0.207263
0.217578 0.405966 0.207568
0.299275 0.405707 0.208072
0.365148 0.40531 0.208865
0.418616 0.404746 0.209934
0.463172 0.404028 0.211307
0.501183 0.403113 0.212985
0.534279 0.402014 0.214969
0.563546 0.400732 0.217227
0.090135 0.449271 0.202136
0.209995 0.449165 0.202457
0.295705 0.448997 0.202976
0.36318 0.448722 0.2038
0.417411 0.448341 0.204929
0.462364 0.447852 0.206363
0.500618 0.447242 0.208118
0.533852 0.44651 0.210178
0.563226 0.44564 0.212543
0.0720836 0.486458 0.195453
0.199847 0.486381 0.195789
0.291127 0.486259 0.196353
0.360723 0.486061 0.197223
0.4159 0.485786 0.198413
0.461357 0.485435 0.199939
0.499901 0.485008 0.201801
0.533333 0.484489 0.203983
0.562814 0.483879 0.206485
0.0504463 0.51902 0.186877
0.186328 0.518975 0.187243
0.285374 0.518868 0.187854
0.357687 0.51873 0.188785
0.414069 0.518532 0.190082
0.460151 0.518273 0.19173
0.499046 0.517937 0.193713
0.532692 0.517555 0.196063
0.562341 0.517098 0.198749
0.0251469 0.547936 0.175921
0.168093 0.54789 0.176318
0.278264 0.547814 0.177005
0.354025 0.547707 0.178042
0.411887 0.547555 0.179461
0.458701 0.547356 0.181262
0.498039 0.547097 0.183459
0.53196 0.546807 0.186023
0.561761 0.546456 0.188952
0.190112 0.201678 0.302571
0.257145 0.200702 0.302693
0.319982 0.199054 0.302907
0.377066 0.196429 0.303243
0.426139 0.192706 0.303716
0.468254 0.187686 0.304295
0.504829 0.18117 0.305028
0.536995 0.172839 0.305898
0.565637 0.161089 0.306905
0.188067 0.256748 0.302113
0.256046 0.256153 0.302235
0.319356 0.255161 0.302449
0.376699 0.25359 0.3028
0.425895 0.251377 0.303258
0.468101 0.248447 0.303853
0.504707 0.244724 0.304585
0.536904 0.240085 0.305455
0.565576 0.234409 0.306462
0.184573 0.312795 0.301335
0.254154 0.312444 0.301472
0.318303 0.311833 0.301686
0.376059 0.310903 0.302022
0.425483 0.309575 0.302495
0.467811 0.307866 0.30309
0.504509 0.305699 0.303822
0.536751 0.303044 0.304707
0.565454 0.299855 0.305715
0.178897 0.36611 0.30013
0.251164 0.365896 0.300252
0.316625 0.36553 0.300481
0.375067 0.36495 0.300816
0.424857 0.364141 0.301289
0.467384 0.363088 0.3019
0.504204 0.361776 0.302647
0.536522 0.360189 0.303532
0.56527 0.358297 0.304555
0.17055 0.413138 0.298436
0.246876 0.412985 0.298573
0.314275 0.412741 0.298787
0.373693 0.41236 0.299138
0.423972 0.411841 0.299611
0.466789 0.411154 0.300237
0.503761 0.4103 0.300984
0.536202 0.409277 0.301885
0.565026 0.408072 0.302922
0.156954 0.454063 0.296208
0.241093 0.453971 0.296345
0.311162 0.453803 0.296574
0.371878 0.453544 0.296925
0.422827 0.453178 0.297414
0.465995 0.452705 0.298039
0.503212 0.452125 0.298817
0.53579 0.451423 0.299733
0.564706 0.450599 0.300786
0.138903 0.489906 0.293385
0.233509 0.489845 0.293523
0.307195 0.489723 0.293767
0.369589 0.489525 0.294118
0.421393 0.489265 0.294621
0.465034 0.48893 0.295277
0.50251 0.488502 0.296056
0.535271 0.487999 0.297002
0.564309 0.487404 0.298085
0.117281 0.521614 0.289921
0.223697 0.521553 0.290059
0.302235 0.521462 0.290303
0.366796 0.521324 0.290684
0.419638 0.521126 0.291203
0.463859 0.520867 0.291859
0.501671 0.520562 0.292668
0.534646 0.52018 0.293645
0.563821 0.519722 0.294759
0.0919661 0.549935 0.28571
0.210971 0.549889 0.285863
0.296147 0.549813 0.286122
0.363439 0.549706 0.286503
0.417563 0.549554 0.287037
0.46247 0.549355 0.287739
0.500694 0.549111 0.288579
0.533913 0.548821 0.289586
0.563272 0.548486 0.290745
0.24239 0.256489 0.370214
0.288716 0.255894 0.370291
0.338994 0.254887 0.370413
0.38883 0.253315 0.370596
0.433829 0.251102 0.37084
0.473579 0.248157 0.37116
0.50869 0.244434 0.371572
0.539895 0.23978 0.372045
0.56788 0.234089 0.372595
0.241123 0.293217 0.36997
0.287877 0.29279 0.370047
0.33846 0.292073 0.370153
0.388479 0.290944 0.370336
0.433616 0.289357 0.370596
0.473426 0.287297 0.370916
0.508568 0.284688 0.371313
0.539803 0.281468 0.371801
0.567819 0.277592 0.372351
0.238956 0.336202 0.369558
0.286473 0.335912 0.369619
0.337575 0.335424 0.369741
0.387915 0.334661 0.369924
0.433234 0.333608 0.370184
0.473167 0.332219 0.370504
0.50837 0.33048 0.370901
0.539666 0.328374 0.371389
0.567712 0.325841 0.371939
0.235523 0.38117 0.368902
0.28423 0.380972 0.368963
0.336172 0.380652 0.369085
0.38703 0.380148 0.369268
0.432639 0.379446 0.369528
0.472755 0.378531 0.369863
0.50808 0.377386 0.37026
0.539437 0.375998 0.370748
0.567529 0.374365 0.371313
0.230579 0.423209 0.367987
0.281071 0.423087 0.368063
0.334203 0.422858 0.368185
0.385779 0.422522 0.368368
0.431815 0.422034 0.368627
0.472175 0.421408 0.368963
0.507668 0.420645 0.36936
0.539117 0.419699 0.369848
0.567285 0.418601 0.370413
0.22385 0.461143 0.366812
0.27686 0.461051 0.366873
0.331609 0.460883 0.366995
0.384161 0.460639 0.367193
0.430747 0.460304 0.367453
0.471427 0.459861 0.367773
0.507118 0.459312 0.368185
0.53872 0.458656 0.368688
0.566964 0.457877 0.369253
0.214939 0.495079 0.365316
0.271412 0.495003 0.365393
0.328313 0.494896 0.365515
0.382116 0.494713 0.365713
0.429404 0.494469 0.365972
0.470512 0.494133 0.366308
0.506447 0.493736 0.366735
0.538216 0.493248 0.367224
0.566583 0.492683 0.367803
0.203235 0.525521 0.363516
0.264515 0.52546 0.363592
0.324239 0.525368 0.363714
0.379629 0.525231 0.363912
0.427787 0.525048 0.364187
0.469398 0.524804 0.364523
0.505638 0.524498 0.36495
0.537606 0.524132 0.365454
0.56611 0.523705 0.366049
0.187762 0.552972 0.361379
0.255879 0.552926 0.361456
0.319265 0.552865 0.361578
0.376638 0.552758 0.361776
0.425864 0.552605 0.362051
0.468071 0.552407 0.362402
0.504692 0.552178 0.362829
0.536889 0.551888 0.363348
0.56556 0.551553 0.363943
0.288808 0.304326 0.424521
0.321386 0.303944 0.424567
0.360845 0.303304 0.424643
0.403265 0.302281 0.42475
0.443671 0.300862 0.424903
0.480552 0.298985 0.425101
0.513802 0.296635 0.425345
0.543786 0.293767 0.42565
0.570916 0.290303 0.425986
0.287984 0.329534 0.424369
0.32076 0.329229 0.424414
0.360418 0.32871 0.424491
0.40296 0.327901 0.424598
0.443458 0.326772 0.42475
0.4804 0.325292 0.424949
0.513695 0.323445 0.425193
0.543694 0.321187 0.425498
0.570855 0.318502 0.425834
0.286564 0.362112 0.424109
0.319707 0.361883 0.424155
0.359686 0.361486 0.424231
0.402472 0.360891 0.424338
0.443122 0.360052 0.424491
0.480156 0.358968 0.424704
0.513512 0.357595 0.424949
0.543557 0.355947 0.425238
0.570748 0.353979 0.425589
0.284337 0.3991 0.423713
0.318059 0.398932 0.423758
0.358526 0.398657 0.423835
0.401694 0.39823 0.423941
0.442573 0.397635 0.424094
0.479759 0.396857 0.424308
0.513222 0.395895 0.424552
0.543343 0.39472 0.424842
0.570565 0.393332 0.425193
0.281178 0.435798 0.423163
0.31574 0.435691 0.423209
0.356924 0.435492 0.42327
0.400595 0.435172 0.423392
0.441825 0.434745 0.423545
0.479225 0.434195 0.423743
0.512825 0.433509 0.424002
0.543038 0.43267 0.424292
0.570336 0.431693 0.424643
0.276967 0.470237 0.422446
0.312673 0.470146 0.422477
0.354818 0.469993 0.422553
0.399176 0.46978 0.422675
0.440848 0.469459 0.422827
0.478538 0.469047 0.423026
0.512306 0.468544 0.423285
0.542641 0.467948 0.42359
0.570031 0.467231 0.423926
0.271534 0.501839 0.421546
0.308751 0.501778 0.421592
0.352148 0.501671 0.421668
0.397406 0.501503 0.421775
0.439628 0.501259 0.421942
0.477668 0.500954 0.422141
0.511666 0.500587 0.4224
0.542153 0.50013 0.42269
0.56965 0.499596 0.423041
0.264637 0.530694 0.420462
0.303868 0.530648 0.420508
0.348867 0.530556 0.420584
0.395224 0.530434 0.420691
0.438148 0.530251 0.420859
0.476616 0.530022 0.421057
0.510903 0.529732 0.421317
0.541573 0.529381 0.421622
0.569192 0.528969 0.421973
0.256001 0.557046 0.419181
0.297871 0.557 0.419226
0.344915 0.556939 0.419303
0.39263 0.556832 0.419425
0.436393 0.55668 0.419577
0.47538 0.556497 0.419791
0.509987 0.556268 0.42005
0.540887 0.555993 0.420356
0.568658 0.555673 0.420722
0.329412 0.345754 0.469505
0.352972 0.34548 0.469535
0.383902 0.345037 0.469581
0.419501 0.344335 0.469657
0.455207 0.343374 0.469764
0.488945 0.342107 0.469902
0.520088 0.34052 0.470069
0.548608 0.338582 0.470268
0.574716 0.336278 0.470497
0.328832 0.363699 0.469413
0.352514 0.36347 0.469444
0.383551 0.363104 0.46949
0.419242 0.362509 0.469566
0.455009 0.361685 0.469673
0.488807 0.360601 0.469795
0.519982 0.359258 0.469963
0.548531 0.357626 0.470161
0.574655 0.355703 0.47039
0.327855 0.38854 0.469245
0.35172 0.388357 0.469276
0.382956 0.388052 0.469322
0.418814 0.387579 0.469398
0.454704 0.386923 0.46949
0.488579 0.386069 0.469627
0.519814 0.385 0.469795
0.548394 0.383703 0.469993
0.574548 0.382177 0.470222
0.326314 0.418662 0.468971
0.350484 0.418524 0.469001
0.382025 0.418296 0.469047
0.418143 0.417929 0.469123
0.454215 0.417426 0.46923
0.488212 0.416785 0.469368
0.519539 0.415976 0.469535
0.54818 0.415 0.469734
0.57438 0.41384 0.469963
0.324163 0.450187 0.468605
0.34876 0.450095 0.468635
0.380728 0.449912 0.468681
0.417197 0.449653 0.468757
0.453544 0.449271 0.468864
0.487724 0.448783 0.469001
0.519158 0.448173 0.469169
0.54789 0.447456 0.469368
0.574151 0.446586 0.469596
0.321324 0.480964 0.468132
0.346487 0.480888 0.468162
0.379019 0.480751 0.468208
0.415976 0.480552 0.468284
0.452659 0.480262 0.468391
0.487068 0.479896 0.468528
0.518669 0.479438 0.468681
0.547524 0.478889 0.468879
0.573861 0.478248 0.469123
0.317708 0.510018 0.467536
0.343603 0.509957 0.467567
0.376883 0.50985 0.467613
0.41445 0.509697 0.467689
0.45156 0.509483 0.467796
0.486275 0.509194 0.467933
0.518074 0.508843 0.468101
0.547051 0.508415 0.468299
0.573495 0.507927 0.468528
0.313207 0.537057 0.466819
0.340063 0.536995 0.46685
0.374273 0.536919 0.466896
0.412589 0.536797 0.466972
0.450233 0.536629 0.467079
0.485298 0.5364 0.467216
0.517342 0.536126 0.467384
0.546502 0.535805 0.467582
0.573053 0.535424 0.467826
0.307713 0.562081 0.46598
0.335775 0.562036 0.466011
0.37113 0.561975 0.466056
0.410376 0.561883 0.466133
0.448661 0.561746 0.466239
0.484154 0.561563 0.466377
0.516487 0.561349 0.466545
0.54583 0.56109 0.466758
0.572534 0.560784 0.466987
0.365026 0.381888 0.50779
0.38262 0.381704 0.507805
0.407034 0.381384 0.507851
0.436759 0.38088 0.507897
0.467964 0.380179 0.507973
0.498512 0.379263 0.508064
0.527382 0.378134 0.508186
0.554299 0.376761 0.508324
0.579232 0.375128 0.508476
0.364614 0.395132 0.507713
0.382254 0.394965 0.507744
0.406744 0.39469 0.507774
0.43653 0.394232 0.50782
0.467811 0.393622 0.507897
0.498375 0.392813 0.507988
0.527291 0.391806 0.50811
0.554223 0.3906 0.508247
0.579171 0.389166 0.508415
0.363912 0.414343 0.507591
0.381659 0.414206 0.507622
0.406256 0.413962 0.507652
0.436164 0.413596 0.507698
0.467521 0.413062 0.507774
0.498161 0.41239 0.507866
0.527123 0.411551 0.507988
0.554101 0.410544 0.508125
0.57908 0.409339 0.508293
0.362799 0.438865 0.507408
0.380713 0.438743 0.507424
0.405509 0.438544 0.507469
0.435584 0.438254 0.507515
0.467094 0.437827 0.507591
0.497841 0.437293 0.507683
0.526879 0.436622 0.507805
0.553887 0.435813 0.507942
0.578912 0.434867 0.50811
0.361257 0.465736 0.507149
0.3794 0.465644 0.507164
0.404456 0.465492 0.50721
0.434791 0.465263 0.507256
0.466484 0.464927 0.507332
0.497383 0.4645 0.507424
0.526528 0.463981 0.507546
0.553613 0.463355 0.507683
0.578698 0.462608 0.507851
0.359228 0.492943 0.506813
0.377676 0.492866 0.506828
0.403082 0.492744 0.506859
0.433753 0.492561 0.50692
0.465705 0.492317 0.506996
0.496788 0.491981 0.507088
0.52607 0.491569 0.50721
0.553262 0.491081 0.507347
0.578408 0.490501 0.507515
0.356664 0.519341 0.506386
0.375525 0.519295 0.506416
0.401373 0.519188 0.506447
0.432441 0.519051 0.506508
0.464729 0.518853 0.506569
0.496056 0.518593 0.506676
0.525505 0.518273 0.506783
0.552819 0.517876 0.506935
0.578058 0.517433 0.507103
0.353521 0.544427 0.505882
0.372869 0.544381 0.505913
0.399268 0.544305 0.505943
0.430869 0.544198 0.506004
0.463554 0.54403 0.506081
0.495171 0.543832 0.506172
0.524819 0.543572 0.506294
0.552285 0.543267 0.506432
0.57763 0.542901 0.5066
0.349722 0.568002 0.505302
0.369696 0.567971 0.505318
0.39678 0.56791 0.505348
0.428992 0.567819 0.505409
0.462165 0.567697 0.505486
0.494118 0.567529 0.505577
0.524025 0.567315 0.505699
0.551659 0.567071 0.505837
0.577142 0.566781 0.506004
0.396597 0.413779 0.541039
0.410071 0.413642 0.541054
0.429587 0.413397 0.541085
0.454398 0.413016 0.541131
0.481544 0.412497 0.541176
0.508965 0.41181 0.541253
0.535546 0.410971 0.541329
0.560739 0.409949 0.541436
0.584421 0.408743 0.541558
0.396277 0.423865 0.540993
0.409796 0.423743 0.541009
0.429343 0.423514 0.541039
0.454215 0.423178 0.54107
0.481407 0.42269 0.541131
0.508858 0.42208 0.541192
0.535454 0.421302 0.541283
0.560678 0.420371 0.54139
0.58436 0.419287 0.541512
0.395743 0.438987 0.540902
0.409323 0.438865 0.540917
0.428962 0.438666 0.540948
0.45391 0.438376 0.540978
0.481163 0.437964 0.541039
0.508659 0.437415 0.5411
0.535302 0.436744 0.541192
0.560555 0.435935 0.541299
0.584268 0.434989 0.541421
0.394919 0.459022 0.540764
0.408591 0.45893 0.54078
0.428336 0.458778 0.54081
0.453422 0.458518 0.540841
0.480781 0.458167 0.540902
0.50837 0.457725 0.540963
0.535058 0.45716 0.541054
0.560372 0.456489 0.541161
0.584115 0.455711 0.541283
0.393759 0.481865 0.540566
0.407568 0.481788 0.540581
0.427482 0.481651 0.540612
0.452735 0.481453 0.540658
0.480247 0.481178 0.540703
0.507942 0.480812 0.54078
0.534737 0.480354 0.540856
0.560113 0.479805 0.540963
0.583902 0.479164 0.541085
0.392248 0.50576 0.540322
0.406241 0.505699 0.540337
0.426368 0.505592 0.540368
0.45185 0.505425 0.540398
0.479545 0.505196 0.540459
0.507408 0.504906 0.54052
0.53431 0.50454 0.540612
0.559777 0.504097 0.540719
0.583627 0.503594 0.540841
0.390356 0.52958 0.540017
0.404578 0.529519 0.540032
0.424979 0.529442 0.540047
0.450736 0.529305 0.540093
0.478691 0.529122 0.540154
0.506737 0.528878 0.540215
0.533791 0.528588 0.540307
0.55935 0.528237 0.540413
0.583291 0.527825 0.540536
0.388037 0.552666 0.539635
0.402533 0.552621 0.539651
0.423301 0.55256 0.539681
0.449409 0.552453 0.539727
0.477653 0.5523 0.539773
0.505943 0.552102 0.539849
0.533165 0.551873 0.53994
0.558846 0.551583 0.540032
0.582895 0.551247 0.540169
0.385275 0.574716 0.539208
0.400107 0.574685 0.539223
0.421286 0.574624 0.539239
0.447822 0.574533 0.539284
0.476432 0.574411 0.539345
0.504982 0.574258 0.539406
0.532418 0.57406 0.539498
0.558267 0.573831 0.539605
0.582422 0.573556 0.539727
0.424826 0.442237 0.570413
0.435416 0.44213 0.570428
0.451209 0.441932 0.570443
0.472023 0.441642 0.570474
0.495583 0.441245 0.57052
0.520073 0.440726 0.570581
0.544381 0.44007 0.570642
0.567849 0.439292 0.570718
0.590188 0.438361 0.570809
0.424582 0.450126 0.570382
0.435203 0.450019 0.570382
0.451026 0.449836 0.570413
0.47187 0.449577 0.570443
0.495445 0.449195 0.570474
0.519982 0.448707 0.570535
0.544289 0.448096 0.570596
0.567773 0.447379 0.570687
0.590127 0.44651 0.570779
0.42417 0.462211 0.570306
0.434821 0.462119 0.570321
0.45069 0.461967 0.570336
0.471595 0.461723 0.570367
0.495232 0.461387 0.570413
0.519799 0.46096 0.570474
0.544152 0.46041 0.570535
0.567666 0.459754 0.570611
0.590036 0.458991 0.570703
0.423529 0.478752 0.570199
0.434241 0.47866 0.570214
0.450187 0.478538 0.57023
0.471183 0.478325 0.57026
0.494896 0.478035 0.570306
0.519524 0.477653 0.570367
0.543938 0.477195 0.570428
0.567483 0.476631 0.570504
0.589899 0.475975 0.570596
0.422629 0.498177 0.570062
0.433433 0.4981 0.570062
0.449485 0.497993 0.570092
0.470603 0.497826 0.570123
0.494423 0.497581 0.570153
0.519158 0.497261 0.570214
0.543633 0.496864 0.570275
0.567239 0.496406 0.570352
0.5897 0.495857 0.570459
0.421469 0.519097 0.569863
0.43238 0.519036 0.569879
0.448585 0.518944 0.569894
0.469841 0.518791 0.569924
0.493828 0.518593 0.56997
0.518669 0.518334 0.570016
0.543252 0.518013 0.570092
0.566934 0.517632 0.570169
0.589441 0.517174 0.57026
0.42002 0.540459 0.569619
0.431052 0.540413 0.569635
0.44744 0.540337 0.569665
0.46891 0.540215 0.569696
0.493065 0.540047 0.569726
0.518059 0.539834 0.569787
0.542763 0.539559 0.569848
0.566537 0.539254 0.569924
0.58912 0.538872 0.570031
0.41825 0.561578 0.569345
0.429465 0.561547 0.56936
0.446067 0.561486 0.569375
0.467781 0.561379 0.569406
0.492149 0.561242 0.569451
0.517342 0.561074 0.569497
0.542184 0.560845 0.569574
0.566064 0.560586 0.56965
0.588739 0.560281 0.569741
0.416144 0.582086 0.569009
0.427558 0.582055 0.569024
0.444434 0.581994 0.569039
0.466438 0.581918 0.56907
0.491081 0.581796 0.569116
0.516487 0.581659 0.569162
0.541497 0.581476 0.569238
0.565515 0.581247 0.569314
0.588296 0.580987 0.569406
