a6000 rec709_2.C0006.cube
TITLE "Generate by Resolve"
LUT_3D_SIZE 5
0 0 0
0.220874 0 0.00111391
0.450034 0 0.00370794
0.679179 0 0.00805676
0.908324 0 0.0142977
0 0.199832 0
0.2177 0.198001 0
0.448402 0.193683 0
0.678111 0.186282 0.00410468
0.907546 0.175204 0.0103456
0 0.413901 0
0.210193 0.412955 0
0.444587 0.410758 0
0.675639 0.407034 0
0.905745 0.401633 0.00117494
0 0.62797 0
0.19707 0.627359 0
0.438132 0.625925 0
0.671458 0.623514 0
0.902724 0.620035 0
0 0.842039 0
0.176898 0.841596 0
0.428687 0.840543 0
0.665431 0.838788 0
0.898344 0.836271 0
0.0805066 0.0945144 0.230381
0.258183 0.091371 0.230915
0.470237 0.0838178 0.232166
0.692531 0.0704204 0.234226
0.918105 0.0515145 0.237156
0.0741588 0.246525 0.228489
0.255421 0.244984 0.229023
0.468681 0.241382 0.230274
0.691493 0.235264 0.232349
0.917342 0.2262 0.235294
0.0594339 0.439567 0.224018
0.24889 0.438682 0.224567
0.465034 0.436606 0.225834
0.689067 0.433097 0.227939
0.915557 0.428031 0.230945
0.0347601 0.644999 0.216358
0.237613 0.644404 0.216922
0.458869 0.643 0.218235
0.684977 0.640665 0.220401
0.912566 0.637278 0.223484
0 0.854536 0.204944
0.220539 0.854093 0.205539
0.449851 0.853071 0.206912
0.679072 0.851347 0.209171
0.908248 0.848859 0.212406
0.209522 0.233127 0.466346
0.330297 0.23151 0.466621
0.514061 0.227741 0.467262
0.722515 0.221286 0.468345
0.940398 0.211734 0.469871
0.20621 0.332692 0.46537
0.328084 0.331518 0.465644
0.512642 0.328801 0.466285
0.721523 0.324178 0.467369
0.939651 0.317449 0.468894
0.198337 0.494041 0.463081
0.322911 0.493248 0.463355
0.509316 0.491402 0.464012
0.719203 0.488304 0.465095
0.937911 0.483803 0.466636
0.184543 0.682795 0.459236
0.314061 0.682231 0.45951
0.5037 0.680919 0.460166
0.715297 0.678721 0.46125
0.934997 0.675547 0.462821
0.163165 0.882811 0.453651
0.300923 0.882383 0.453925
0.495506 0.881392 0.454597
0.709651 0.879728 0.455695
0.930785 0.877333 0.457267
0.338293 0.371756 0.702312
0.425696 0.370703 0.702495
0.579934 0.368246 0.702907
0.76994 0.364111 0.703609
0.976471 0.358083 0.704616
0.336141 0.442374 0.701671
0.423972 0.441489 0.701854
0.578683 0.439429 0.702266
0.769009 0.43595 0.702968
0.975753 0.430915 0.703975
0.331075 0.573602 0.700175
0.419944 0.572931 0.700359
0.575738 0.571344 0.700786
0.766842 0.568689 0.701488
0.974075 0.564858 0.702495
0.322438 0.741558 0.697688
0.413092 0.741039 0.697871
0.570794 0.739834 0.698283
0.76321 0.737819 0.698985
0.971283 0.73492 0.700008
0.309636 0.928054 0.694072
0.403067 0.927657 0.694255
0.563622 0.926711 0.694682
0.757946 0.925139 0.695399
0.967254 0.922866 0.696422
0.467063 0.510369 0.938262
0.533852 0.509606 0.938399
0.66273 0.50782 0.938704
0.832975 0.504829 0.939223
1 0.500481 0.939956
0.465492 0.563775 0.937804
0.532479 0.563088 0.937926
0.661646 0.561486 0.938247
0.83212 0.558785 0.93875
1 0.554879 0.939483
0.461814 0.670985 0.936721
0.52929 0.670405 0.936843
0.659098 0.669078 0.937163
0.830137 0.666835 0.937667
1 0.663584 0.938399
0.455604 0.818051 0.934905
0.523888 0.817594 0.935027
0.65481 0.81651 0.935332
0.82681 0.814694 0.935851
1 0.812085 0.936584
0.44654 0.989075 0.93228
0.51603 0.988693 0.932418
0.648615 0.987823 0.932723
0.821988 0.986343 0.933242
1 0.984237 0.933974
