a6000 vivid_1.C0006.cube
TITLE "Generate by Resolve"
LUT_3D_SIZE 33
0 0 0
0.0150912 0 0
0.0297856 0 0
0.0440223 0 0
0.0606699 0 0
0.0795148 0 0
0.103059 0 0
0.133745 0 0
0.167407 0 0
0.201709 0 0
0.236912 0 0
0.27274 0 0
0.309209 0 0
0.346426 0 0
0.383902 0 0
0.422156 0 0
0.460365 0 0
0.499184 0 0
0.538003 0 0
0.57705 0 0
0.616129 0 0
0.654841 0 0
0.693614 0 0
0.731945 0 0
0.770153 0 0
0.807874 0 0
0.845304 0 0
0.882017 0 0
0.918181 0 0
0.95346 0 0
0.986984 0 0
1 0 0
1 0 0
0 0.0117952 0
0.0131838 0.0110323 0
0.0278782 0.010544 0
0.0420844 0.0099794 0
0.0585031 0.00910964 0
0.0770428 0.00759899 0
0.100328 0.00460822 0
0.130907 0 0
0.164569 0 0
0.198947 0 0
0.234287 0 0
0.270191 0 0
0.306706 0 0
0.343954 0 0
0.381521 0 0
0.419898 0 0
0.458412 0 0
0.497658 0 0
0.536645 0 0
0.575936 0 0
0.615152 0 0
0.6542 0 0
0.693584 0 0
0.732265 0 0
0.771008 0 0
0.80911 0 0
0.846799 0 0
0.883833 0 0
0.920607 0 0
0.956802 0 0
0.991272 0 0
1 0 0
1 0 0
0 0.023621 0
0.0113375 0.0228122 0
0.0257115 0.0219883 0
0.0397192 0.0212253 0
0.0559701 0.0202182 0
0.0744945 0.0186465 0
0.0977493 0.0156558 0
0.128298 0.0106813 0
0.16202 0.00495918 0
0.196384 0 0
0.231754 0 0
0.267659 0 0
0.304387 0 0
0.341695 0 0
0.379614 0 0
0.418189 0 0
0.456794 0 0
0.496193 0 0
0.5355 0 0
0.575326 0 0
0.615076 0 0
0.654734 0 0
0.694377 0 0
0.733623 0 0
0.772732 0 0
0.811688 0 0
0.850446 0 0
0.888716 0 0
0.926253 0 0
0.963027 0 0
0.997955 0 0
1 0 0
1 0 0
0 0.034699 0
0.00943008 0.0337224 0
0.0237888 0.0328527 0
0.0377966 0.0320897 0
0.0541695 0.0311894 0
0.0726787 0.0295567 0
0.0958267 0.0266117 0
0.12639 0.0216526 0
0.160174 0.0159915 0
0.19472 0.010071 0
0.230365 0.00395209 0
0.266606 0 0
0.303487 0 0
0.340978 0 0
0.379049 0 0
0.418006 0 0
0.45716 0 0
0.4972 0 0
0.536904 0 0
0.577005 0 0
0.61709 0 0
0.657237 0 0
0.69781 0 0
0.737835 0 0
0.777996 0 0
0.817639 0 0
0.856733 0 0
0.895048 0 0
0.93283 0 0
0.969955 0 0
1 0 0
1 0 0
1 0 0
0 0.0475624 0
0.0069276 0.04654 0
0.0214237 0.0457923 0
0.0354467 0.0450599 0
0.0517586 0.0440986 0
0.0704051 0.0425422 0
0.0937667 0.0399634 0
0.12459 0.0353094 0
0.158618 0.0298619 0
0.193545 0.0243229 0
0.22945 0.0184176 0
0.265904 0.0125429 0
0.303624 0.00679026 0
0.341772 0.000961318 0
0.380407 0 0
0.420005 0 0
0.459632 0 0
0.500008 0 0
0.540841 0 0
0.582162 0 0
0.62327 0 0
0.66479 0 0
0.705776 0 0
0.746517 0 0
0.786862 0 0
0.826596 0 0
0.866224 0 0
0.904692 0 0
0.942901 0 0
0.979858 0 0
1 0 0
1 0 0
1 0 0
0 0.061265 0
0.00328069 0.0603342 0
0.0178531 0.059556 0
0.0322118 0.0591592 0
0.0488746 0.0585641 0
0.0678416 0.0573587 0
0.0912795 0.0549477 0
0.122454 0.0507515 0
0.156863 0.0457618 0
0.192386 0.0407874 0
0.229221 0.0358129 0
0.266499 0.0307469 0
0.304692 0.025391 0
0.343435 0.0202029 0
0.383398 0.0154726 0
0.42414 0.0107729 0
0.465278 0.00631724 0
0.50724 0.00202945 0
0.548791 0 0
0.590768 0 0
0.632715 0 0
0.67454 0 0
0.716304 0 0
0.757275 0 0
0.798154 0 0
0.838453 0 0
0.878141 0 0
0.917144 0 0
0.955291 0 0
0.992462 0 0
1 0 0
1 0 0
1 0 0
0 0.0765698 0
0 0.0760357 0
0.0123598 0.0755322 0
0.0268254 0.0752117 0
0.0438087 0.0749065 0
0.0634318 0.0743572 0
0.087602 0.0727398 0
0.119493 0.0692149 0
0.154772 0.0649271 0
0.190997 0.0605325 0
0.228534 0.0561532 0
0.266972 0.0521401 0
0.306935 0.0485389 0
0.347097 0.0448005 0
0.388052 0.0408484 0
0.429648 0.0370336 0
0.471336 0.0330053 0
0.513649 0.0288853 0
0.556161 0.0251316 0
0.598749 0.0209964 0
0.640909 0.016907 0
0.683314 0.0130312 0
0.725155 0.00898756 0
0.766598 0.0049897 0
0.808133 0.00128176 0
0.848554 0 0
0.888609 0 0
0.927855 0 0
0.966476 0 0
1 0 0
1 0 0
1 0 0
1 0 0
0 0.0947738 0
0 0.0944076 0
0.00321965 0.0945449 0
0.0184176 0.0949264 0
0.0363317 0.0954147 0
0.0564126 0.0953231 0
0.0813001 0.0944381 0
0.114199 0.0917067 0
0.150668 0.0886702 0
0.188479 0.0857099 0
0.227695 0.082826 0
0.267048 0.0795758 0
0.307424 0.076112 0
0.348455 0.0729534 0
0.390112 0.0694133 0
0.432029 0.0658274 0
0.474189 0.062211 0
0.517052 0.0586404 0
0.559625 0.0547799 0
0.60264 0.0508736 0
0.645457 0.0472267 0
0.688182 0.0432593 0
0.730312 0.0393988 0
0.772442 0.0358587 0
0.813993 0.0320745 0
0.854826 0.0287175 0
0.89543 0.0252689 0
0.934966 0.021912 0
0.974304 0.0188907 0
1 0.0158083 0
1 0.0131991 0
1 0.0119783 0
1 0.0120546 0
0 0.116701 0
0 0.117006 0
0 0.117449 0
0.00709545 0.118379 0
0.0261845 0.119921 0
0.0476234 0.12134 0
0.0737774 0.121859 0
0.107912 0.120424 0
0.145037 0.118273 0
0.18323 0.115709 0
0.222614 0.112978 0
0.262791 0.110491 0
0.303639 0.107485 0
0.344747 0.104372 0
0.386664 0.100999 0
0.429038 0.0978866 0
0.471473 0.0943923 0
0.514473 0.0907454 0
0.55761 0.0873884 0
0.600778 0.0835737 0
0.643595 0.0798505 0
0.686763 0.0764019 0
0.729122 0.0727855 0
0.771405 0.0691386 0
0.813565 0.0658427 0
0.854734 0.0623941 0
0.895644 0.0589761 0
0.935912 0.0560769 0
0.975296 0.0530404 0
1 0.0501411 0
1 0.0479286 0
1 0.0465858 0
1 0.0467842 0
0 0.141207 0
0 0.142672 0
0 0.144411 0
0 0.14667 0
0.0178836 0.149218 0
0.0401465 0.151522 0
0.0666056 0.152453 0
0.101045 0.151354 0
0.138613 0.149508 0
0.177752 0.14757 0
0.217273 0.145144 0
0.257343 0.142535 0
0.298558 0.139895 0
0.339956 0.137072 0
0.382086 0.133913 0
0.424186 0.130739 0
0.466911 0.127733 0
0.510048 0.124224 0
0.553033 0.12076 0
0.596658 0.117433 0
0.639719 0.113985 0
0.682872 0.110384 0
0.725475 0.106889 0
0.768292 0.1037 0
0.810254 0.100359 0
0.851438 0.0972763 0
0.892805 0.094377 0
0.932967 0.0914015 0
0.972717 0.0884871 0
1 0.0861067 0
1 0.0838331 0
1 0.0830243 0
1 0.08365 0
0 0.170336 0
0 0.172381 0
0 0.174609 0
0 0.17731 0
0.0103914 0.180362 0
0.0328832 0.18294 0
0.0598459 0.184497 0
0.0944839 0.183764 0
0.132219 0.182071 0
0.171405 0.17998 0
0.211307 0.178058 0
0.251575 0.175631 0
0.292729 0.17293 0
0.334157 0.170138 0
0.376699 0.167422 0
0.419104 0.164385 0
0.46186 0.161242 0
0.505257 0.158053 0
0.548516 0.154894 0
0.591928 0.151492 0
0.634897 0.148241 0
0.678492 0.145174 0
0.721233 0.141894 0
0.763958 0.138598 0
0.806241 0.135744 0
0.847715 0.132723 0
0.888945 0.129747 0
0.929549 0.127321 0
0.969329 0.124697 0
1 0.122301 0
1 0.120562 0
1 0.119692 0
1 0.120409 0
0 0.201236 0
0 0.203708 0
0 0.206226 0
0 0.209216 0
0.00347906 0.212619 0
0.026154 0.215396 0
0.0531777 0.216922 0
0.0876173 0.216419 0
0.125795 0.215167 0
0.165087 0.21323 0
0.204761 0.211154 0
0.245396 0.209018 0
0.286763 0.206683 0
0.328374 0.204074 0
0.370779 0.201205 0
0.413428 0.198428 0
0.456596 0.195514 0
0.499855 0.192401 0
0.54313 0.189273 0
0.587045 0.186328 0
0.630274 0.183139 0
0.673671 0.179889 0
0.716854 0.177096 0
0.759701 0.174014 0
0.801602 0.17116 0
0.843336 0.16846 0
0.88481 0.16582 0
0.925185 0.163241 0
0.965347 0.160952 0
1 0.158846 0
1 0.157 0
1 0.156359 0
1 0.157671 0
0 0.233356 0
0 0.236118 0
0 0.238849 0
0 0.241794 0
0 0.245289 0
0.0189517 0.248554 0
0.0459907 0.250263 0
0.0803845 0.249912 0
0.118502 0.248539 0
0.158404 0.247044 0
0.198383 0.24509 0
0.239261 0.242847 0
0.280446 0.240513 0
0.322515 0.238315 0
0.365087 0.235615 0
0.407752 0.232868 0
0.450919 0.229969 0
0.494331 0.227344 0
0.537697 0.224338 0
0.581445 0.221241 0
0.625132 0.21854 0
0.668666 0.215457 0
0.711635 0.212497 0
0.754574 0.209506 0
0.797116 0.207034 0
0.838834 0.204364 0
0.880278 0.201755 0
0.921019 0.199695 0
0.960876 0.197452 0
0.999924 0.195361 0
1 0.194003 0
1 0.19353 0
1 0.194614 0
0 0.266316 0
0 0.269062 0
0 0.272023 0
0 0.27509 0
0 0.278706 0
0.0112917 0.281849 0
0.0385138 0.284047 0
0.0729534 0.284016 0
0.111437 0.282704 0
0.151019 0.281041 0
0.191379 0.279423 0
0.232578 0.27744 0
0.27396 0.275257 0
0.315969 0.272847 0
0.358633 0.270344 0
0.401663 0.267933 0
0.445121 0.265126 0
0.488502 0.262318 0
0.532433 0.259739 0
0.57615 0.256779 0
0.619623 0.253864 0
0.66331 0.251164 0
0.706401 0.248539 0
0.749462 0.245716 0
0.791775 0.243046 0
0.833906 0.240818 0
0.875425 0.238346 0
0.915984 0.236088 0
0.956481 0.234257 0
0.995621 0.232334 0
1 0.230793 0
1 0.230488 0
1 0.232029 0
0 0.299626 0
0 0.30251 0
0 0.305287 0
0 0.308751 0
0 0.312505 0
0.00386053 0.315862 0
0.0308385 0.318029 0
0.0651255 0.318181 0
0.104097 0.317327 0
0.143786 0.315862 0
0.18407 0.314168 0
0.225315 0.312169 0
0.267155 0.310384 0
0.309545 0.30808 0
0.352102 0.305699 0
0.395041 0.303166 0
0.438911 0.300771 0
0.482399 0.298054 0
0.526284 0.295247 0
0.570214 0.292699 0
0.613901 0.290013 0
0.657649 0.287175 0
0.700816 0.284459 0
0.744274 0.282063 0
0.786694 0.279545 0
0.828717 0.277104 0
0.870405 0.274983 0
0.910979 0.27303 0
0.951156 0.271046 0
0.990478 0.269368 0
1 0.268162 0
1 0.267948 0
1 0.269291 0
0 0.333303 0
0 0.336583 0
0 0.339422 0
0 0.342611 0
0 0.3467 0
0 0.350423 0
0.0230564 0.352804 0
0.0573892 0.353079 0
0.0961471 0.352071 0
0.136416 0.350988 0
0.177142 0.349371 0
0.218433 0.347555 0
0.260136 0.345571 0
0.30277 0.34345 0
0.345647 0.341344 0
0.388739 0.338949 0
0.432456 0.33637 0
0.476371 0.334081 0
0.520302 0.331395 0
0.563928 0.328771 0
0.607675 0.326131 0
0.651743 0.32372 0
0.695033 0.321141 0
0.738262 0.318532 0
0.780896 0.316228 0
0.82327 0.314046 0
0.864729 0.311864 0
0.905455 0.30985 0
0.946105 0.308248 0
0.985397 0.306554 0
1 0.305257 0
1 0.305516 0
1 0.307027 0
0 0.36762 0
0 0.370703 0
0 0.373968 0
0 0.377264 0
0 0.381292 0
0 0.385031 0
0.0150149 0.38793 0
0.0493477 0.388449 0
0.0881971 0.387625 0
0.128389 0.386328 0
0.169406 0.384741 0
0.211048 0.383368 0
0.252934 0.381506 0
0.295628 0.3794 0
0.33846 0.377203 0
0.381979 0.375189 0
0.425788 0.372686 0
0.46952 0.370199 0
0.513832 0.367727 0
0.55787 0.365316 0
0.601892 0.362676 0
0.645579 0.360098 0
0.689265 0.357916 0
0.73257 0.355428 0
0.77499 0.35317 0
0.817243 0.350896 0
0.859022 0.349142 0
0.89987 0.347189 0
0.940185 0.345373 0
0.979873 0.344106 0
1 0.342885 0
1 0.34284 0
1 0.344427 0
0 0.402274 0
0 0.405432 0
0 0.408423 0
0 0.412085 0
0 0.416251 0
0 0.420218 0
0.00701915 0.422995 0
0.041001 0.423758 0
0.080293 0.423377 0
0.120668 0.422232 0
0.161868 0.420798 0
0.203311 0.419211 0
0.245609 0.417639 0
0.288426 0.415717 0
0.331395 0.413626 0
0.37496 0.411353 0
0.419013 0.409308 0
0.462837 0.406897 0
0.507088 0.404334 0
0.551049 0.401846 0
0.59559 0.399603 0
0.639307 0.397131 0
0.682795 0.39469 0
0.726162 0.392279 0
0.769116 0.390341 0
0.811536 0.388128 0
0.853056 0.38613 0
0.894423 0.384558 0
0.9346 0.382864 0
0.973816 0.38143 0
1 0.380514 0
1 0.380621 0
1 0.382239 0
0 0.437018 0
0 0.440528 0
0 0.443671 0
0 0.447059 0
0 0.451514 0
0 0.455772 0
0 0.458793 0
0.0326085 0.459831 0
0.0718242 0.459236 0
0.112856 0.458167 0
0.154238 0.457069 0
0.195941 0.455558 0
0.238453 0.453788 0
0.281178 0.451957 0
0.324544 0.450187 0
0.368322 0.447959 0
0.41207 0.445701 0
0.456184 0.443549 0
0.500587 0.441276 0
0.544518 0.43888 0
0.588754 0.436393 0
0.632868 0.434318 0
0.6766 0.431907 0
0.719875 0.429603 0
0.762585 0.42742 0
0.805386 0.425589 0
0.846952 0.423651 0
0.888151 0.42179 0
0.928557 0.420371 0
0.968124 0.419043 0
1 0.417945 0
1 0.41799 0
1 0.419989 0
0 0.472328 0
0 0.475608 0
0 0.479149 0
0 0.482582 0
0 0.4869 0
0 0.491325 0
0 0.494804 0
0.0241093 0.496117 0
0.0636759 0.495613 0
0.104723 0.494575 0
0.146105 0.493355 0
0.188296 0.492226 0
0.230945 0.490501 0
0.273793 0.488701 0
0.317037 0.486763 0
0.361257 0.484901 0
0.405112 0.482704 0
0.449332 0.480385 0
0.493599 0.478019 0
0.538064 0.475975 0
0.582437 0.473533 0
0.626307 0.471183 0
0.670207 0.468803 0
0.713756 0.466896 0
0.756436 0.464805 0
0.798825 0.46276 0
0.84065 0.461158 0
0.881956 0.459403 0
0.922179 0.457832 0
0.961776 0.456397 0
1 0.455695 0
1 0.455772 0
1 0.457481 0
0 0.50779 0
0 0.511162 0
0 0.514565 0
0 0.518242 0
0 0.522606 0
0 0.527276 0
0 0.530755 0
0.01561 0.532265 0
0.0555428 0.532189 0
0.0966506 0.531258 0
0.138247 0.530114 0
0.180545 0.528679 0
0.223407 0.527352 0
0.266453 0.525673 0
0.30985 0.523751 0
0.353826 0.521645 0
0.398062 0.519783 0
0.442573 0.517525 0
0.486793 0.515251 0
0.531014 0.512932 0
0.575769 0.510842 0
0.619715 0.508553 0
0.663691 0.506218 0
0.706966 0.504021 0
0.750103 0.502251 0
0.792676 0.500191 0
0.834333 0.498344 0
0.875669 0.496635 0
0.916182 0.495354 0
0.955917 0.493919 0
0.99382 0.492958 0
1 0.4934 0
1 0.495201 0
0 0.543404 0
0 0.546929 0
0 0.550332 0
0 0.554086 0
0 0.558556 0
0 0.563363 0
0 0.567025 0
0.00740063 0.56878 0
0.0471962 0.568536 0
0.0888533 0.56791 0
0.130739 0.566888 0
0.173266 0.565484 0
0.215961 0.563973 0
0.259159 0.562356 0
0.303227 0.560678 0
0.347036 0.558679 0
0.391089 0.556573 0
0.435737 0.554406 0
0.480262 0.552392 0
0.524712 0.550072 0
0.568978 0.547799 0
0.612863 0.545556 0
0.65713 0.543603 0
0.700465 0.541451 0
0.743358 0.539376 0
0.78613 0.537545 0
0.827939 0.535851 0
0.869245 0.534096 0
0.909514 0.532586 0
0.94963 0.531487 0
0.987533 0.530526 0
1 0.530602 0
1 0.532372 0
0 0.579065 0
0 0.582864 0
0 0.586328 0
0 0.589776 0
0 0.594476 0
0 0.599619 0
0 0.603525 0
0 0.605524 0
0.0389868 0.605356 0
0.0806439 0.604562 0
0.123003 0.603464 0
0.165743 0.602487 0
0.208591 0.601022 0
0.25185 0.599359 0
0.295766 0.597452 0
0.340017 0.595834 0
0.384176 0.593774 0
0.428809 0.591531 0
0.473182 0.589319 0
0.518196 0.587304 0
0.562448 0.585031 0
0.6065 0.582788 0
0.650568 0.580499 0
0.69427 0.578683 0
0.737362 0.576577 0
0.779797 0.574609 0
0.821469 0.572824 0
0.862974 0.57145 0
0.903166 0.569986 0
0.942962 0.568582 0
0.981231 0.567956 0
1 0.567987 0
1 0.569741 0
0 0.614862 0
0 0.618387 0
0 0.622248 0
0 0.625727 0
0 0.630274 0
0 0.635447 0
0 0.639612 0
0 0.642191 0
0.0310674 0.642176 0
0.0731975 0.641367 0
0.115419 0.64036 0
0.158007 0.639155 0
0.201343 0.638041 0
0.244907 0.636378 0
0.288777 0.634546 0
0.332815 0.632624 0
0.3776 0.630777 0
0.42208 0.628672 0
0.466529 0.626474 0
0.511284 0.624155 0
0.555611 0.621927 0
0.600153 0.619959 0
0.644129 0.6177 0
0.687526 0.615564 0
0.730953 0.613642 0
0.773434 0.611841 0
0.815152 0.610025 0
0.856474 0.60827 0
0.897093 0.60708 0
0.936889 0.605661 0
0.974868 0.6047 0
1 0.604715 0
1 0.606836 0
0 0.650813 0
0 0.654368 0
0 0.657984 0
0 0.661768 0
0 0.666331 0
0 0.671656 0
0 0.67599 0
0 0.678477 0
0.0233005 0.678599 0
0.0657359 0.678157 0
0.108217 0.67718 0
0.151034 0.675975 0
0.194217 0.674571 0
0.238193 0.67303 0
0.282216 0.671427 0
0.326329 0.669505 0
0.370977 0.667399 0
0.415457 0.665278 0
0.460273 0.663417 0
0.504982 0.661112 0
0.549249 0.6589 0
0.593622 0.656611 0
0.637781 0.654734 0
0.681208 0.652598 0
0.724437 0.650462 0
0.766842 0.648539 0
0.809033 0.646967 0
0.850202 0.645258 0
0.890501 0.643748 0
0.930587 0.642603 0
0.968597 0.641627 0
1 0.641581 0
1 0.64332 0
0 0.686717 0
0 0.690303 0
0 0.693965 0
0 0.697536 0
0 0.702312 0
0 0.707774 0
0 0.712352 0
0 0.715084 0
0.0155489 0.715282 0
0.0579385 0.714626 0
0.100908 0.713909 0
0.143984 0.712795 0
0.187533 0.71133 0
0.231266 0.709728 0
0.275227 0.707958 0
0.319814 0.706355 0
0.364492 0.70425 0
0.409018 0.702113 0
0.453819 0.699855 0
0.498634 0.697765 0
0.543175 0.695659 0
0.587655 0.693309 0
0.63151 0.691081 0
0.675242 0.689219 0
0.718547 0.687114 0
0.760922 0.685145 0
0.802899 0.683238 0
0.844129 0.681895 0
0.884306 0.6804 0
0.924086 0.67895 0
0.962112 0.677928 0
0.996765 0.678157 0
1 0.67982 0
0 0.722179 0
0 0.726116 0
0 0.729763 0
0 0.733333 0
0 0.737896 0
0 0.743481 0
0 0.748409 0
0 0.751522 0
0.00805676 0.751873 0
0.0506905 0.751263 0
0.0936294 0.750317 0
0.136919 0.749111 0
0.180926 0.747982 0
0.224704 0.74638 0
0.268788 0.74461 0
0.31339 0.742611 0
0.357916 0.740581 0
0.402808 0.73875 0
0.447761 0.736431 0
0.492317 0.734157 0
0.536782 0.731899 0
0.581613 0.729854 0
0.625498 0.727611 0
0.668956 0.725414 0
0.712306 0.723354 0
0.754894 0.721553 0
0.796933 0.719615 0
0.837964 0.717891 0
0.878691 0.716579 0
0.918288 0.715099 0
0.956329 0.714015 0
0.990723 0.713878 0
1 0.71577 0
0 0.757778 0
0 0.76141 0
0 0.765393 0
0 0.768978 0
0 0.773449 0
0 0.779065 0
0 0.78407 0
0 0.78732 0
0.000915541 0.787945 0
