a6000 slog2_1.C0006.cube
TITLE "Generate by Resolve"
LUT_3D_SIZE 9
0.0882582 0.0882582 0.0882582
0.148333 0.0874037 0.0885328
0.216052 0.0859693 0.0890059
0.284916 0.0837568 0.0897231
0.348135 0.0806744 0.0907301
0.404517 0.0767071 0.0920119
0.454612 0.071809 0.0935836
0.499321 0.0659495 0.0954452
0.539528 0.0590829 0.097612
0.086656 0.141146 0.0872511
0.147234 0.14052 0.087541
0.215335 0.139483 0.088014
0.284443 0.137865 0.0887465
0.347814 0.135592 0.0897536
0.404288 0.132616 0.0910353
0.454444 0.128847 0.0926223
0.499199 0.124224 0.0944991
0.539437 0.118639 0.0966659
0.0839857 0.203174 0.0855879
0.145373 0.202747 0.0858778
0.214115 0.202045 0.0863355
0.28365 0.200946 0.0870832
0.34728 0.19942 0.0880903
0.403922 0.197421 0.0893873
0.45417 0.194903 0.0909895
0.498985 0.191852 0.0928817
0.539269 0.188205 0.095079
0.0798199 0.268132 0.0829938
0.142428 0.267857 0.0832837
0.212192 0.267384 0.0837415
0.282414 0.266651 0.0844892
0.346456 0.265644 0.0854963
0.403326 0.264317 0.0868086
0.453742 0.262669 0.088426
0.498665 0.26067 0.0903487
0.53901 0.258305 0.0925612
0.0740673 0.328939 0.079408
0.138262 0.328756 0.0796979
0.209506 0.328435 0.0801556
0.280674 0.327932 0.0809033
0.345296 0.32723 0.0819104
0.402518 0.326329 0.0832227
0.453147 0.325216 0.0848402
0.498207 0.323857 0.0867781
0.538674 0.322271 0.0890364
0.0666209 0.38381 0.0747845
0.132723 0.383688 0.0750591
0.205966 0.383459 0.0755322
0.278416 0.383093 0.0762646
0.343771 0.382605 0.0772717
0.401465 0.381964 0.078584
0.452369 0.38117 0.0802014
0.497627 0.380224 0.0821393
0.538216 0.379095 0.0844129
0.0574502 0.432944 0.0690623
0.125597 0.432837 0.069337
0.201495 0.43267 0.06981
0.275578 0.43241 0.0705425
0.341894 0.432044 0.0715648
0.400137 0.431586 0.0728618
0.451408 0.431006 0.0744793
0.49691 0.430304 0.0764172
0.537652 0.42948 0.0786908
0.0464485 0.477012 0.062211
0.116625 0.476936 0.0624857
0.195956 0.476799 0.0629587
0.272099 0.4766 0.0636912
0.339605 0.476326 0.0647135
0.39855 0.475975 0.0660105
0.450263 0.475532 0.067628
0.49604 0.474998 0.0695659
0.53698 0.474388 0.0718395
0.0335851 0.516777 0.0541848
0.10547 0.516716 0.0544747
0.189227 0.516609 0.0549477
0.267948 0.516457 0.0556802
0.336873 0.516243 0.0566873
0.396674 0.515969 0.0579995
0.44889 0.515618 0.059617
0.495018 0.515206 0.0615549
0.536187 0.514717 0.0638285
0.107317 0.110475 0.151675
0.1617 0.109743 0.151858
0.224948 0.108476 0.152178
0.290761 0.106508 0.152667
0.352117 0.103746 0.153353
0.407324 0.100099 0.154223
0.456672 0.095491 0.155291
0.500893 0.0897688 0.156558
0.540749 0.0829175 0.158038
0.105882 0.157443 0.151003
0.160678 0.156893 0.151186
0.224262 0.155962 0.151507
0.290318 0.154482 0.15201
0.351797 0.152438 0.152682
0.407111 0.149752 0.153567
0.456504 0.14638 0.154635
0.500771 0.142229 0.155917
0.540658 0.137255 0.157397
0.103471 0.214435 0.149874
0.158968 0.214054 0.150057
0.223102 0.213397 0.150378
0.289555 0.212375 0.150881
0.351278 0.210941 0.151568
0.406744 0.209079 0.152453
0.456245 0.206744 0.153521
0.500557 0.203922 0.154818
0.54049 0.200534 0.156298
0.0996414 0.275746 0.148089
0.156268 0.275486 0.148287
0.221302 0.275029 0.148608
0.28835 0.274342 0.149111
0.350469 0.273365 0.149798
0.406165 0.272099 0.150698
0.455817 0.270542 0.151781
0.500237 0.268635 0.153094
0.540246 0.266377 0.154604
0.0941787 0.334188 0.145602
0.152438 0.334005 0.1458
0.218753 0.3337 0.14612
0.286687 0.333211 0.146639
0.34934 0.33254 0.147341
0.405356 0.33167 0.148241
0.455222 0.330587 0.149355
0.499794 0.329274 0.150668
0.539895 0.327733 0.152209
0.0868696 0.387579 0.142321
0.147372 0.387442 0.142519
0.215427 0.387213 0.142855
0.284504 0.386862 0.143389
0.34786 0.386389 0.144106
0.404318 0.385763 0.145022
0.454459 0.384985 0.146151
0.499214 0.384054 0.147509
0.539437 0.382971 0.149065
0.0776837 0.435721 0.138186
0.140887 0.435615 0.138384
0.2112 0.435447 0.138735
0.281773 0.435203 0.139269
0.346014 0.434836 0.140002
0.403037 0.434379 0.140948
0.453513 0.433814 0.142107
0.498497 0.433127 0.143496
0.538888 0.432319 0.145098
0.0666819 0.479118 0.133074
0.132753 0.479057 0.133288
0.205997 0.47892 0.133654
0.278431 0.478721 0.134203
0.343786 0.478462 0.134966
0.401465 0.478111 0.135943
0.452384 0.477668 0.137133
0.497642 0.47715 0.138552
0.538216 0.476539 0.1402
0.0538186 0.518425 0.126894
0.122698 0.518364 0.127108
0.19968 0.518273 0.127489
0.274434 0.51812 0.128054
0.341146 0.517906 0.128847
0.399619 0.517632 0.12987
0.451041 0.517281 0.131106
0.49662 0.516884 0.132586
0.537423 0.516396 0.134295
0.134981 0.142031 0.221881
0.181903 0.141421 0.222004
0.238849 0.140398 0.222202
0.300145 0.138781 0.222522
0.358572 0.136522 0.222965
0.411933 0.133562 0.223529
0.460075 0.129809 0.224216
0.503487 0.125216 0.225055
0.542779 0.119661 0.226017
0.133776 0.181582 0.221439
0.181003 0.181094 0.221561
0.238224 0.180301 0.221775
0.299718 0.179034 0.222095
0.358282 0.177279 0.222538
0.411719 0.17499 0.223102
0.459922 0.172107 0.223789
0.503365 0.168582 0.224628
0.542687 0.164355 0.225589
0.131746 0.231739 0.220706
0.179492 0.231388 0.220829
0.237171 0.230808 0.221042
0.298985 0.229892 0.221363
0.357778 0.228611 0.221805
0.411368 0.226947 0.22237
0.459648 0.224857 0.223072
0.503151 0.222324 0.223911
0.542519 0.219318 0.224887
0.128542 0.28777 0.219562
0.177111 0.287526 0.219699
0.235508 0.287114 0.219898
0.297871 0.286458 0.220218
0.357 0.285557 0.220676
0.410803 0.284398 0.221241
0.459236 0.282933 0.221942
0.502846 0.281178 0.222797
0.542275 0.279088 0.223774
0.123995 0.342657 0.217975
0.17377 0.342473 0.218097
0.233188 0.342184 0.218311
0.2963 0.341726 0.218631
0.355901 0.341085 0.219089
0.410025 0.340261 0.219669
0.458671 0.339223 0.220386
0.502403 0.337987 0.221225
0.541939 0.336538 0.222217
0.117922 0.393683 0.2159
0.169345 0.393561 0.216022
0.230137 0.393347 0.216236
0.29424 0.393011 0.216571
0.354498 0.392538 0.217014
0.409018 0.391943 0.217609
0.457923 0.391196 0.218326
0.501839 0.390311 0.219196
0.541482 0.389258 0.220188
0.110109 0.440269 0.213291
0.163699 0.440177 0.213413
0.226291 0.440009 0.213626
0.291661 0.439765 0.213962
0.352728 0.439414 0.214435
0.407767 0.438972 0.21503
0.456992 0.438422 0.215763
0.501137 0.437751 0.216632
0.540932 0.436957 0.217655
0.100206 0.482612 0.210101
0.156664 0.482536 0.210239
0.221561 0.482414 0.210452
0.288533 0.482231 0.210803
0.350591 0.481956 0.211276
0.406241 0.481621 0.211872
0.455879 0.481193 0.212634
0.500282 0.480674 0.213519
0.540276 0.480079 0.214557
0.0878004 0.521157 0.206302
0.148028 0.521111 0.206439
0.215839 0.521004 0.206653
0.284779 0.520851 0.207004
0.348043 0.520653 0.207492
0.404456 0.520378 0.208118
0.454566 0.520043 0.208881
0.49929 0.519646 0.209796
0.539498 0.519173 0.210864
0.170306 0.181369 0.292378
0.209003 0.180896 0.292454
0.25835 0.180087 0.292576
0.31371 0.17882 0.29279
0.368124 0.177066 0.29308
0.41886 0.174762 0.293446
0.465232 0.171878 0.293889
0.507439 0.168353 0.294423
0.545876 0.164111 0.295064
0.169345 0.213123 0.292088
0.208255 0.212726 0.292165
0.257801 0.21207 0.292302
0.313313 0.211032 0.292515
0.367849 0.209598 0.29279
0.418647 0.207721 0.293156
0.46508 0.205371 0.293614
0.507317 0.202518 0.294148
0.545785 0.1991 0.294789
0.167727 0.255421 0.291615
0.206973 0.255131 0.291707
0.256855 0.254612 0.291829
0.312657 0.253819 0.292042
0.367376 0.25272 0.292332
0.418311 0.251286 0.292699
0.46482 0.2495 0.293141
0.507118 0.247333 0.29369
0.545632 0.244755 0.294316
0.165164 0.304845 0.290883
0.204974 0.304616 0.290959
0.25539 0.30425 0.291096
0.31162 0.30367 0.29131
0.366644 0.302861 0.2916
0.417777 0.301808 0.291966
0.464424 0.300511 0.292424
0.506813 0.298924 0.292958
0.545388 0.297063 0.293599
0.161563 0.354971 0.28986
0.202167 0.354803 0.289952
0.253346 0.354543 0.290074
0.31017 0.354116 0.290288
0.365621 0.353521 0.290578
0.417029 0.352758 0.290944
0.463859 0.351812 0.291402
0.506386 0.350668 0.291951
0.545052 0.34931 0.292592
0.156771 0.402747 0.288533
0.198459 0.402625 0.288624
0.25066 0.402426 0.288746
0.308293 0.402106 0.28896
0.364294 0.401679 0.28925
0.416068 0.401114 0.289631
0.463142 0.400412 0.290089
0.505821 0.399558 0.290639
0.544625 0.398566 0.291295
0.150652 0.447105 0.286885
0.193759 0.447013 0.286961
0.247272 0.44686 0.287098
0.305943 0.446616 0.287312
0.362631 0.446296 0.287602
0.414862 0.445853 0.287984
0.462242 0.445335 0.288457
0.505135 0.444694 0.289006
0.544076 0.443931 0.289662
0.143023 0.487892 0.284871
0.187945 0.487816 0.284962
0.243122 0.487709 0.2851
0.303075 0.487511 0.285313
0.360616 0.487266 0.285603
0.413413 0.486931 0.286
0.461173 0.486519 0.286473
0.504311 0.486015 0.287037
0.543435 0.485435 0.287694
0.133593 0.525338 0.28249
0.180865 0.525277 0.282582
0.238132 0.525185 0.282719
0.299641 0.525032 0.282933
0.358236 0.524834 0.283238
0.411688 0.524575 0.283635
0.459892 0.524239 0.284108
0.503334 0.523857 0.284688
0.542672 0.523384 0.285344
0.209094 0.22356 0.356588
0.240253 0.223194 0.356634
0.28191 0.222568 0.356725
0.33077 0.221607 0.356863
0.380468 0.220249 0.357046
0.427955 0.218494 0.357305
0.472099 0.216297 0.357595
0.512749 0.213626 0.357961
0.550072 0.210452 0.358389
0.208347 0.248524 0.35639
0.239628 0.248203 0.356451
0.281437 0.247684 0.356542
0.330404 0.246845 0.35668
0.380209 0.245701 0.356863
0.427756 0.244205 0.357107
0.471962 0.242329 0.357412
0.512627 0.24007 0.357778
0.549981 0.237369 0.358206
0.207065 0.283314 0.356085
0.238575 0.283055 0.35613
0.280629 0.282628 0.356222
0.329809 0.281956 0.356359
0.379782 0.281041 0.356558
0.427436 0.279835 0.356802
0.471702 0.27834 0.357107
0.512444 0.276524 0.357473
0.549828 0.274388 0.357885
0.205066 0.325811 0.355581
0.236942 0.325612 0.355642
0.279362 0.325292 0.355734
0.328878 0.324773 0.355871
0.379095 0.324071 0.356054
0.426932 0.323156 0.356313
0.471321 0.322011 0.356619
0.512139 0.320623 0.356985
0.549599 0.319005 0.357397
0.202258 0.370596 0.35491
0.234638 0.370443 0.354955
0.277592 0.370199 0.355047
0.327596 0.369802 0.355184
0.378149 0.369268 0.355383
0.42623 0.368582 0.355627
0.470787 0.367712 0.355932
0.511727 0.36669 0.356298
0.549264 0.365454 0.356725
0.19855 0.414496 0.354025
0.231617 0.414389 0.35407
0.275288 0.414191 0.354162
0.325902 0.413901 0.354299
0.376913 0.413504 0.354498
0.425315 0.41297 0.354742
0.4701 0.412314 0.355062
0.511193 0.411536 0.355428
0.548852 0.410605 0.355856
0.193866 0.456092 0.352911
0.227802 0.456016 0.352972
0.272389 0.455863 0.353063
0.323796 0.455634 0.353201
0.375387 0.455329 0.353399
0.424186 0.454917 0.353658
0.469245 0.454414 0.353964
0.510521 0.453819 0.35433
0.548318 0.453101 0.354772
0.188052 0.494911 0.351583
0.223117 0.49485 0.351644
0.268849 0.494728 0.351736
0.321233 0.49456 0.351873
0.373526 0.494316 0.352071
0.422812 0.493996 0.352331
0.468208 0.493599 0.352636
0.509728 0.493126 0.353017
0.547692 0.492561 0.35346
0.180972 0.530922 0.350027
0.217456 0.530877 0.350072
0.264607 0.530785 0.350164
0.318166 0.530632 0.350317
0.371328 0.530434 0.350515
0.421195 0.53019 0.350774
0.466987 0.52987 0.35108
0.508782 0.529488 0.351461
0.546944 0.529046 0.351904
0.248386 0.265507 0.413565
0.273289 0.265217 0.413596
0.307988 0.264744 0.413657
0.350408 0.263996 0.413764
0.395132 0.262974 0.413901
0.438987 0.261631 0.414069
0.480552 0.259953 0.414282
0.519356 0.257908 0.414542
0.555337 0.255512 0.414832
0.247807 0.285084 0.413428
0.272786 0.284825 0.413474
0.307576 0.284398 0.413535
0.350103 0.283742 0.413626
0.394888 0.282826 0.413764
0.438804 0.281651 0.413931
0.480415 0.280171 0.414145
0.519234 0.27837 0.414405
0.555245 0.276249 0.41471
0.246799 0.313375 0.413214
0.271931 0.313161 0.413245
0.306889 0.31281 0.413306
0.349569 0.312261 0.413413
0.394491 0.311498 0.41355
0.438499 0.310506 0.413718
0.480186 0.30927 0.413931
0.519051 0.307774 0.414191
0.555108 0.306004 0.414481
0.245243 0.349386 0.412863
0.270588 0.349218 0.412909
0.305821 0.348928 0.41297
0.348745 0.348486 0.413062
0.393866 0.347875 0.413199
0.438025 0.347082 0.413367
0.47982 0.346105 0.413581
0.518776 0.344915 0.41384
0.554879 0.343511 0.414145
0.243061 0.388739 0.41239
0.268727 0.388617 0.412421
0.304326 0.388388 0.412497
0.347601 0.388052 0.412589
0.393011 0.387564 0.412726
0.437369 0.386954 0.412894
0.479316 0.386191 0.413108
0.51838 0.38526 0.413367
0.554559 0.384176 0.413672
0.240192 0.428504 0.411765
0.266285 0.428397 0.41181
0.302373 0.428229 0.411872
0.34612 0.427955 0.411963
0.391882 0.427588 0.4121
0.43653 0.4271 0.412284
0.47866 0.426505 0.412497
0.517861 0.425788 0.412757
0.554147 0.424933 0.413062
0.236576 0.467018 0.411002
0.263218 0.466941 0.411048
0.299931 0.466804 0.411109
0.344259 0.46659 0.4112
0.390494 0.4663 0.411337
0.435462 0.465919 0.411521
0.477852 0.465446 0.411734
0.51722 0.464881 0.411994
0.553643 0.464225 0.412299
0.232151 0.503563 0.410071
0.25948 0.503487 0.410117
0.296956 0.50338 0.410178
0.342 0.503212 0.410285
0.3888 0.502983 0.410422
0.434195 0.502678 0.41059
0.47686 0.502312 0.410803
0.516457 0.501854 0.411078
0.553033 0.501335 0.411383
0.226795 0.537865 0.408988
0.254978 0.53782 0.409033
0.2934 0.537728 0.409094
0.339315 0.537591 0.409186
0.386801 0.537408 0.409323
0.432685 0.537163 0.409506
0.475715 0.536858 0.40972
0.515557 0.536492 0.409995
0.552316 0.53608 0.4103
0.286564 0.305669 0.464042
0.306508 0.305455 0.464057
0.335286 0.305074 0.464103
0.371771 0.304509 0.464179
0.411566 0.3037 0.464286
0.451652 0.302663 0.464408
0.490425 0.30135 0.464561
0.527153 0.299794 0.464744
0.561608 0.297932 0.464973
0.286091 0.321126 0.463935
0.306096 0.320912 0.463966
0.334936 0.320577 0.464012
0.371511 0.320058 0.464088
0.411353 0.319326 0.464179
0.451484 0.318379 0.464317
0.490288 0.317205 0.464469
0.527047 0.315785 0.464652
0.561517 0.314107 0.464866
0.285313 0.344121 0.463783
0.305409 0.343954 0.463813
0.334356 0.343664 0.463859
0.371038 0.343206 0.46392
0.410986 0.34258 0.464027
0.451209 0.341756 0.464149
0.490074 0.340734 0.464302
0.526879 0.339513 0.464485
0.561379 0.338064 0.464714
0.284077 0.374426 0.463523
0.304326 0.374273 0.463554
0.333455 0.374029 0.4636
0.370321 0.373663 0.463676
0.410437 0.373129 0.463767
0.450767 0.372457 0.46389
0.489738 0.371618 0.464057
0.526604 0.370611 0.46424
0.561166 0.369421 0.464454
0.282368 0.408667 0.463172
0.302815 0.40856 0.463203
0.332189 0.408362 0.463249
0.369329 0.408057 0.463325
0.409659 0.40763 0.463416
0.450172 0.40708 0.463554
0.48925 0.406409 0.463706
0.526223 0.4056 0.46389
0.560861 0.404639 0.464118
0.280125 0.444266 0.46273
0.300847 0.444175 0.46276
0.330556 0.444022 0.462806
0.368017 0.443778 0.462867
0.408637 0.443442 0.462974
0.449378 0.443 0.463096
0.48864 0.442466 0.463264
0.525734 0.44181 0.463447
0.560464 0.441047 0.463661
0.277317 0.479561 0.462165
0.298375 0.479484 0.462196
0.328511 0.479362 0.462242
0.3664 0.479164 0.462318
0.407385 0.478889 0.462409
0.448402 0.478538 0.462547
0.487877 0.478111 0.462699
0.525124 0.477592 0.462882
0.559976 0.476967 0.463111
0.273884 0.513634 0.461494
0.295369 0.513573 0.461524
0.326009 0.513466 0.46157
0.364431 0.513313 0.461646
0.405859 0.513085 0.461738
0.447227 0.51281 0.461875
0.486961 0.512459 0.462028
0.524392 0.512032 0.462226
0.55938 0.511543 0.46244
0.26978 0.546059 0.4607
0.291768 0.545998 0.460731
0.323049 0.545922 0.460777
0.362112 0.545785 0.460853
0.404059 0.545617 0.46096
0.445838 0.545388 0.461082
0.485878 0.545098 0.461234
0.523537 0.544747 0.461433
0.558694 0.54435 0.461662
0.322835 0.343435 0.50901
0.338949 0.343267 0.509026
0.362844 0.342962 0.509056
0.39411 0.342519 0.509117
0.429267 0.341878 0.509194
0.465614 0.341054 0.509285
0.501503 0.340032 0.509407
0.536034 0.338796 0.509544
0.568811 0.337346 0.509712
0.322469 0.355779 0.508934
0.338613 0.355612 0.508949
0.362554 0.355337 0.50898
0.393881 0.354925 0.509041
0.429068 0.35433 0.509117
0.465461 0.353567 0.509209
0.501381 0.352621 0.509331
0.535927 0.351492 0.509468
0.568734 0.350149 0.509636
0.321843 0.374578 0.508812
0.338048 0.374426 0.508827
0.362066 0.374182 0.508858
0.393469 0.373816 0.508919
0.428748 0.373281 0.508995
0.465202 0.37261 0.509087
0.501167 0.371771 0.509209
0.53576 0.370764 0.509346
0.568597 0.369574 0.509514
0.320867 0.400031 0.508614
0.337163 0.399908 0.508644
0.361303 0.39971 0.508675
0.392844 0.39939 0.508721
0.428244 0.398932 0.508797
0.464805 0.398367 0.508904
0.500847 0.39765 0.50901
0.5355 0.39678 0.509163
0.568383 0.395773 0.509331
0.319493 0.429679 0.508354
0.335943 0.429572 0.50837
0.36025 0.429404 0.508415
0.391974 0.429145 0.508461
0.427558 0.428763 0.508537
0.464256 0.42829 0.508629
0.500404 0.427695 0.508751
0.535149 0.426978 0.508888
0.568093 0.426139 0.509056
0.317723 0.461326 0.508019
0.33434 0.461234 0.508034
0.358862 0.461097 0.508064
0.390845 0.460883 0.508125
0.426642 0.460578 0.508202
0.463523 0.460182 0.508293
0.499825 0.459693 0.508415
0.534691 0.459113 0.508553
0.567712 0.458427 0.508721
0.315496 0.493385 0.507591
0.332326 0.493324 0.507607
0.357153 0.493202 0.507652
0.389441 0.493034 0.507698
0.425528 0.492775 0.507774
0.462638 0.492454 0.507881
0.499123 0.492058 0.507988
0.534112 0.491585 0.508141
0.567254 0.49102 0.508309
0.312795 0.52491 0.507088
0.3299 0.524849 0.507103
0.355062 0.524758 0.507149
0.387747 0.524605 0.507195
0.42417 0.524407 0.507271
0.461555 0.524147 0.507362
0.498253 0.523812 0.507485
0.533425 0.52343 0.507637
0.56669 0.522972 0.507805
0.309575 0.555337 0.506493
0.327016 0.555291 0.506508
0.352605 0.555215 0.506554
0.385733 0.555093 0.5066
0.422568 0.554925 0.506676
0.460288 0.554696 0.506767
0.497246 0.554437 0.506889
0.532616 0.554101 0.507042
0.566033 0.553719 0.50721
0.356954 0.378668 0.549386
0.370108 0.378531 0.549401
0.390036 0.378286 0.549432
0.416831 0.37792 0.549477
0.447776 0.377417 0.549523
0.480552 0.376761 0.549599
0.513558 0.375937 0.549691
0.54583 0.37496 0.549798
0.576852 0.3738 0.549935
0.356649 0.388647 0.549325
0.369833 0.388525 0.54934
0.389792 0.388296 0.549371
0.416617 0.387961 0.549416
0.447608 0.387472 0.549477
0.480415 0.386862 0.549554
0.513436 0.386084 0.549645
0.545739 0.385168 0.549752
0.576776 0.38407 0.549874
0.356146 0.404135 0.549233
0.36936 0.404013 0.549249
0.38938 0.403815 0.549279
0.416281 0.40351 0.549325
0.447318 0.403067 0.549371
0.480171 0.402502 0.549447
0.513252 0.401816 0.549538
0.545571 0.400977 0.549661
0.576638 0.399985 0.549783
0.355352 0.425589 0.549081
0.368643 0.425498 0.549096
0.388739 0.425315 0.549126
0.415732 0.42504 0.549172
0.44686 0.424659 0.549233
0.479805 0.42417 0.54931
0.512947 0.42356 0.549401
0.545327 0.422827 0.549508
0.57644 0.421973 0.54963
0.354253 0.451209 0.548882
0.367636 0.451133 0.548898
0.387854 0.45098 0.548928
0.414984 0.450736 0.548974
0.44625 0.450416 0.54902
0.479301 0.450004 0.549096
0.512535 0.449485 0.549187
0.544991 0.448859 0.54931
0.576165 0.448127 0.549432
0.352819 0.479225 0.548623
0.366308 0.479149 0.548638
0.386694 0.479011 0.548653
0.414008 0.478828 0.548699
0.445441 0.478553 0.54876
0.478645 0.478202 0.548837
0.512001 0.47776 0.548928
0.544564 0.477241 0.549035
0.575799 0.476631 0.549172
0.351034 0.508202 0.548287
0.364675 0.508141 0.548302
0.385245 0.508034 0.548333
0.412787 0.507866 0.548379
0.444434 0.507637 0.54844
0.477836 0.507347 0.548501
0.511345 0.506981 0.548608
0.544015 0.506554 0.548714
0.575357 0.506035 0.548837
0.348882 0.537179 0.54789
0.362692 0.537133 0.547906
0.383505 0.537041 0.547936
0.411307 0.536904 0.547982
0.443229 0.536721 0.548043
0.47686 0.536477 0.548119
0.510552 0.536171 0.548211
0.543374 0.535805 0.548318
0.574823 0.535378 0.548455
0.346303 0.56556 0.547433
0.360327 0.565515 0.547448
0.38143 0.565438 0.547478
0.409583 0.565332 0.547524
0.44181 0.565164 0.547585
0.4757 0.564965 0.547662
0.509621 0.564706 0.547753
0.542611 0.564401 0.54786
0.574197 0.56405 0.547982
