a6000 slog2_1.C0006.cube
TITLE "Generate by Resolve"
LUT_3D_SIZE 5
0.0882582 0.0882582 0.0882582
0.216052 0.0859693 0.0890059
0.348135 0.0806744 0.0907301
0.454612 0.071809 0.0935836
0.539528 0.0590829 0.097612
0.0839857 0.203174 0.0855879
0.214115 0.202045 0.0863355
0.34728 0.19942 0.0880903
0.45417 0.194903 0.0909895
0.539269 0.188205 0.095079
0.0740673 0.328939 0.079408
0.209506 0.328435 0.0801556
0.345296 0.32723 0.0819104
0.453147 0.325216 0.0848402
0.538674 0.322271 0.0890364
0.0574502 0.432944 0.0690623
0.201495 0.43267 0.06981
0.341894 0.432044 0.0715648
0.451408 0.431006 0.0744793
0.537652 0.42948 0.0786908
0.0335851 0.516777 0.0541848
0.189227 0.516609 0.0549477
0.336873 0.516243 0.0566873
0.44889 0.515618 0.059617
0.536187 0.514717 0.0638285
0.134981 0.142031 0.221881
0.238849 0.140398 0.222202
0.358572 0.136522 0.222965
0.460075 0.129809 0.224216
0.542779 0.119661 0.226017
0.131746 0.231739 0.220706
0.237171 0.230808 0.221042
0.357778 0.228611 0.221805
0.459648 0.224857 0.223072
0.542519 0.219318 0.224887
0.123995 0.342657 0.217975
0.233188 0.342184 0.218311
0.355901 0.341085 0.219089
0.458671 0.339223 0.220386
0.541939 0.336538 0.222217
0.110109 0.440269 0.213291
0.226291 0.440009 0.213626
0.352728 0.439414 0.214435
0.456992 0.438422 0.215763
0.540932 0.436957 0.217655
0.0878004 0.521157 0.206302
0.215839 0.521004 0.206653
0.348043 0.520653 0.207492
0.454566 0.520043 0.208881
0.539498 0.519173 0.210864
0.209094 0.22356 0.356588
0.28191 0.222568 0.356725
0.380468 0.220249 0.357046
0.472099 0.216297 0.357595
0.550072 0.210452 0.358389
0.207065 0.283314 0.356085
0.280629 0.282628 0.356222
0.379782 0.281041 0.356558
0.471702 0.27834 0.357107
0.549828 0.274388 0.357885
0.202258 0.370596 0.35491
0.277592 0.370199 0.355047
0.378149 0.369268 0.355383
0.470787 0.367712 0.355932
0.549264 0.365454 0.356725
0.193866 0.456092 0.352911
0.272389 0.455863 0.353063
0.375387 0.455329 0.353399
0.469245 0.454414 0.353964
0.548318 0.453101 0.354772
0.180972 0.530922 0.350027
0.264607 0.530785 0.350164
0.371328 0.530434 0.350515
0.466987 0.52987 0.35108
0.546944 0.529046 0.351904
0.286564 0.305669 0.464042
0.335286 0.305074 0.464103
0.411566 0.3037 0.464286
0.490425 0.30135 0.464561
0.561608 0.297932 0.464973
0.285313 0.344121 0.463783
0.334356 0.343664 0.463859
0.410986 0.34258 0.464027
0.490074 0.340734 0.464302
0.561379 0.338064 0.464714
0.282368 0.408667 0.463172
0.332189 0.408362 0.463249
0.409659 0.40763 0.463416
0.48925 0.406409 0.463706
0.560861 0.404639 0.464118
0.277317 0.479561 0.462165
0.328511 0.479362 0.462242
0.407385 0.478889 0.462409
0.487877 0.478111 0.462699
0.559976 0.476967 0.463111
0.26978 0.546059 0.4607
0.323049 0.545922 0.460777
0.404059 0.545617 0.46096
0.485878 0.545098 0.461234
0.558694 0.54435 0.461662
0.356954 0.378668 0.549386
0.390036 0.378286 0.549432
0.447776 0.377417 0.549523
0.513558 0.375937 0.549691
0.576852 0.3738 0.549935
0.356146 0.404135 0.549233
0.38938 0.403815 0.549279
0.447318 0.403067 0.549371
0.513252 0.401816 0.549538
0.576638 0.399985 0.549783
0.354253 0.451209 0.548882
0.387854 0.45098 0.548928
0.44625 0.450416 0.54902
0.512535 0.449485 0.549187
0.576165 0.448127 0.549432
0.351034 0.508202 0.548287
0.385245 0.508034 0.548333
0.444434 0.507637 0.54844
0.511345 0.506981 0.548608
0.575357 0.506035 0.548837
0.346303 0.56556 0.547433
0.38143 0.565438 0.547478
0.44181 0.565164 0.547585
0.509621 0.564706 0.547753
0.574197 0.56405 0.547982
