a6000 vivid_1.C0006.cube
TITLE "Generate by Resolve"
LUT_3D_SIZE 5
0 0 0
0.167407 0 0
0.460365 0 0
0.770153 0 0
1 0 0
0 0.116701 0
0.145037 0.118273 0
0.471473 0.0943923 0
0.813565 0.0658427 0
1 0.0467842 0
0 0.36762 0
0.0881971 0.387625 0
0.425788 0.372686 0
0.77499 0.35317 0
1 0.344427 0
0 0.650813 0
0.0233005 0.678599 0
0.370977 0.667399 0
0.724437 0.650462 0
1 0.64332 0
0 0.931884 0
0 0.964538 0
0.326955 0.9523 0
0.681407 0.932113 0
0.986999 0.920821 0
0.0314336 0.0394293 0.180163
0.200748 0.0191043 0.162173
0.490364 0 0.131029
0.810269 0 0.105882
1 0 0.0958724
0 0.173877 0.148806
0.190509 0.175998 0.153597
0.499428 0.155673 0.140185
0.83241 0.131136 0.126925
1 0.117784 0.130541
0 0.417868 0.0957809
0.141344 0.427329 0.107225
0.457923 0.413275 0.0983444
0.796658 0.394858 0.0886244
1 0.388754 0.0943008
0 0.693843 0.0371252
0.0836805 0.709697 0.0547341
0.407172 0.697673 0.0467842
0.748516 0.680629 0.0363775
1 0.674418 0.0394141
0 0.968246 0
0.0365454 0.988174 0.0160372
0.366461 0.973953 0.00466926
0.708171 0.953262 0
1 0.942397 0
0.123995 0.156588 0.508156
0.290883 0.147555 0.5019
0.563043 0.128389 0.488884
0.872526 0.105501 0.476646
1 0.0961929 0.482994
0.100496 0.282353 0.487617
0.270085 0.275395 0.482933
0.545586 0.259358 0.47216
0.858 0.240497 0.461814
1 0.236088 0.469886
0.0552987 0.498711 0.449729
0.229526 0.493904 0.446677
0.509407 0.480873 0.437461
0.82475 0.465156 0.42826
1 0.463432 0.436194
0.000915541 0.757824 0.406989
0.180224 0.75378 0.404273
0.463325 0.741054 0.394278
0.77969 0.724849 0.383307
1 0.72166 0.387655
0 1 0.383825
0.145083 1 0.379705
0.430686 0.996307 0.36585
0.745327 0.975692 0.348516
1 0.965682 0.343008
0.270512 0.321447 0.838254
0.400244 0.315038 0.833783
0.634882 0.301625 0.824887
0.914244 0.286732 0.817243
1 0.29044 0.831601
0.253346 0.417395 0.823453
0.383764 0.4112 0.818967
0.619577 0.3991 0.810636
0.900313 0.385275 0.803357
1 0.390204 0.817624
0.218784 0.598383 0.794049
0.350927 0.592996 0.790066
0.588281 0.58114 0.781445
0.869444 0.567742 0.773404
1 0.572717 0.785855
0.176883 0.826535 0.761288
0.310307 0.820417 0.756191
0.548272 0.80734 0.745586
0.828855 0.791943 0.73434
1 0.794079 0.742092
0.162646 1 0.760647
0.297261 1 0.753613
0.535012 1 0.73843
0.80885 1 0.716594
1 0.985199 0.700923
0.43537 0.504219 1
0.537423 0.498909 1
0.732387 0.489006 1
0.974304 0.478935 1
1 0.491951 1
0.421836 0.577844 1
0.524407 0.572854 1
0.719234 0.5626 1
0.960769 0.552483 1
1 0.565118 1
0.395102 0.723949 1
0.497246 0.71841 1
0.692409 0.70779 1
0.933562 0.696483 1
1 0.707774 1
0.361852 0.914565 1
0.464057 0.908095 1
0.658686 0.895476 1
0.897841 0.881422 1
1 0.886458 1
0.374731 1 1
0.472679 1 1
0.655879 1 1
0.87599 1 0.986557
1 1 0.973632
